; generated by Slic3r 0.9.10b on 2013-11-11 at 19:52:05

; layer_height = 0.2
; perimeters = 1
; top_solid_layers = 5
; bottom_solid_layers = 5
; fill_density = 0.4
; perimeter_speed = 90
; infill_speed = 90
; travel_speed = 100
; nozzle_diameter = 0.5
; filament_diameter = 2.9
; extrusion_multiplier = 0.853
; perimeters extrusion width = 0.85mm
; infill extrusion width = 1.02mm
; solid infill extrusion width = 0.85mm
; top infill extrusion width = 0.85mm

G21 ; set units to millimeters
;G28 ; home all axes
G90 ; use absolute coordinates
G92 E0
M82 ; use absolute distances for extrusion
G1 F600.000 E-1.00000
G92 E0
G1 Z0.200 F6000.000
G1 X61.430 Y53.080
G1 F600.000 E1.00000
G1 X62.280 Y52.090 F1080.000 E1.02720
G1 X63.300 Y51.290 E1.05422
G1 X64.460 Y50.690 E1.08145
G1 X65.700 Y50.320 E1.10842
G1 X67.000 Y50.190 E1.13565
G1 X83.000 Y50.190 E1.46918
G1 X84.300 Y50.320 E1.49641
G1 X85.540 Y50.690 E1.52339
G1 X86.700 Y51.290 E1.55061
G1 X87.720 Y52.100 E1.57776
G1 X88.570 Y53.080 E1.60481
G1 X89.210 Y54.220 E1.63206
G1 X89.630 Y55.450 E1.65915
G1 X97.270 Y88.100 E2.35814
G1 X97.410 Y88.940 E2.37589
G1 X97.760 Y92.290 E2.44610
G1 X97.760 Y93.720 E2.47591
G1 X97.460 Y95.110 E2.50555
G1 X96.880 Y96.410 E2.53523
G1 X96.050 Y97.560 E2.56479
G1 X94.990 Y98.510 E2.59446
G1 X93.760 Y99.220 E2.62407
G1 X92.400 Y99.660 E2.65386
G1 X90.990 Y99.810 E2.68342
G1 X59.000 Y99.810 E3.35026
G1 X57.590 Y99.660 E3.37982
G1 X56.240 Y99.220 E3.40942
G1 X55.010 Y98.510 E3.43902
G1 X53.950 Y97.560 E3.46870
G1 X53.110 Y96.410 E3.49838
G1 X52.530 Y95.120 E3.52787
G1 X52.230 Y93.730 E3.55751
G1 X52.230 Y92.310 E3.58711
G1 X52.570 Y88.980 E3.65688
G1 X52.710 Y88.120 E3.67505
G1 X60.370 Y55.450 E4.37453
G1 X60.790 Y54.210 E4.40182
G1 X61.370 Y53.185 E4.42637
G1 F600.000 E3.42637
G92 E0
G1 X68.211 Y76.211 F6000.000
G1 F600.000 E1.00000
G1 X81.789 Y76.211 F1080.000 E1.28305
G1 X81.789 Y79.760 E1.35705
G1 X84.892 Y82.014 E1.43698
G1 X86.959 Y84.311 E1.50140
G1 X88.505 Y86.987 E1.56583
G1 X89.460 Y89.926 E1.63025
G1 X89.655 Y91.789 E1.66929
G1 X88.090 Y91.789 E1.70192
G1 X87.928 Y90.252 E1.73415
G1 X87.075 Y87.624 E1.79175
G1 X85.693 Y85.231 E1.84935
G1 X83.844 Y83.178 E1.90695
G1 X81.609 Y81.553 E1.96455
G1 X79.084 Y80.430 E2.02214
G1 X76.382 Y79.855 E2.07974
G1 X73.618 Y79.855 E2.13734
G1 X70.916 Y80.430 E2.19494
G1 X68.391 Y81.553 E2.25254
G1 X66.156 Y83.178 E2.31014
G1 X64.307 Y85.231 E2.36774
G1 X62.925 Y87.624 E2.42534
G1 X62.072 Y90.252 E2.48294
G1 X61.910 Y91.789 E2.51516
G1 X60.345 Y91.789 E2.54780
G1 X60.540 Y89.927 E2.58684
G1 X61.495 Y86.987 E2.65126
G1 X63.041 Y84.311 E2.71568
G1 X65.108 Y82.014 E2.78010
G1 X68.211 Y79.760 E2.86004
G1 X68.211 Y76.332 E2.93151
G1 X69.596 Y75.404 F6000.000
G1 X80.404 Y75.404 F1080.000 E3.15679
G1 X80.404 Y57.404 E3.53200
G1 X82.596 Y57.404 E3.57772
G1 X82.596 Y79.349 E4.03518
G1 X85.435 Y81.411 E4.10831
G1 X87.616 Y83.834 E4.17627
G1 X89.246 Y86.657 E4.24423
G1 X90.254 Y89.758 E4.31218
G1 X90.552 Y92.596 E4.37168
G1 X87.363 Y92.596 E4.43815
G1 X87.135 Y90.421 E4.48375
G1 X86.333 Y87.954 E4.53782
G1 X85.036 Y85.708 E4.59188
G1 X83.301 Y83.781 E4.64594
G1 X81.203 Y82.256 E4.70000
G1 X78.834 Y81.201 E4.75407
G1 X76.297 Y80.662 E4.80813
G1 X73.650 Y80.674 E4.86331
G1 X71.166 Y81.201 E4.91623
G1 X68.797 Y82.256 E4.97029
G1 X66.699 Y83.781 E5.02436
G1 X64.964 Y85.708 E5.07842
G1 X63.667 Y87.954 E5.13248
G1 X62.865 Y90.421 E5.18654
G1 X62.637 Y92.596 E5.23215
G1 X59.448 Y92.596 E5.29861
G1 X59.746 Y89.758 E5.35811
G1 X60.754 Y86.657 E5.42607
G1 X62.384 Y83.834 E5.49403
G1 X64.565 Y81.411 E5.56198
G1 X67.404 Y79.349 E5.63511
G1 X67.404 Y57.404 E6.09258
G1 X69.596 Y57.404 E6.13829
G1 X69.596 Y75.282 E6.51098
G1 F600.000 E5.51098
G92 E0
G1 X69.353 Y80.485 F6000.000
G1 F600.000 E1.00000
G1 X68.796 Y79.928 F1080.000 E1.01648
G1 X68.796 Y78.783 E1.04042
G1 X70.145 Y80.132 E1.08032
G1 X70.976 Y79.819 E1.09890
G1 X68.796 Y77.638 E1.16338
G1 X69.098 Y76.796 E1.18209
G1 X71.920 Y79.618 E1.26554
G1 X72.865 Y79.417 E1.28573
G1 X70.243 Y76.796 E1.36324
G1 X71.388 Y76.796 E1.38718
G1 X73.862 Y79.270 E1.46035
G1 X75.007 Y79.270 E1.48428
G1 X72.533 Y76.796 E1.55745
G1 X73.678 Y76.796 E1.58139
G1 X76.152 Y79.270 E1.65456
G1 X77.527 Y79.501 E1.68371
G1 X74.822 Y76.796 E1.76369
G1 X75.967 Y76.796 E1.78763
G1 X78.981 Y79.810 E1.87675
G1 X80.925 Y80.609 E1.92070
G1 X77.112 Y76.796 E2.03346
G1 X78.257 Y76.796 E2.05739
G1 X81.204 Y79.743 E2.14455
G1 X81.204 Y78.598 E2.16848
G1 X79.402 Y76.796 E2.22178
G1 X80.547 Y76.796 E2.24572
G1 X81.204 Y77.453 E2.26517
G1 F600.000 E1.26517
G92 E0
G1 X68.215 Y80.466 F6000.000
G1 F600.000 E1.00000
G1 X68.444 Y80.696 F240.000 E1.00314
G1 X68.219 Y81.002 F6000.000
G1 X67.907 Y80.690 F240.000 E1.00741
G1 X67.599 Y80.913 F6000.000
G1 X67.893 Y81.207 F240.000 E1.01142
G1 X67.585 Y81.430 F6000.000
G1 X67.292 Y81.137 F240.000 E1.01544
G1 X66.984 Y81.361 F6000.000
G1 X67.277 Y81.654 F240.000 E1.01945
G1 X66.970 Y81.878 F6000.000
G1 X66.676 Y81.584 F240.000 E1.02346
G1 X66.368 Y81.808 F6000.000
G1 X66.662 Y82.101 F240.000 E1.02748
G1 X66.354 Y82.325 F6000.000
G1 X66.061 Y82.031 F240.000 E1.03149
G1 X65.753 Y82.255 F6000.000
G1 X66.046 Y82.548 F240.000 E1.03550
G1 X65.744 Y82.778 F6000.000
G1 X65.454 Y82.487 F240.000 E1.03947
G1 X65.202 Y82.767 F6000.000
G1 X65.493 Y83.057 F240.000 E1.04344
G1 X65.241 Y83.337 F6000.000
G1 X64.951 Y83.047 F240.000 E1.04741
G1 X64.699 Y83.326 F6000.000
G1 X64.989 Y83.616 F240.000 E1.05138
G1 X64.737 Y83.896 F6000.000
G1 X64.447 Y83.606 F240.000 E1.05535
G1 X64.195 Y83.885 F6000.000
G1 X64.486 Y84.176 F240.000 E1.05932
G1 X64.234 Y84.455 F6000.000
G1 X63.944 Y84.165 F240.000 E1.06329
G1 X63.692 Y84.444 F6000.000
G1 X63.982 Y84.735 F240.000 E1.06726
G1 X63.756 Y85.039 F6000.000
G1 X63.455 Y84.739 F240.000 E1.07136
G1 X63.261 Y85.076 F6000.000
G1 X63.561 Y85.376 F240.000 E1.07546
G1 X63.367 Y85.713 F6000.000
G1 X63.066 Y85.413 F240.000 E1.07957
G1 X62.872 Y85.750 F6000.000
G1 X63.172 Y86.050 F240.000 E1.08367
G1 X62.978 Y86.387 F6000.000
G1 X62.678 Y86.087 F240.000 E1.08778
G1 X62.483 Y86.423 F6000.000
G1 X62.783 Y86.723 F240.000 E1.09188
G1 X62.589 Y87.060 F6000.000
G1 X62.289 Y86.760 F240.000 E1.09598
G1 X62.094 Y87.097 F6000.000
G1 X62.396 Y87.399 F240.000 E1.10011
G1 X62.265 Y87.800 F6000.000
G1 X61.940 Y87.474 F240.000 E1.10456
G1 X61.810 Y87.875 F6000.000
G1 X62.135 Y88.201 F240.000 E1.10901
G1 X62.005 Y88.602 F6000.000
G1 X61.679 Y88.276 F240.000 E1.11345
G1 X61.549 Y88.677 F6000.000
G1 X61.875 Y89.003 F240.000 E1.11790
G1 X61.744 Y89.404 F6000.000
G1 X61.419 Y89.078 F240.000 E1.12235
G1 X61.289 Y89.479 F6000.000
G1 X61.614 Y89.805 F240.000 E1.12680
G1 X61.498 Y90.220 F6000.000
G1 X61.158 Y89.880 F240.000 E1.13145
G1 X61.448 Y90.701 F6000.000
G1 X61.075 Y90.328 F240.000 E1.13655
G1 X61.397 Y91.182 F6000.000
G1 X61.024 Y90.809 F240.000 E1.14165
G1 F600.000 E0.14165
G92 E0
G1 X68.556 Y73.755 F6000.000
G1 F600.000 E1.00000
G1 X68.444 Y73.644 F240.000 E1.00500
G1 X68.556 Y72.007 F6000.000
G1 X68.444 Y71.896 F240.000 E1.00999
G1 X68.556 Y70.258 F6000.000
G1 X68.444 Y70.147 F240.000 E1.01499
G1 X68.556 Y68.510 F6000.000
G1 X68.444 Y68.399 F240.000 E1.01999
G1 X68.556 Y66.761 F6000.000
G1 X68.444 Y66.650 F240.000 E1.02499
G1 X68.556 Y65.013 F6000.000
G1 X68.444 Y64.902 F240.000 E1.02998
G1 X68.556 Y63.264 F6000.000
G1 X68.444 Y63.153 F240.000 E1.03498
G1 X68.556 Y61.516 F6000.000
G1 X68.444 Y61.405 F240.000 E1.03998
G1 X68.556 Y59.767 F6000.000
G1 X68.444 Y59.656 F240.000 E1.04498
G1 F600.000 E0.04498
G92 E0
G1 X81.556 Y74.516 F6000.000
G1 F600.000 E1.00000
G1 X81.444 Y74.405 F240.000 E1.00501
G1 X81.556 Y72.767 E1.05742
G1 X81.444 Y72.656 E1.06244
G1 X81.556 Y71.019 E1.11485
G1 X81.444 Y70.908 E1.11986
G1 X81.556 Y69.270 E1.17227
G1 X81.444 Y69.159 E1.17728
G1 X81.556 Y67.522 E1.22969
G1 X81.444 Y67.411 E1.23471
G1 X81.556 Y65.773 E1.28712
G1 X81.444 Y65.662 E1.29213
G1 X81.556 Y64.025 E1.34454
G1 X81.444 Y63.914 E1.34955
G1 X81.556 Y62.276 E1.40196
G1 X81.444 Y62.165 E1.40698
G1 X81.556 Y60.528 E1.45939
G1 X81.444 Y60.417 E1.46440
G1 X81.556 Y58.779 E1.51681
G1 X81.444 Y58.668 E1.52182
G1 F600.000 E0.52182
G92 E0
G1 X89.014 Y91.171 F6000.000
G1 F600.000 E1.00000
G1 X88.553 Y90.710 F240.000 E1.00632
G1 X88.951 Y90.577 E1.01040
G1 X88.486 Y90.111 E1.01679
G1 X88.868 Y89.962 E1.02077
G1 X88.230 Y89.324 E1.02954
G1 X88.613 Y89.175 E1.03352
G1 X87.974 Y88.537 E1.04228
G1 X88.357 Y88.388 E1.04627
G1 X87.718 Y87.750 E1.05503
G1 X88.101 Y87.601 E1.05902
G1 X87.208 Y86.708 E1.07128
G1 X87.602 Y86.571 E1.07533
G1 X86.482 Y85.451 E1.09070
G1 X86.876 Y85.314 E1.09475
G1 X82.676 Y81.113 E1.15239
G1 X82.586 Y81.555 E1.15676
G1 X81.556 Y80.525 E1.17090
G1 F600.000 E0.17090
G92 E0
G1 Z0.400 F6000.000
G1 X81.789 Y79.760
G1 F600.000 E1.00000
G1 X84.892 Y82.014 F5400.000 E1.07993
G1 X86.959 Y84.311 E1.14435
G1 X88.505 Y86.987 E1.20877
G1 X89.460 Y89.927 E1.27320
G1 X89.655 Y91.789 E1.31224
G1 X88.090 Y91.789 E1.34487
G1 X87.928 Y90.252 E1.37710
G1 X87.075 Y87.624 E1.43470
G1 X85.693 Y85.231 E1.49230
G1 X83.844 Y83.178 E1.54990
G1 X81.609 Y81.553 E1.60749
G1 X79.084 Y80.430 E1.66509
G1 X76.382 Y79.855 E1.72269
G1 X73.618 Y79.855 E1.78029
G1 X70.916 Y80.430 E1.83789
G1 X68.391 Y81.553 E1.89549
G1 X66.156 Y83.178 E1.95309
G1 X64.307 Y85.231 E2.01069
G1 X62.925 Y87.624 E2.06829
G1 X62.072 Y90.252 E2.12589
G1 X61.910 Y91.789 E2.15811
G1 X60.345 Y91.789 E2.19074
G1 X60.540 Y89.927 E2.22979
G1 X61.495 Y86.987 E2.29421
G1 X63.041 Y84.311 E2.35863
G1 X65.108 Y82.014 E2.42305
G1 X68.211 Y79.760 E2.50299
G1 X68.211 Y76.211 E2.57698
G1 X81.789 Y76.211 E2.86004
G1 X81.789 Y79.639 E2.93151
G1 X82.596 Y79.349 F6000.000
G1 X85.435 Y81.411 F5400.000 E3.00464
G1 X87.616 Y83.834 E3.07260
G1 X89.246 Y86.657 E3.14055
G1 X90.254 Y89.758 E3.20851
G1 X90.552 Y92.596 E3.26801
G1 X87.363 Y92.596 E3.33448
G1 X87.135 Y90.421 E3.38008
G1 X86.333 Y87.954 E3.43414
G1 X85.036 Y85.708 E3.48821
G1 X83.301 Y83.781 E3.54227
G1 X81.203 Y82.256 E3.59633
G1 X78.834 Y81.201 E3.65039
G1 X76.297 Y80.662 E3.70446
G1 X73.703 Y80.662 E3.75852
G1 X73.625 Y80.679 E3.76019
G1 X71.166 Y81.201 E3.81258
G1 X68.797 Y82.256 E3.86664
G1 X66.699 Y83.781 E3.92071
G1 X64.964 Y85.708 E3.97477
G1 X63.667 Y87.954 E4.02883
G1 X62.865 Y90.421 E4.08290
G1 X62.637 Y92.596 E4.12850
G1 X59.448 Y92.596 E4.19496
G1 X59.746 Y89.758 E4.25446
G1 X60.754 Y86.657 E4.32242
G1 X62.384 Y83.834 E4.39038
G1 X64.565 Y81.411 E4.45834
G1 X67.404 Y79.349 E4.53147
G1 X67.404 Y57.404 E4.98893
G1 X69.596 Y57.404 E5.03464
G1 X69.596 Y75.404 E5.40986
G1 X80.404 Y75.404 E5.63514
G1 X80.404 Y57.404 E6.01035
G1 X82.596 Y57.404 E6.05607
G1 X82.596 Y79.228 E6.51101
G1 F600.000 E5.51101
G92 E0
G1 X81.556 Y74.660 F6000.000
G1 F600.000 E1.00000
G1 X81.444 Y74.771 F1200.000 E1.00501
G1 X81.444 Y73.022 E1.06085
G1 X81.556 Y72.911 E1.06586
G1 X81.444 Y71.274 E1.11827
G1 X81.556 Y71.163 E1.12329
G1 X81.444 Y69.525 E1.17570
G1 X81.556 Y69.414 E1.18071
G1 X81.444 Y67.777 E1.23312
G1 X81.556 Y67.666 E1.23813
G1 X81.444 Y66.028 E1.29054
G1 X81.556 Y65.917 E1.29556
G1 X81.444 Y64.280 E1.34796
G1 X81.556 Y64.169 E1.35298
G1 X81.444 Y62.531 E1.40539
G1 X81.556 Y62.420 E1.41040
G1 X81.444 Y60.783 E1.46281
G1 X81.556 Y60.672 E1.46783
G1 X81.444 Y59.034 E1.52023
G1 X81.556 Y58.923 E1.52525
G1 F600.000 E0.52525
G92 E0
G1 X68.556 Y73.672 F6000.000
G1 F600.000 E1.00000
G1 X68.444 Y73.783 F1200.000 E1.00500
G1 X68.444 Y72.034 F6000.000
G1 X68.556 Y71.923 F1200.000 E1.00999
G1 X68.444 Y70.286 F6000.000
G1 X68.556 Y70.175 F1200.000 E1.01499
G1 X68.444 Y68.537 F6000.000
G1 X68.556 Y68.426 F1200.000 E1.01999
G1 X68.444 Y66.789 F6000.000
G1 X68.556 Y66.678 F1200.000 E1.02499
G1 X68.444 Y65.040 F6000.000
G1 X68.556 Y64.929 F1200.000 E1.02998
G1 X68.444 Y63.292 F6000.000
G1 X68.556 Y63.181 F1200.000 E1.03498
G1 X68.444 Y61.543 F6000.000
G1 X68.556 Y61.432 F1200.000 E1.03998
G1 X68.444 Y59.795 F6000.000
G1 X68.556 Y59.684 F1200.000 E1.04498
G1 F600.000 E0.04498
G92 E0
G1 X67.312 Y81.629 F6000.000
G1 F600.000 E1.00000
G1 X68.444 Y80.497 F1200.000 E1.01548
G1 F600.000 E0.01548
G92 E0
G1 X63.162 Y85.248 F6000.000
G1 F600.000 E1.00000
G1 X67.223 Y81.187 F1200.000 E1.05553
G1 F600.000 E0.05553
G92 E0
G1 X62.436 Y86.505 F6000.000
G1 F600.000 E1.00000
G1 X63.556 Y85.385 F1200.000 E1.01531
G1 F600.000 E0.01531
G92 E0
G1 X61.912 Y87.560 F6000.000
G1 F600.000 E1.00000
G1 X62.830 Y86.642 F1200.000 E1.01255
G1 F600.000 E0.01255
G92 E0
G1 X61.656 Y88.347 F6000.000
G1 F600.000 E1.00000
G1 X62.295 Y87.709 F1200.000 E1.00873
G1 X61.401 Y89.134 F6000.000
G1 X62.039 Y88.496 F1200.000 E1.01746
G1 X61.145 Y89.921 F6000.000
G1 X61.784 Y89.283 F1200.000 E1.02619
G1 X61.052 Y90.546 F6000.000
G1 X61.528 Y90.070 F1200.000 E1.03270
G1 X61.450 Y90.679 F6000.000
G1 X60.989 Y91.139 F1200.000 E1.03900
G1 F600.000 E0.03900
G92 E0
G1 X88.973 Y90.784 F6000.000
G1 F600.000 E1.00000
G1 X88.600 Y91.157 F1200.000 E1.00512
G1 X88.550 Y90.676 E1.00981
G1 X88.923 Y90.303 E1.01493
G1 X88.499 Y90.195 E1.01917
G1 X88.835 Y89.859 E1.02378
G1 X88.705 Y89.458 E1.02787
G1 X88.379 Y89.784 E1.03233
G1 X88.249 Y89.383 E1.03643
G1 X88.574 Y89.057 E1.04089
G1 X88.444 Y88.656 E1.04498
G1 X88.119 Y88.982 E1.04945
G1 X87.988 Y88.581 E1.05354
G1 X88.314 Y88.255 E1.05800
G1 X88.183 Y87.854 E1.06209
G1 X87.858 Y88.180 E1.06656
G1 X87.728 Y87.779 E1.07065
G1 X88.053 Y87.453 E1.07512
G1 X87.896 Y87.079 E1.07905
G1 X87.596 Y87.380 E1.08317
G1 X87.401 Y87.043 E1.08694
G1 X87.701 Y86.743 E1.09106
G1 X87.507 Y86.406 E1.09484
G1 X87.207 Y86.706 E1.09896
G1 X87.012 Y86.369 E1.10273
G1 X87.312 Y86.069 E1.10685
G1 X87.118 Y85.732 E1.11062
G1 X86.818 Y86.032 E1.11474
G1 X86.623 Y85.695 E1.11852
G1 X86.923 Y85.395 E1.12263
G1 X86.729 Y85.058 E1.12641
G1 X86.429 Y85.358 E1.13053
G1 X86.234 Y85.022 E1.13430
G1 X86.534 Y84.721 E1.13842
G1 X86.295 Y84.430 E1.14208
G1 X86.005 Y84.720 E1.14607
G1 X85.753 Y84.440 E1.14972
G1 X86.043 Y84.150 E1.15370
G1 X85.791 Y83.871 E1.15735
G1 X85.501 Y84.161 E1.16133
G1 X85.249 Y83.881 E1.16499
G1 X85.540 Y83.591 E1.16897
G1 X85.288 Y83.311 E1.17262
G1 X84.998 Y83.602 E1.17660
G1 X84.746 Y83.322 E1.18025
G1 X85.036 Y83.032 E1.18424
G1 X84.784 Y82.752 E1.18789
G1 X84.494 Y83.043 E1.19187
G1 X84.242 Y82.763 E1.19552
G1 X84.533 Y82.473 E1.19951
G1 X84.231 Y82.243 E1.20318
G1 X83.937 Y82.537 E1.20721
G1 X83.630 Y82.313 E1.21090
G1 X83.923 Y82.020 E1.21493
G1 X83.615 Y81.796 E1.21862
G1 X83.322 Y82.090 E1.22265
G1 X83.014 Y81.866 E1.22634
G1 X83.308 Y81.572 E1.23037
G1 X83.000 Y81.349 E1.23406
G1 X82.707 Y81.642 E1.23809
G1 X82.399 Y81.419 E1.24178
G1 X82.692 Y81.125 E1.24580
G1 X82.385 Y80.902 E1.24950
G1 X82.091 Y81.195 E1.25352
G1 X81.761 Y80.994 E1.25727
G1 X82.077 Y80.678 E1.26160
G1 X81.769 Y80.455 E1.26530
G1 X81.556 Y80.668 E1.26822
G1 F600.000 E0.26822
G92 E0
G1 Z0.600 F6000.000
G1 X81.435 Y81.476
G1 F600.000 E1.00000
G1 X79.084 Y80.430 F5400.000 E1.05364
G1 X76.382 Y79.855 E1.11124
G1 X73.618 Y79.855 E1.16884
G1 X70.916 Y80.430 E1.22644
G1 X68.391 Y81.553 E1.28404
G1 X66.156 Y83.178 E1.34164
G1 X64.307 Y85.231 E1.39924
G1 X62.925 Y87.624 E1.45683
G1 X62.072 Y90.252 E1.51443
G1 X61.910 Y91.789 E1.54666
G1 X60.345 Y91.789 E1.57929
G1 X60.540 Y89.927 E1.61834
G1 X61.495 Y86.987 E1.68276
G1 X63.041 Y84.311 E1.74718
G1 X65.108 Y82.014 E1.81160
G1 X68.211 Y79.760 E1.89153
G1 X68.211 Y76.211 E1.96553
G1 X81.789 Y76.211 E2.24858
G1 X81.789 Y79.760 E2.32258
G1 X84.892 Y82.014 E2.40251
G1 X86.959 Y84.311 E2.46693
G1 X88.505 Y86.987 E2.53135
G1 X89.460 Y89.926 E2.59578
G1 X89.655 Y91.789 E2.63482
G1 X88.090 Y91.789 E2.66745
G1 X87.928 Y90.252 E2.69968
G1 X87.075 Y87.624 E2.75728
G1 X85.693 Y85.231 E2.81488
G1 X83.844 Y83.178 E2.87248
G1 X81.609 Y81.553 E2.93007
G1 X81.546 Y81.525 E2.93151
G1 X81.203 Y82.256 F6000.000
G1 X78.834 Y81.201 F5400.000 E2.98557
G1 X76.297 Y80.662 E3.03964
G1 X73.703 Y80.662 E3.09370
G1 X73.600 Y80.684 E3.09589
G1 X71.166 Y81.201 E3.14776
G1 X68.797 Y82.256 E3.20182
G1 X66.699 Y83.781 E3.25589
G1 X64.964 Y85.708 E3.30995
G1 X63.667 Y87.954 E3.36401
G1 X62.865 Y90.421 E3.41808
G1 X62.637 Y92.596 E3.46368
