( Made using CamBam - http://www.cambam.co.uk )
( millingtest 3/26/2014 11:38:26 PM )
( T0 : 1.0 )
G21 G90 G64 G40
G0 Z12.0
( T0 : 1.0 )
T0 M6
( Profile1 )
G17
M3 S1000
G0 X56.8792 Y53.2806
G0 Z11.0
G1 F50.0 Z9.0
G3 X56.6977 Y53.4939 I-22.8792 J-19.2806
G1 X56.7666 Y53.5726
G3 X56.7825 Y53.5917 I-0.3764 J0.3292
G1 X56.9432 Y53.795
G3 X56.9582 Y53.8149 I-0.3922 J0.3101
G1 X57.1516 Y54.0862
G3 X57.1656 Y54.1069 I-0.4071 J0.2903
G1 X57.3852 Y54.4499
G3 X57.3981 Y54.4712 I-0.4211 J0.2696
G1 X57.6372 Y54.889
G3 X57.649 Y54.911 I-0.434 J0.2483
G1 X57.7615 Y55.1326
G3 X57.6843 Y55.6967 I-0.4458 J0.2263
G3 X56.9932 Y56.4278 I-23.6843 J-21.6967
G3 X56.4344 Y56.5365 I-0.3579 J-0.3491
G1 X56.2068 Y56.4366
G3 X56.1842 Y56.426 I0.2009 J-0.4579
G1 X55.7536 Y56.2109
G3 X55.7316 Y56.1992 I0.2235 J-0.4473
G1 X55.3768 Y55.9992
G3 X55.3554 Y55.9864 I0.2455 J-0.4356
G1 X55.0736 Y55.8085
G3 X55.0529 Y55.7947 I0.2669 J-0.4228
G1 X54.8409 Y55.6456
G3 X54.821 Y55.6309 I0.2876 J-0.409
G1 X54.7385 Y55.5665
G3 X54.5357 Y55.7596 I-20.7385 J-21.5665
G1 X54.596 Y55.8452
G3 X54.6098 Y55.8658 I-0.4087 J0.288
G1 X54.7484 Y56.0848
G3 X54.7612 Y56.1061 I-0.4225 J0.2674
G1 X54.9252 Y56.3962
G3 X54.9369 Y56.4182 I-0.4352 J0.2461
G1 X55.1195 Y56.7823
G3 X55.1301 Y56.8048 I-0.447 J0.2241
G1 X55.3242 Y57.2454
G3 X55.3337 Y57.2684 I-0.4576 J0.2016
G1 X55.4224 Y57.5006
G3 X55.2867 Y58.0535 I-0.4671 J0.1785
G3 X54.5229 Y58.7084 I-21.2867 J-24.0535
G3 X53.9558 Y58.7581 I-0.3195 J-0.3846
G1 X53.7399 Y58.635
G3 X53.7185 Y58.6221 I0.2477 J-0.4344
G1 X53.3128 Y58.3631
G3 X53.2921 Y58.3491 I0.269 J-0.4215
G1 X52.9601 Y58.1131
G3 X52.9402 Y58.0982 I0.2897 J-0.4075
G1 X52.6785 Y57.8918
G3 X52.6594 Y57.8759 I0.3097 J-0.3926
G1 X52.4641 Y57.7055
G3 X52.4459 Y57.6888 I0.3288 J-0.3767
G1 X52.3705 Y57.6161
G3 X52.1487 Y57.787 I-18.3705 J-23.6161
G1 X52.1997 Y57.8784
G3 X52.2113 Y57.9003 I-0.4366 J0.2437
G1 X52.3263 Y58.1326
G3 X52.3367 Y58.1551 I-0.4481 J0.2218
G1 X52.4695 Y58.4608
G3 X52.4789 Y58.4839 I-0.4586 J0.1993
G1 X52.6224 Y58.8651
G3 X52.6306 Y58.8886 I-0.4679 J0.1762
G1 X52.7776 Y59.347
G3 X52.7846 Y59.3709 I-0.4761 J0.1526
G1 X52.8485 Y59.6111
G3 X52.6558 Y60.1468 I-0.4832 J0.1287
G3 X51.8278 Y60.7182 I-18.6558 J-26.1468
G3 X51.2586 Y60.7084 I-0.2775 J-0.4159
G1 X51.0567 Y60.5634
G3 X51.0368 Y60.5483 I0.2917 J-0.4061
G1 X50.6604 Y60.2483
G3 X50.6412 Y60.2323 I0.3116 J-0.391
G1 X50.3358 Y59.9629
G3 X50.3175 Y59.946 I0.3307 J-0.375
G1 X50.0789 Y59.7134
G3 X50.0615 Y59.6956 I0.349 J-0.3581
G1 X49.8851 Y59.5057
G3 X49.8687 Y59.4871 I0.3664 J-0.3403
G1 X49.8014 Y59.407
G3 X49.5629 Y59.5538 I-15.8014 J-25.407
G1 X49.6041 Y59.65
G3 X49.6133 Y59.673 I-0.4597 J0.1968
G1 X49.7033 Y59.916
G3 X49.7114 Y59.9395 I-0.4688 J0.1738
G1 X49.8115 Y60.2574
G3 X49.8184 Y60.2813 I-0.4769 J0.1502
G1 X49.9213 Y60.6754
G3 X49.927 Y60.6997 I-0.4838 J0.1263
G1 X50.0252 Y61.1709
G3 X50.0297 Y61.1955 I-0.4895 J0.102
G1 X50.0682 Y61.441
G3 X49.8205 Y61.9536 I-0.494 J0.0775
G3 X48.9373 Y62.4354 I-15.8205 J-27.9536
G3 X48.3722 Y62.3661 I-0.2325 J-0.4426
G1 X48.1866 Y62.2008
G3 X48.1684 Y62.1837 I0.3326 J-0.3734
G1 X47.8254 Y61.846
G3 X47.8081 Y61.8281 I0.3508 J-0.3563
G1 X47.5324 Y61.5282
G3 X47.516 Y61.5095 I0.3681 J-0.3384
G1 X47.303 Y61.2532
G3 X47.2876 Y61.2337 I0.3845 J-0.3196
G1 X47.132 Y61.0264
G3 X47.1176 Y61.0062 I0.3999 J-0.3001
G1 X47.059 Y60.9195
G3 X46.8065 Y61.0405 I-13.059 J-26.9195
G1 X46.8374 Y61.1405
G3 X46.8442 Y61.1644 I-0.4777 J0.1476
G1 X46.9083 Y61.4155
G3 X46.9139 Y61.4397 I-0.4844 J0.1238
G1 X46.9803 Y61.7663
G3 X46.9846 Y61.7908 I-0.49 J0.0996
G1 X47.0457 Y62.1935
G3 X47.0489 Y62.2183 I-0.4943 J0.075
G1 X47.0973 Y62.6972
G3 X47.0992 Y62.7221 I-0.4975 J0.0503
G1 X47.1118 Y62.9703
G3 X46.8119 Y63.4542 I-0.4994 J0.0254
G3 X45.8832 Y63.841 I-12.8119 J-29.4542
G3 X45.3284 Y63.713 I-0.185 J-0.4645
G1 X45.1611 Y63.5292
G3 X45.1448 Y63.5103 I0.3698 J-0.3366
G1 X44.8389 Y63.1386
G3 X44.8236 Y63.119 I0.3861 J-0.3177
G1 X44.5808 Y62.792
G3 X44.5665 Y62.7716 I0.4015 J-0.298
G1 X44.3814 Y62.4945
G3 X44.3681 Y62.4734 I0.4158 J-0.2777
G1 X44.235 Y62.251
G3 X44.2229 Y62.2294 I0.4291 J-0.2567
G1 X44.1736 Y62.1371
G3 X43.9099 Y62.2311 I-10.1736 J-28.1371
G1 X43.9302 Y62.3337
G3 X43.9344 Y62.3581 I-0.4905 J0.0969
G1 X43.9719 Y62.6146
G3 X43.9749 Y62.6393 I-0.4947 J0.0725
G1 X44.0068 Y62.971
G3 X44.0086 Y62.9958 I-0.4977 J0.0478
G1 X44.0272 Y63.4027
G3 X44.0278 Y63.4277 I-0.4995 J0.023
G1 X44.0259 Y63.909
G3 X44.0251 Y63.934 I-0.5 J-0.002
G1 X44.0118 Y64.1821
G3 X43.6629 Y64.6321 I-0.4993 J-0.0269
G3 X42.6988 Y64.9196 I-9.6629 J-30.6321
G3 X42.1605 Y64.7344 I-0.1354 J-0.4813
G1 X42.0133 Y64.5341
G3 X41.9991 Y64.5136 I0.4029 J-0.2961
G1 X41.7338 Y64.112
G3 X41.7205 Y64.0908 I0.4172 J-0.2756
G1 X41.5133 Y63.7402
G3 X41.5011 Y63.7185 I0.4304 J-0.2544
G1 X41.346 Y63.4235
G3 X41.335 Y63.4012 I0.4426 J-0.2327
G1 X41.2259 Y63.1661
G3 X41.2161 Y63.1434 I0.4536 J-0.2104
G1 X41.1768 Y63.0464
G3 X40.9046 Y63.1123 I-7.1768 J-29.0464
G1 X40.9141 Y63.2165
G3 X40.9157 Y63.2412 I-0.498 J0.0451
G1 X40.9263 Y63.5002
G3 X40.9267 Y63.525 I-0.4996 J0.0204
G1 X40.9237 Y63.8583
G3 X40.9228 Y63.8832 I-0.5 J-0.0045
G1 X40.8989 Y64.2898
G3 X40.8968 Y64.3146 I-0.4991 J-0.0294
G1 X40.8446 Y64.7932
G3 X40.8413 Y64.8179 I-0.4971 J-0.0542
G1 X40.802 Y65.0633
G3 X40.408 Y65.4743 I-0.4937 J-0.079
G3 X39.4192 Y65.6595 I-6.408 J-31.4743
G3 X38.9032 Y65.419 I-0.0844 J-0.4928
G1 X38.7778 Y65.2045
G3 X38.7657 Y65.1826 I0.4317 J-0.2523
G1 X38.5438 Y64.7554
G3 X38.5329 Y64.733 I0.4437 J-0.2305
G1 X38.3634 Y64.3627
G3 X38.3536 Y64.3397 I0.4547 J-0.2081
G1 X38.2302 Y64.0302
G3 X38.2216 Y64.0069 I0.4645 J-0.1852
G1 X38.1377 Y63.7616
G3 X38.1302 Y63.738 I0.4731 J-0.1618
G1 X38.1013 Y63.6374
G3 X37.8238 Y63.6745 I-4.1013 J-29.6374
G1 X37.8223 Y63.7792
G3 X37.8213 Y63.8039 I-0.4999 J-0.0072
G1 X37.8047 Y64.0626
G3 X37.8025 Y64.0873 I-0.499 J-0.032
G1 X37.7647 Y64.4184
G3 X37.7613 Y64.4431 I-0.4968 J-0.0567
G1 X37.695 Y64.845
G3 X37.6903 Y64.8695 I-0.4933 J-0.0814
G1 X37.5883 Y65.3399
G3 X37.5825 Y65.3642 I-0.4887 J-0.1059
G1 X37.5178 Y65.6041
G3 X37.083 Y65.9717 I-0.4828 J-0.1301
G3 X36.0802 Y66.0526 I-3.083 J-31.9717
G3 X35.5921 Y65.7594 I-0.0324 J-0.499
G1 X35.4898 Y65.5329
G3 X35.4801 Y65.5099 I0.4557 J-0.2058
G1 X35.3041 Y65.0619
G3 X35.2956 Y65.0385 I0.4654 J-0.1828
G1 X35.1657 Y64.6524
G3 X35.1584 Y64.6286 I0.4739 J-0.1594
G1 X35.068 Y64.3079
G3 X35.0619 Y64.2838 I0.4813 J-0.1356
G1 X35.0041 Y64.0311
G3 X34.9991 Y64.0068 I0.4874 J-0.1115
G1 X34.9809 Y63.9038
G3 X34.701 Y63.9116 I-0.9809 J-29.9038
G1 X34.6885 Y64.0156
G3 X34.685 Y64.0401 I-0.4965 J-0.0594
G1 X34.6415 Y64.2956
G3 X34.6367 Y64.32 I-0.4929 J-0.0839
G1 X34.5645 Y64.6453
G3 X34.5585 Y64.6695 I-0.4881 J-0.1083
G1 X34.4505 Y65.0622
G3 X34.4433 Y65.0861 I-0.4821 J-0.1325
G1 X34.2928 Y65.5433
G3 X34.2844 Y65.5668 I-0.4749 J-0.1564
G1 X34.195 Y65.7987
G3 X33.7241 Y66.1188 I-0.4665 J-0.1799
G3 X32.7184 Y66.0944 I0.2759 J-32.1188
G3 X32.2637 Y65.7519 I0.02 J-0.4996
G1 X32.1856 Y65.5159
G3 X32.1783 Y65.492 I0.4747 J-0.1571
G1 X32.0501 Y65.0281
G3 X32.0441 Y65.0039 I0.4819 J-0.1332
G1 X31.9553 Y64.6064
G3 X31.9505 Y64.5819 I0.488 J-0.109
G1 X31.8941 Y64.2535
G3 X31.8905 Y64.2289 I0.4928 J-0.0845
G1 X31.8595 Y63.9715
G3 X31.8571 Y63.9469 I0.4964 J-0.0599
G1 X31.8497 Y63.8425
G3 X31.5705 Y63.8211 I2.1503 J-29.8425
G1 X31.5473 Y63.9231
G3 X31.5412 Y63.9471 I-0.4875 J-0.111
G1 X31.4712 Y64.1967
G3 X31.4639 Y64.2204 I-0.4814 J-0.135
G1 X31.3581 Y64.5364
G3 X31.3496 Y64.5599 I-0.4741 J-0.1588
G1 X31.2012 Y64.9392
G3 X31.1915 Y64.9622 I-0.4656 J-0.1822
G1 X30.994 Y65.4011
G3 X30.9832 Y65.4236 I-0.456 J-0.2052
G1 X30.87 Y65.6449
G3 X30.3683 Y65.914 I-0.4452 J-0.2277
G3 X29.3706 Y65.7846 I3.6317 J-31.914
G3 X28.9542 Y65.3964 I0.0721 J-0.4948
G1 X28.9012 Y65.1536
G3 X28.8965 Y65.1291 I0.4885 J-0.1066
G1 X28.8175 Y64.6543
G3 X28.814 Y64.6296 I0.4932 J-0.0821
G1 X28.7673 Y64.225
G3 X28.765 Y64.2002 I0.4967 J-0.0574
G1 X28.7433 Y63.8676
G3 X28.7423 Y63.8428 I0.4989 J-0.0326
G1 X28.7383 Y63.5836
G3 X28.7385 Y63.5588 I0.4999 J-0.0077
G1 X28.7421 Y63.4542
G3 X28.4667 Y63.4037 I5.2579 J-29.4542
G1 X28.4329 Y63.5028
G3 X28.4243 Y63.526 I-0.4733 J-0.1614
G1 X28.3287 Y63.7669
G3 X28.3189 Y63.7898 I-0.4647 J-0.1846
G1 X28.1806 Y64.093
G3 X28.1697 Y64.1154 I-0.4549 J-0.2075
G1 X27.9825 Y64.4771
G3 X27.9705 Y64.499 I-0.444 J-0.2299
G1 X27.7281 Y64.9149
G3 X27.7151 Y64.9361 I-0.432 J-0.2517
G1 X27.5794 Y65.1444
G3 X27.0523 Y65.3596 I-0.4189 J-0.273
G3 X26.0736 Y65.1266 I6.9477 J-31.3596
G3 X25.7 Y64.697 I0.1234 J-0.4845
G1 X25.6727 Y64.45
G3 X25.6706 Y64.4251 I0.497 J-0.0549
G1 X25.6416 Y63.9446
G3 X25.6408 Y63.9197 I0.4991 J-0.0301
G1 X25.6366 Y63.5124
G3 X25.6369 Y63.4875 I0.5 J-0.0051
G1 X25.6501 Y63.1545
G3 X25.6517 Y63.1297 I0.4996 J0.0198
G1 X25.6748 Y62.8715
G3 X25.6776 Y62.8469 I0.498 J0.0446
G1 X25.6921 Y62.7433
G3 X25.4235 Y62.6643 I8.3079 J-28.7433
G1 X25.3795 Y62.7593
G3 X25.3686 Y62.7815 I-0.4538 J-0.2099
G1 X25.2482 Y63.011
G3 X25.2361 Y63.0328 I-0.4428 J-0.2321
G1 X25.0669 Y63.3199
G3 X25.0538 Y63.341 I-0.4308 J-0.2539
G1 X24.8297 Y63.6812
G3 X24.8155 Y63.7016 I-0.4176 J-0.275
G1 X24.531 Y64.09
G3 X24.5158 Y64.1097 I-0.4033 J-0.2955
G1 X24.3591 Y64.3026
G3 X23.8124 Y64.4616 I-0.3881 J-0.3152
G3 X22.8634 Y64.1276 I10.1876 J-30.4616
G3 X22.5368 Y63.6613 I0.1734 J-0.469
G1 X22.5354 Y63.4127
G3 X22.5359 Y63.3878 I0.5 J-0.0027
G1 X22.5574 Y62.9069
G3 X22.5591 Y62.882 I0.4995 J0.0223
G1 X22.5975 Y62.4765
G3 X22.6005 Y62.4518 I0.4978 J0.0471
G1 X22.6484 Y62.122
G3 X22.6525 Y62.0975 I0.4948 J0.0719
G1 X22.7025 Y61.8432
G3 X22.7079 Y61.819 I0.4906 J0.0964
G1 X22.7331 Y61.7174
G3 X22.4742 Y61.6108 I11.2669 J-27.7174
G1 X22.4206 Y61.7006
G3 X22.4074 Y61.7216 I-0.4294 J-0.2562
G1 X22.2637 Y61.9373
G3 X22.2494 Y61.9577 I-0.4162 J-0.2772
G1 X22.0511 Y62.2255
G3 X22.0358 Y62.2451 I-0.4019 J-0.2975
G1 X21.7774 Y62.56
G3 X21.7611 Y62.5789 I-0.3865 J-0.3172
G1 X21.4376 Y62.9353
G3 X21.4204 Y62.9534 I-0.3702 J-0.336
G1 X21.2444 Y63.1289
G3 X20.6841 Y63.2298 I-0.353 J-0.3541
G3 X19.7752 Y62.7984 I13.3159 J-29.2298
G3 X19.4991 Y62.3006 I0.2214 J-0.4483
G1 X19.5238 Y62.0532
G3 X19.5269 Y62.0285 I0.4975 J0.0496
G1 X19.5984 Y61.5525
G3 X19.6028 Y61.5279 I0.4944 J0.0744
G1 X19.6833 Y61.1286
G3 X19.6889 Y61.1044 I0.4901 J0.0989
G1 X19.771 Y60.7814
G3 X19.7777 Y60.7574 I0.4846 J0.1232
G1 X19.854 Y60.5097
G3 X19.8619 Y60.4862 I0.4779 J0.1471
G1 X19.8976 Y60.3879
G3 X19.6512 Y60.2547 I14.1024 J-26.3879
G1 X19.5885 Y60.3385
G3 X19.5732 Y60.358 I-0.4002 J-0.2997
G1 X19.4077 Y60.5575
G3 X19.3914 Y60.5762 I-0.3849 J-0.3191
G1 X19.1662 Y60.8219
G3 X19.1489 Y60.8398 I-0.3686 J-0.3379
G1 X18.8591 Y61.126
G3 X18.8409 Y61.143 I-0.3513 J-0.3558
G1 X18.4819 Y61.4637
G3 X18.4629 Y61.4799 I-0.3331 J-0.3729
G1 X18.2695 Y61.636
G3 X17.7017 Y61.6778 I-0.3141 J-0.389
G3 X16.8429 Y61.1538 I16.2983 J-27.6778
G3 X16.6203 Y60.6298 I0.2671 J-0.4227
G1 X16.6707 Y60.3864
G3 X16.6764 Y60.3621 I0.4896 J0.1013
G1 X16.7973 Y59.8962
G3 X16.8042 Y59.8722 I0.484 J0.1256
G1 X16.9261 Y59.4835
G3 X16.9341 Y59.46 I0.4771 J0.1496
G1 X17.0495 Y59.1473
G3 X17.0587 Y59.1242 I0.469 J0.1732
G1 X17.1605 Y58.8858
G3 X17.1707 Y58.8633 I0.4599 J0.1963
G1 X17.2166 Y58.7692
G3 X16.9855 Y58.6111 I16.7834 J-24.7692
G1 X16.9143 Y58.6878
G3 X16.8971 Y58.7056 I-0.3667 J-0.3399
G1 X16.7117 Y58.8867
G3 X16.6935 Y58.9036 I-0.3494 J-0.3576
G1 X16.4438 Y59.1244
G3 X16.4247 Y59.1404 I-0.3312 J-0.3746
G1 X16.1066 Y59.3947
G3 X16.0867 Y59.4098 I-0.3122 J-0.3906
G1 X15.6962 Y59.6912
G3 X15.6756 Y59.7053 I-0.2923 J-0.4057
G1 X15.4669 Y59.8403
G3 X14.8979 Y59.8225 I-0.2717 J-0.4197
G3 X14.0985 Y59.2116 I19.1021 J-25.8225
G3 X13.932 Y58.6672 I0.3098 J-0.3925
G1 X14.0075 Y58.4304
G3 X14.0157 Y58.4068 I0.4764 J0.152
G1 X14.1847 Y57.9561
G3 X14.194 Y57.933 I0.4682 J0.1755
G1 X14.3558 Y57.5592
G3 X14.3663 Y57.5366 I0.4588 J0.1987
G1 X14.5138 Y57.2378
G3 X14.5253 Y57.2157 I0.4484 J0.2213
G1 X14.6514 Y56.9893
G3 X14.664 Y56.968 I0.4368 J0.2433
G1 X14.7194 Y56.8792
G3 X14.5061 Y56.6977 I19.2806 J-22.8792
G1 X14.4274 Y56.7666
G3 X14.4083 Y56.7825 I-0.3292 J-0.3764
G1 X14.205 Y56.9432
G3 X14.1851 Y56.9582 I-0.3101 J-0.3922
G1 X13.9138 Y57.1516
G3 X13.8931 Y57.1656 I-0.2903 J-0.4071
G1 X13.5501 Y57.3852
G3 X13.5288 Y57.3981 I-0.2696 J-0.4211
G1 X13.111 Y57.6372
G3 X13.089 Y57.649 I-0.2483 J-0.434
G1 X12.8674 Y57.7615
G3 X12.3033 Y57.6843 I-0.2263 J-0.4458
G3 X11.5722 Y56.9932 I21.6967 J-23.6843
G3 X11.4635 Y56.4344 I0.3491 J-0.3579
G1 X11.5634 Y56.2068
G3 X11.574 Y56.1842 I0.4579 J0.2009
G1 X11.7891 Y55.7536
G3 X11.8008 Y55.7316 I0.4473 J0.2235
G1 X12.0008 Y55.3768
G3 X12.0136 Y55.3554 I0.4356 J0.2455
G1 X12.1915 Y55.0736
G3 X12.2053 Y55.0529 I0.4228 J0.2669
G1 X12.3544 Y54.8409
G3 X12.3691 Y54.821 I0.409 J0.2876
G1 X12.4335 Y54.7385
G3 X12.2404 Y54.5357 I21.5665 J-20.7385
G1 X12.1548 Y54.596
G3 X12.1342 Y54.6098 I-0.288 J-0.4087
G1 X11.9152 Y54.7484
G3 X11.8939 Y54.7612 I-0.2674 J-0.4225
G1 X11.6038 Y54.9252
G3 X11.5818 Y54.9369 I-0.2461 J-0.4352
G1 X11.2177 Y55.1195
G3 X11.1952 Y55.1301 I-0.2241 J-0.447
G1 X10.7546 Y55.3242
G3 X10.7316 Y55.3337 I-0.2016 J-0.4576
G1 X10.4994 Y55.4224
G3 X9.9465 Y55.2867 I-0.1785 J-0.4671
G3 X9.2916 Y54.5229 I24.0535 J-21.2867
G3 X9.2419 Y53.9558 I0.3846 J-0.3195
G1 X9.365 Y53.7399
G3 X9.3779 Y53.7185 I0.4344 J0.2477
G1 X9.6369 Y53.3128
G3 X9.6509 Y53.2921 I0.4215 J0.269
G1 X9.8869 Y52.9601
G3 X9.9018 Y52.9402 I0.4075 J0.2897
G1 X10.1082 Y52.6785
G3 X10.1241 Y52.6594 I0.3926 J0.3097
G1 X10.2945 Y52.4641
G3 X10.3112 Y52.4459 I0.3767 J0.3288
G1 X10.3839 Y52.3705
G3 X10.213 Y52.1487 I23.6161 J-18.3705
G1 X10.1216 Y52.1997
G3 X10.0997 Y52.2113 I-0.2437 J-0.4366
G1 X9.8674 Y52.3263
G3 X9.8449 Y52.3367 I-0.2218 J-0.4481
G1 X9.5392 Y52.4695
G3 X9.5161 Y52.4789 I-0.1993 J-0.4586
G1 X9.1349 Y52.6224
G3 X9.1114 Y52.6306 I-0.1762 J-0.4679
G1 X8.653 Y52.7776
G3 X8.6291 Y52.7846 I-0.1526 J-0.4761
G1 X8.3889 Y52.8485
G3 X7.8532 Y52.6558 I-0.1287 J-0.4832
G3 X7.2818 Y51.8278 I26.1468 J-18.6558
G3 X7.2916 Y51.2586 I0.4159 J-0.2775
G1 X7.4366 Y51.0567
G3 X7.4517 Y51.0368 I0.4061 J0.2917
G1 X7.7517 Y50.6604
G3 X7.7677 Y50.6412 I0.391 J0.3116
G1 X8.0371 Y50.3358
G3 X8.054 Y50.3175 I0.375 J0.3307
G1 X8.2866 Y50.0789
G3 X8.3044 Y50.0615 I0.3581 J0.349
G1 X8.4943 Y49.8851
G3 X8.5129 Y49.8687 I0.3403 J0.3664
G1 X8.593 Y49.8014
G3 X8.4462 Y49.5629 I25.407 J-15.8014
G1 X8.35 Y49.6041
G3 X8.327 Y49.6133 I-0.1968 J-0.4597
G1 X8.084 Y49.7033
G3 X8.0605 Y49.7114 I-0.1738 J-0.4688
G1 X7.7426 Y49.8115
G3 X7.7187 Y49.8184 I-0.1502 J-0.4769
G1 X7.3246 Y49.9213
G3 X7.3003 Y49.927 I-0.1263 J-0.4838
G1 X6.8291 Y50.0252
G3 X6.8045 Y50.0297 I-0.102 J-0.4895
G1 X6.559 Y50.0682
G3 X6.0464 Y49.8205 I-0.0775 J-0.494
G3 X5.5646 Y48.9373 I27.9536 J-15.8205
G3 X5.6339 Y48.3722 I0.4426 J-0.2325
G1 X5.7992 Y48.1866
G3 X5.8163 Y48.1684 I0.3734 J0.3326
G1 X6.154 Y47.8254
G3 X6.1719 Y47.8081 I0.3563 J0.3508
G1 X6.4718 Y47.5324
G3 X6.4905 Y47.516 I0.3384 J0.3681
G1 X6.7468 Y47.303
G3 X6.7663 Y47.2876 I0.3196 J0.3845
G1 X6.9736 Y47.132
G3 X6.9938 Y47.1176 I0.3001 J0.3999
G1 X7.0805 Y47.059
G3 X6.9595 Y46.8065 I26.9195 J-13.059
G1 X6.8595 Y46.8374
G3 X6.8356 Y46.8442 I-0.1476 J-0.4777
G1 X6.5845 Y46.9083
G3 X6.5603 Y46.9139 I-0.1238 J-0.4844
G1 X6.2337 Y46.9803
G3 X6.2092 Y46.9846 I-0.0996 J-0.49
G1 X5.8065 Y47.0457
G3 X5.7817 Y47.0489 I-0.075 J-0.4943
G1 X5.3028 Y47.0973
G3 X5.2779 Y47.0992 I-0.0503 J-0.4975
G1 X5.0297 Y47.1118
G3 X4.5458 Y46.8119 I-0.0254 J-0.4994
G3 X4.159 Y45.8832 I29.4542 J-12.8119
G3 X4.287 Y45.3284 I0.4645 J-0.185
G1 X4.4708 Y45.1611
G3 X4.4897 Y45.1448 I0.3366 J0.3698
G1 X4.8614 Y44.8389
G3 X4.881 Y44.8236 I0.3177 J0.3861
G1 X5.208 Y44.5808
G3 X5.2284 Y44.5665 I0.298 J0.4015
G1 X5.5055 Y44.3814
G3 X5.5266 Y44.3681 I0.2777 J0.4158
G1 X5.749 Y44.235
G3 X5.7706 Y44.2229 I0.2567 J0.4291
G1 X5.8629 Y44.1736
G3 X5.7689 Y43.9099 I28.1371 J-10.1736
G1 X5.6663 Y43.9302
G3 X5.6419 Y43.9344 I-0.0969 J-0.4905
G1 X5.3854 Y43.9719
G3 X5.3607 Y43.9749 I-0.0725 J-0.4947
G1 X5.029 Y44.0068
G3 X5.0042 Y44.0086 I-0.0478 J-0.4977
G1 X4.5973 Y44.0272
G3 X4.5723 Y44.0278 I-0.023 J-0.4995
G1 X4.091 Y44.0259
G3 X4.066 Y44.0251 I0.002 J-0.5
G1 X3.8179 Y44.0118
G3 X3.3679 Y43.6629 I0.0269 J-0.4993
G3 X3.0804 Y42.6988 I30.6321 J-9.6629
G3 X3.2656 Y42.1605 I0.4813 J-0.1354
G1 X3.4659 Y42.0133
G3 X3.4864 Y41.9991 I0.2961 J0.4029
G1 X3.888 Y41.7338
G3 X3.9092 Y41.7205 I0.2756 J0.4172
G1 X4.2598 Y41.5133
G3 X4.2815 Y41.5011 I0.2544 J0.4304
G1 X4.5765 Y41.346
G3 X4.5988 Y41.335 I0.2327 J0.4426
G1 X4.8339 Y41.2259
G3 X4.8566 Y41.2161 I0.2104 J0.4536
G1 X4.9536 Y41.1768
G3 X4.8877 Y40.9046 I29.0464 J-7.1768
G1 X4.7835 Y40.9141
G3 X4.7588 Y40.9157 I-0.0451 J-0.498
G1 X4.4998 Y40.9263
G3 X4.475 Y40.9267 I-0.0204 J-0.4996
G1 X4.1417 Y40.9237
G3 X4.1168 Y40.9228 I0.0045 J-0.5
G1 X3.7102 Y40.8989
G3 X3.6854 Y40.8968 I0.0294 J-0.4991
G1 X3.2068 Y40.8446
G3 X3.1821 Y40.8413 I0.0542 J-0.4971
G1 X2.9367 Y40.802
G3 X2.5257 Y40.408 I0.079 J-0.4937
G3 X2.3405 Y39.4192 I31.4743 J-6.408
G3 X2.581 Y38.9032 I0.4928 J-0.0844
G1 X2.7955 Y38.7778
G3 X2.8174 Y38.7657 I0.2523 J0.4317
G1 X3.2446 Y38.5438
G3 X3.267 Y38.5329 I0.2305 J0.4437
G1 X3.6373 Y38.3634
G3 X3.6603 Y38.3536 I0.2081 J0.4547
G1 X3.9698 Y38.2302
G3 X3.9931 Y38.2216 I0.1852 J0.4645
G1 X4.2384 Y38.1377
G3 X4.262 Y38.1302 I0.1618 J0.4731
G1 X4.3626 Y38.1013
G3 X4.3255 Y37.8238 I29.6374 J-4.1013
G1 X4.2208 Y37.8223
G3 X4.1961 Y37.8213 I0.0072 J-0.4999
G1 X3.9374 Y37.8047
G3 X3.9127 Y37.8025 I0.032 J-0.499
G1 X3.5816 Y37.7647
G3 X3.5569 Y37.7613 I0.0567 J-0.4968
G1 X3.155 Y37.695
G3 X3.1305 Y37.6903 I0.0814 J-0.4933
G1 X2.6601 Y37.5883
G3 X2.6358 Y37.5825 I0.1059 J-0.4887
G1 X2.3959 Y37.5178
G3 X2.0283 Y37.083 I0.1301 J-0.4828
G3 X1.9474 Y36.0802 I31.9717 J-3.083
G3 X2.2406 Y35.5921 I0.499 J-0.0324
G1 X2.4671 Y35.4898
G3 X2.4901 Y35.4801 I0.2058 J0.4557
G1 X2.9381 Y35.3041
G3 X2.9615 Y35.2956 I0.1828 J0.4654
G1 X3.3476 Y35.1657
G3 X3.3714 Y35.1584 I0.1594 J0.4739
G1 X3.6921 Y35.068
G3 X3.7162 Y35.0619 I0.1356 J0.4813
G1 X3.9689 Y35.0041
G3 X3.9932 Y34.9991 I0.1115 J0.4874
G1 X4.0962 Y34.9809
G3 X4.0884 Y34.701 I29.9038 J-0.9809
G1 X3.9844 Y34.6885
G3 X3.9599 Y34.685 I0.0594 J-0.4965
G1 X3.7044 Y34.6415
G3 X3.68 Y34.6367 I0.0839 J-0.4929
G1 X3.3547 Y34.5645
G3 X3.3305 Y34.5585 I0.1083 J-0.4881
G1 X2.9378 Y34.4505
G3 X2.9139 Y34.4433 I0.1325 J-0.4821
G1 X2.4567 Y34.2928
G3 X2.4332 Y34.2844 I0.1564 J-0.4749
G1 X2.2013 Y34.195
G3 X1.8812 Y33.7241 I0.1799 J-0.4665
G3 X1.9056 Y32.7184 I32.1188 J0.2759
G3 X2.2481 Y32.2637 I0.4996 J0.02
G1 X2.4841 Y32.1856
G3 X2.508 Y32.1783 I0.1571 J0.4747
G1 X2.9719 Y32.0501
G3 X2.9961 Y32.0441 I0.1332 J0.4819
G1 X3.3936 Y31.9553
G3 X3.4181 Y31.9505 I0.109 J0.488
G1 X3.7465 Y31.8941
G3 X3.7711 Y31.8905 I0.0845 J0.4928
G1 X4.0285 Y31.8595
G3 X4.0531 Y31.8571 I0.0599 J0.4964
G1 X4.1575 Y31.8497
G3 X4.1789 Y31.5705 I29.8425 J2.1503
G1 X4.0769 Y31.5473
G3 X4.0529 Y31.5412 I0.111 J-0.4875
G1 X3.8033 Y31.4712
G3 X3.7796 Y31.4639 I0.135 J-0.4814
G1 X3.4636 Y31.3581
G3 X3.4401 Y31.3496 I0.1588 J-0.4741
G1 X3.0608 Y31.2012
G3 X3.0378 Y31.1915 I0.1822 J-0.4656
G1 X2.5989 Y30.994
G3 X2.5764 Y30.9832 I0.2052 J-0.456
G1 X2.3551 Y30.87
G3 X2.086 Y30.3683 I0.2277 J-0.4452
G3 X2.2154 Y29.3706 I31.914 J3.6317
G3 X2.6036 Y28.9542 I0.4948 J0.0721
G1 X2.8464 Y28.9012
G3 X2.8709 Y28.8965 I0.1066 J0.4885
G1 X3.3457 Y28.8175
G3 X3.3704 Y28.814 I0.0821 J0.4932
G1 X3.775 Y28.7673
G3 X3.7998 Y28.765 I0.0574 J0.4967
G1 X4.1324 Y28.7433
G3 X4.1572 Y28.7423 I0.0326 J0.4989
G1 X4.4164 Y28.7383
G3 X4.4412 Y28.7385 I0.0077 J0.4999
G1 X4.5458 Y28.7421
G3 X4.5963 Y28.4667 I29.4542 J5.2579
G1 X4.4972 Y28.4329
G3 X4.474 Y28.4243 I0.1614 J-0.4733
G1 X4.2331 Y28.3287
G3 X4.2102 Y28.3189 I0.1846 J-0.4647
G1 X3.907 Y28.1806
G3 X3.8846 Y28.1697 I0.2075 J-0.4549
G1 X3.5229 Y27.9825
G3 X3.501 Y27.9705 I0.2299 J-0.444
G1 X3.0851 Y27.7281
G3 X3.0639 Y27.7151 I0.2517 J-0.432
G1 X2.8556 Y27.5794
G3 X2.6404 Y27.0523 I0.273 J-0.4189
G3 X2.8734 Y26.0736 I31.3596 J6.9477
G3 X3.303 Y25.7 I0.4845 J0.1234
G1 X3.55 Y25.6727
G3 X3.5749 Y25.6706 I0.0549 J0.497
G1 X4.0554 Y25.6416
G3 X4.0803 Y25.6408 I0.0301 J0.4991
G1 X4.4876 Y25.6366
G3 X4.5125 Y25.6369 I0.0051 J0.5
G1 X4.8455 Y25.6501
G3 X4.8703 Y25.6517 I-0.0198 J0.4996
G1 X5.1285 Y25.6748
G3 X5.1531 Y25.6776 I-0.0446 J0.498
G1 X5.2567 Y25.6921
G3 X5.3357 Y25.4235 I28.7433 J8.3079
G1 X5.2407 Y25.3795
G3 X5.2185 Y25.3686 I0.2099 J-0.4538
G1 X4.989 Y25.2482
G3 X4.9672 Y25.2361 I0.2321 J-0.4428
G1 X4.6801 Y25.0669
G3 X4.659 Y25.0538 I0.2539 J-0.4308
G1 X4.3188 Y24.8297
G3 X4.2984 Y24.8155 I0.275 J-0.4176
G1 X3.91 Y24.531
G3 X3.8903 Y24.5158 I0.2955 J-0.4033
G1 X3.6974 Y24.3591
G3 X3.5384 Y23.8124 I0.3152 J-0.3881
G3 X3.8724 Y22.8634 I30.4616 J10.1876
G3 X4.3387 Y22.5368 I0.469 J0.1734
G1 X4.5873 Y22.5354
G3 X4.6122 Y22.5359 I0.0027 J0.5
G1 X5.0931 Y22.5574
G3 X5.118 Y22.5591 I-0.0223 J0.4995
G1 X5.5235 Y22.5975
G3 X5.5482 Y22.6005 I-0.0471 J0.4978
G1 X5.878 Y22.6484
G3 X5.9025 Y22.6525 I-0.0719 J0.4948
G1 X6.1568 Y22.7025
G3 X6.181 Y22.7079 I-0.0964 J0.4906
G1 X6.2826 Y22.7331
G3 X6.3892 Y22.4742 I27.7174 J11.2669
G1 X6.2994 Y22.4206
G3 X6.2784 Y22.4074 I0.2562 J-0.4294
G1 X6.0627 Y22.2637
G3 X6.0423 Y22.2494 I0.2772 J-0.4162
G1 X5.7745 Y22.0511
G3 X5.7549 Y22.0358 I0.2975 J-0.4019
G1 X5.44 Y21.7774
G3 X5.4211 Y21.7611 I0.3172 J-0.3865
G1 X5.0647 Y21.4376
G3 X5.0466 Y21.4204 I0.336 J-0.3702
G1 X4.8711 Y21.2444
G3 X4.7702 Y20.6841 I0.3541 J-0.353
G3 X5.2016 Y19.7752 I29.2298 J13.3159
G3 X5.6994 Y19.4991 I0.4483 J0.2214
G1 X5.9468 Y19.5238
G3 X5.9715 Y19.5269 I-0.0496 J0.4975
G1 X6.4475 Y19.5984
G3 X6.4721 Y19.6028 I-0.0744 J0.4944
G1 X6.8714 Y19.6833
G3 X6.8956 Y19.6889 I-0.0989 J0.4901
G1 X7.2186 Y19.771
G3 X7.2426 Y19.7777 I-0.1232 J0.4846
G1 X7.4903 Y19.854
G3 X7.5138 Y19.8619 I-0.1471 J0.4779
G1 X7.6121 Y19.8976
G3 X7.7453 Y19.6512 I26.3879 J14.1024
G1 X7.6615 Y19.5885
G3 X7.642 Y19.5732 I0.2997 J-0.4002
G1 X7.4425 Y19.4077
G3 X7.4238 Y19.3914 I0.3191 J-0.3849
G1 X7.1781 Y19.1662
G3 X7.1602 Y19.1489 I0.3379 J-0.3686
G1 X6.874 Y18.8591
G3 X6.857 Y18.8409 I0.3558 J-0.3513
G1 X6.5363 Y18.4819
G3 X6.5201 Y18.4629 I0.3729 J-0.3331
G1 X6.364 Y18.2695
G3 X6.3222 Y17.7017 I0.389 J-0.3141
G3 X6.8462 Y16.8429 I27.6778 J16.2983
G3 X7.3702 Y16.6203 I0.4227 J0.2671
G1 X7.6136 Y16.6707
G3 X7.6379 Y16.6764 I-0.1013 J0.4896
G1 X8.1038 Y16.7973
G3 X8.1278 Y16.8042 I-0.1256 J0.484
G1 X8.5165 Y16.9261
G3 X8.54 Y16.9341 I-0.1496 J0.4771
G1 X8.8527 Y17.0495
G3 X8.8758 Y17.0587 I-0.1732 J0.469
G1 X9.1142 Y17.1605
G3 X9.1367 Y17.1707 I-0.1963 J0.4599
G1 X9.2308 Y17.2166
G3 X9.3889 Y16.9855 I24.7692 J16.7834
G1 X9.3122 Y16.9143
G3 X9.2944 Y16.8971 I0.3399 J-0.3667
G1 X9.1133 Y16.7117
G3 X9.0964 Y16.6935 I0.3576 J-0.3494
G1 X8.8756 Y16.4438
G3 X8.8596 Y16.4247 I0.3746 J-0.3312
G1 X8.6053 Y16.1066
G3 X8.5902 Y16.0867 I0.3906 J-0.3122
G1 X8.3088 Y15.6962
G3 X8.2947 Y15.6756 I0.4057 J-0.2923
G1 X8.1597 Y15.4669
G3 X8.1775 Y14.8979 I0.4197 J-0.2717
G3 X8.7884 Y14.0985 I25.8225 J19.1021
G3 X9.3328 Y13.932 I0.3925 J0.3098
G1 X9.5696 Y14.0075
G3 X9.5932 Y14.0157 I-0.152 J0.4764
G1 X10.0439 Y14.1847
G3 X10.067 Y14.194 I-0.1755 J0.4682
G1 X10.4408 Y14.3558
G3 X10.4634 Y14.3663 I-0.1987 J0.4588
G1 X10.7622 Y14.5138
G3 X10.7843 Y14.5253 I-0.2213 J0.4484
G1 X11.0107 Y14.6514
G3 X11.032 Y14.664 I-0.2433 J0.4368
G1 X11.1208 Y14.7194
G3 X11.3023 Y14.5061 I22.8792 J19.2806
G1 X11.2334 Y14.4274
G3 X11.2175 Y14.4083 I0.3764 J-0.3292
G1 X11.0568 Y14.205
G3 X11.0418 Y14.1851 I0.3922 J-0.3101
G1 X10.8484 Y13.9138
G3 X10.8344 Y13.8931 I0.4071 J-0.2903
G1 X10.6148 Y13.5501
G3 X10.6019 Y13.5288 I0.4211 J-0.2696
G1 X10.3628 Y13.111
G3 X10.351 Y13.089 I0.434 J-0.2483
G1 X10.2385 Y12.8674
G3 X10.3157 Y12.3033 I0.4458 J-0.2263
G3 X11.0068 Y11.5722 I23.6843 J21.6967
G3 X11.5656 Y11.4635 I0.3579 J0.3491
G1 X11.7932 Y11.5634
G3 X11.8158 Y11.574 I-0.2009 J0.4579
G1 X12.2464 Y11.7891
G3 X12.2684 Y11.8008 I-0.2235 J0.4473
G1 X12.6232 Y12.0008
G3 X12.6446 Y12.0136 I-0.2455 J0.4356
G1 X12.9264 Y12.1915
G3 X12.9471 Y12.2053 I-0.2669 J0.4228
G1 X13.1591 Y12.3544
G3 X13.179 Y12.3691 I-0.2876 J0.409
G1 X13.2615 Y12.4335
G3 X13.4643 Y12.2404 I20.7385 J21.5665
G1 X13.404 Y12.1548
G3 X13.3902 Y12.1342 I0.4087 J-0.288
G1 X13.2516 Y11.9152
G3 X13.2388 Y11.8939 I0.4225 J-0.2674
G1 X13.0748 Y11.6038
G3 X13.0631 Y11.5818 I0.4352 J-0.2461
G1 X12.8805 Y11.2177
G3 X12.8699 Y11.1952 I0.447 J-0.2241
G1 X12.6758 Y10.7546
G3 X12.6663 Y10.7316 I0.4576 J-0.2016
G1 X12.5776 Y10.4994
G3 X12.7133 Y9.9465 I0.4671 J-0.1785
G3 X13.4771 Y9.2916 I21.2867 J24.0535
G3 X14.0442 Y9.2419 I0.3195 J0.3846
G1 X14.2601 Y9.365
G3 X14.2815 Y9.3779 I-0.2477 J0.4344
G1 X14.6872 Y9.6369
G3 X14.7079 Y9.6509 I-0.269 J0.4215
G1 X15.0399 Y9.8869
G3 X15.0598 Y9.9018 I-0.2897 J0.4075
G1 X15.3215 Y10.1082
G3 X15.3406 Y10.1241 I-0.3097 J0.3926
G1 X15.5359 Y10.2945
G3 X15.5541 Y10.3112 I-0.3288 J0.3767
G1 X15.6295 Y10.3839
G3 X15.8513 Y10.213 I18.3705 J23.6161
G1 X15.8003 Y10.1216
G3 X15.7887 Y10.0997 I0.4366 J-0.2437
G1 X15.6737 Y9.8674
G3 X15.6633 Y9.8449 I0.4481 J-0.2218
G1 X15.5305 Y9.5392
G3 X15.5211 Y9.5161 I0.4586 J-0.1993
G1 X15.3776 Y9.1349
G3 X15.3694 Y9.1114 I0.4679 J-0.1762
G1 X15.2224 Y8.653
G3 X15.2154 Y8.6291 I0.4761 J-0.1526
G1 X15.1515 Y8.3889
G3 X15.3442 Y7.8532 I0.4832 J-0.1287
G3 X16.1722 Y7.2818 I18.6558 J26.1468
G3 X16.7414 Y7.2916 I0.2775 J0.4159
G1 X16.9433 Y7.4366
G3 X16.9632 Y7.4517 I-0.2917 J0.4061
G1 X17.3396 Y7.7517
G3 X17.3588 Y7.7677 I-0.3116 J0.391
G1 X17.6642 Y8.0371
G3 X17.6825 Y8.054 I-0.3307 J0.375
G1 X17.9211 Y8.2866
G3 X17.9385 Y8.3044 I-0.349 J0.3581
G1 X18.1149 Y8.4943
G3 X18.1313 Y8.5129 I-0.3664 J0.3403
G1 X18.1986 Y8.593
G3 X18.4371 Y8.4462 I15.8014 J25.407
G1 X18.3959 Y8.35
G3 X18.3867 Y8.327 I0.4597 J-0.1968
G1 X18.2967 Y8.084
G3 X18.2886 Y8.0605 I0.4688 J-0.1738
G1 X18.1885 Y7.7426
G3 X18.1816 Y7.7187 I0.4769 J-0.1502
G1 X18.0787 Y7.3246
G3 X18.073 Y7.3003 I0.4838 J-0.1263
G1 X17.9748 Y6.8291
G3 X17.9703 Y6.8045 I0.4895 J-0.102
G1 X17.9318 Y6.559
G3 X18.1795 Y6.0464 I0.494 J-0.0775
G3 X19.0627 Y5.5646 I15.8205 J27.9536
G3 X19.6278 Y5.6339 I0.2325 J0.4426
G1 X19.8134 Y5.7992
G3 X19.8316 Y5.8163 I-0.3326 J0.3734
G1 X20.1746 Y6.154
G3 X20.1919 Y6.1719 I-0.3508 J0.3563
G1 X20.4676 Y6.4718
G3 X20.484 Y6.4905 I-0.3681 J0.3384
G1 X20.697 Y6.7468
G3 X20.7124 Y6.7663 I-0.3845 J0.3196
G1 X20.868 Y6.9736
G3 X20.8824 Y6.9938 I-0.3999 J0.3001
G1 X20.941 Y7.0805
G3 X21.1935 Y6.9595 I13.059 J26.9195
G1 X21.1626 Y6.8595
G3 X21.1558 Y6.8356 I0.4777 J-0.1476
G1 X21.0917 Y6.5845
G3 X21.0861 Y6.5603 I0.4844 J-0.1238
G1 X21.0197 Y6.2337
G3 X21.0154 Y6.2092 I0.49 J-0.0996
G1 X20.9543 Y5.8065
G3 X20.9511 Y5.7817 I0.4943 J-0.075
G1 X20.9027 Y5.3028
G3 X20.9008 Y5.2779 I0.4975 J-0.0503
G1 X20.8882 Y5.0297
G3 X21.1881 Y4.5458 I0.4994 J-0.0254
G3 X22.1168 Y4.159 I12.8119 J29.4542
G3 X22.6716 Y4.287 I0.185 J0.4645
G1 X22.8389 Y4.4708
G3 X22.8552 Y4.4897 I-0.3698 J0.3366
G1 X23.1611 Y4.8614
G3 X23.1764 Y4.881 I-0.3861 J0.3177
G1 X23.4192 Y5.208
G3 X23.4335 Y5.2284 I-0.4015 J0.298
G1 X23.6186 Y5.5055
G3 X23.6319 Y5.5266 I-0.4158 J0.2777
G1 X23.765 Y5.749
G3 X23.7771 Y5.7706 I-0.4291 J0.2567
G1 X23.8264 Y5.8629
G3 X24.0901 Y5.7689 I10.1736 J28.1371
G1 X24.0698 Y5.6663
G3 X24.0656 Y5.6419 I0.4905 J-0.0969
G1 X24.0281 Y5.3854
G3 X24.0251 Y5.3607 I0.4947 J-0.0725
G1 X23.9932 Y5.029
G3 X23.9914 Y5.0042 I0.4977 J-0.0478
G1 X23.9728 Y4.5973
G3 X23.9722 Y4.5723 I0.4995 J-0.023
G1 X23.9741 Y4.091
G3 X23.9749 Y4.066 I0.5 J0.002
G1 X23.9882 Y3.8179
G3 X24.3371 Y3.3679 I0.4993 J0.0269
G3 X25.3012 Y3.0804 I9.6629 J30.6321
G3 X25.8395 Y3.2656 I0.1354 J0.4813
G1 X25.9867 Y3.4659
G3 X26.0009 Y3.4864 I-0.4029 J0.2961
G1 X26.2662 Y3.888
G3 X26.2795 Y3.9092 I-0.4172 J0.2756
G1 X26.4867 Y4.2598
G3 X26.4989 Y4.2815 I-0.4304 J0.2544
G1 X26.654 Y4.5765
G3 X26.665 Y4.5988 I-0.4426 J0.2327
G1 X26.7741 Y4.8339
G3 X26.7839 Y4.8566 I-0.4536 J0.2104
G1 X26.8232 Y4.9536
G3 X27.0954 Y4.8877 I7.1768 J29.0464
G1 X27.0859 Y4.7835
G3 X27.0843 Y4.7588 I0.498 J-0.0451
G1 X27.0737 Y4.4998
G3 X27.0733 Y4.475 I0.4996 J-0.0204
G1 X27.0763 Y4.1417
G3 X27.0772 Y4.1168 I0.5 J0.0045
G1 X27.1011 Y3.7102
G3 X27.1032 Y3.6854 I0.4991 J0.0294
G1 X27.1554 Y3.2068
G3 X27.1587 Y3.1821 I0.4971 J0.0542
G1 X27.198 Y2.9367
G3 X27.592 Y2.5257 I0.4937 J0.079
G3 X28.5808 Y2.3405 I6.408 J31.4743
G3 X29.0968 Y2.581 I0.0844 J0.4928
G1 X29.2222 Y2.7955
G3 X29.2343 Y2.8174 I-0.4317 J0.2523
G1 X29.4562 Y3.2446
G3 X29.4671 Y3.267 I-0.4437 J0.2305
G1 X29.6366 Y3.6373
G3 X29.6464 Y3.6603 I-0.4547 J0.2081
G1 X29.7698 Y3.9698
G3 X29.7784 Y3.9931 I-0.4645 J0.1852
G1 X29.8623 Y4.2384
G3 X29.8698 Y4.262 I-0.4731 J0.1618
G1 X29.8987 Y4.3626
G3 X30.1762 Y4.3255 I4.1013 J29.6374
G1 X30.1777 Y4.2208
G3 X30.1787 Y4.1961 I0.4999 J0.0072
G1 X30.1953 Y3.9374
G3 X30.1975 Y3.9127 I0.499 J0.032
G1 X30.2353 Y3.5816
G3 X30.2387 Y3.5569 I0.4968 J0.0567
G1 X30.305 Y3.155
G3 X30.3097 Y3.1305 I0.4933 J0.0814
G1 X30.4117 Y2.6601
G3 X30.4175 Y2.6358 I0.4887 J0.1059
G1 X30.4822 Y2.3959
G3 X30.917 Y2.0283 I0.4828 J0.1301
G3 X31.9198 Y1.9474 I3.083 J31.9717
G3 X32.4079 Y2.2406 I0.0324 J0.499
G1 X32.5102 Y2.4671
G3 X32.5199 Y2.4901 I-0.4557 J0.2058
G1 X32.6959 Y2.9381
G3 X32.7044 Y2.9615 I-0.4654 J0.1828
G1 X32.8343 Y3.3476
G3 X32.8416 Y3.3714 I-0.4739 J0.1594
G1 X32.932 Y3.6921
G3 X32.9381 Y3.7162 I-0.4813 J0.1356
G1 X32.9959 Y3.9689
G3 X33.0009 Y3.9932 I-0.4874 J0.1115
G1 X33.0191 Y4.0962
G3 X33.299 Y4.0884 I0.9809 J29.9038
G1 X33.3115 Y3.9844
G3 X33.315 Y3.9599 I0.4965 J0.0594
G1 X33.3585 Y3.7044
G3 X33.3633 Y3.68 I0.4929 J0.0839
G1 X33.4355 Y3.3547
G3 X33.4415 Y3.3305 I0.4881 J0.1083
G1 X33.5495 Y2.9378
G3 X33.5567 Y2.9139 I0.4821 J0.1325
G1 X33.7072 Y2.4567
G3 X33.7156 Y2.4332 I0.4749 J0.1564
G1 X33.805 Y2.2013
G3 X34.2759 Y1.8812 I0.4665 J0.1799
G3 X35.2816 Y1.9056 I-0.2759 J32.1188
G3 X35.7363 Y2.2481 I-0.02 J0.4996
G1 X35.8144 Y2.4841
G3 X35.8217 Y2.508 I-0.4747 J0.1571
G1 X35.9499 Y2.9719
G3 X35.9559 Y2.9961 I-0.4819 J0.1332
G1 X36.0447 Y3.3936
G3 X36.0495 Y3.4181 I-0.488 J0.109
G1 X36.1059 Y3.7465
G3 X36.1095 Y3.7711 I-0.4928 J0.0845
G1 X36.1405 Y4.0285
G3 X36.1429 Y4.0531 I-0.4964 J0.0599
G1 X36.1503 Y4.1575
G3 X36.4295 Y4.1789 I-2.1503 J29.8425
G1 X36.4527 Y4.0769
G3 X36.4588 Y4.0529 I0.4875 J0.111
G1 X36.5288 Y3.8033
G3 X36.5361 Y3.7796 I0.4814 J0.135
G1 X36.6419 Y3.4636
G3 X36.6504 Y3.4401 I0.4741 J0.1588
G1 X36.7988 Y3.0608
G3 X36.8085 Y3.0378 I0.4656 J0.1822
G1 X37.006 Y2.5989
G3 X37.0168 Y2.5764 I0.456 J0.2052
G1 X37.13 Y2.3551
G3 X37.6317 Y2.086 I0.4452 J0.2277
G3 X38.6294 Y2.2154 I-3.6317 J31.914
G3 X39.0458 Y2.6036 I-0.0721 J0.4948
G1 X39.0988 Y2.8464
G3 X39.1035 Y2.8709 I-0.4885 J0.1066
G1 X39.1825 Y3.3457
G3 X39.186 Y3.3704 I-0.4932 J0.0821
G1 X39.2327 Y3.775
G3 X39.235 Y3.7998 I-0.4967 J0.0574
G1 X39.2567 Y4.1324
G3 X39.2577 Y4.1572 I-0.4989 J0.0326
G1 X39.2617 Y4.4164
G3 X39.2615 Y4.4412 I-0.4999 J0.0077
G1 X39.2579 Y4.5458
G3 X39.5333 Y4.5963 I-5.2579 J29.4542
G1 X39.5671 Y4.4972
G3 X39.5757 Y4.474 I0.4733 J0.1614
G1 X39.6713 Y4.2331
G3 X39.6811 Y4.2102 I0.4647 J0.1846
G1 X39.8194 Y3.907
G3 X39.8303 Y3.8846 I0.4549 J0.2075
G1 X40.0175 Y3.5229
G3 X40.0295 Y3.501 I0.444 J0.2299
G1 X40.2719 Y3.0851
G3 X40.2849 Y3.0639 I0.432 J0.2517
G1 X40.4206 Y2.8556
G3 X40.9477 Y2.6404 I0.4189 J0.273
G3 X41.9264 Y2.8734 I-6.9477 J31.3596
G3 X42.3 Y3.303 I-0.1234 J0.4845
G1 X42.3273 Y3.55
G3 X42.3294 Y3.5749 I-0.497 J0.0549
G1 X42.3584 Y4.0554
G3 X42.3592 Y4.0803 I-0.4991 J0.0301
G1 X42.3634 Y4.4876
G3 X42.3631 Y4.5125 I-0.5 J0.0051
G1 X42.3499 Y4.8455
G3 X42.3483 Y4.8703 I-0.4996 J-0.0198
G1 X42.3252 Y5.1285
G3 X42.3224 Y5.1531 I-0.498 J-0.0446
G1 X42.3079 Y5.2567
G3 X42.5765 Y5.3357 I-8.3079 J28.7433
G1 X42.6205 Y5.2407
G3 X42.6314 Y5.2185 I0.4538 J0.2099
G1 X42.7518 Y4.989
G3 X42.7639 Y4.9672 I0.4428 J0.2321
G1 X42.9331 Y4.6801
G3 X42.9462 Y4.659 I0.4308 J0.2539
G1 X43.1703 Y4.3188
G3 X43.1845 Y4.2984 I0.4176 J0.275
G1 X43.469 Y3.91
G3 X43.4842 Y3.8903 I0.4033 J0.2955
G1 X43.6409 Y3.6974
G3 X44.1876 Y3.5384 I0.3881 J0.3152
G3 X45.1366 Y3.8724 I-10.1876 J30.4616
G3 X45.4632 Y4.3387 I-0.1734 J0.469
G1 X45.4646 Y4.5873
G3 X45.4641 Y4.6122 I-0.5 J0.0027
G1 X45.4426 Y5.0931
G3 X45.4409 Y5.118 I-0.4995 J-0.0223
G1 X45.4025 Y5.5235
G3 X45.3995 Y5.5482 I-0.4978 J-0.0471
G1 X45.3516 Y5.878
G3 X45.3475 Y5.9025 I-0.4948 J-0.0719
G1 X45.2975 Y6.1568
G3 X45.2921 Y6.181 I-0.4906 J-0.0964
G1 X45.2669 Y6.2826
G3 X45.5258 Y6.3892 I-11.2669 J27.7174
G1 X45.5794 Y6.2994
G3 X45.5926 Y6.2784 I0.4294 J0.2562
G1 X45.7363 Y6.0627
G3 X45.7506 Y6.0423 I0.4162 J0.2772
G1 X45.9489 Y5.7745
G3 X45.9642 Y5.7549 I0.4019 J0.2975
G1 X46.2226 Y5.44
G3 X46.2389 Y5.4211 I0.3865 J0.3172
G1 X46.5624 Y5.0647
G3 X46.5796 Y5.0466 I0.3702 J0.336
G1 X46.7556 Y4.8711
G3 X47.3159 Y4.7702 I0.353 J0.3541
G3 X48.2248 Y5.2016 I-13.3159 J29.2298
G3 X48.5009 Y5.6994 I-0.2214 J0.4483
G1 X48.4762 Y5.9468
G3 X48.4731 Y5.9715 I-0.4975 J-0.0496
G1 X48.4016 Y6.4475
G3 X48.3972 Y6.4721 I-0.4944 J-0.0744
G1 X48.3167 Y6.8714
G3 X48.3111 Y6.8956 I-0.4901 J-0.0989
G1 X48.229 Y7.2186
G3 X48.2223 Y7.2426 I-0.4846 J-0.1232
G1 X48.146 Y7.4903
G3 X48.1381 Y7.5138 I-0.4779 J-0.1471
G1 X48.1024 Y7.6121
G3 X48.3488 Y7.7453 I-14.1024 J26.3879
G1 X48.4115 Y7.6615
G3 X48.4268 Y7.642 I0.4002 J0.2997
G1 X48.5923 Y7.4425
G3 X48.6086 Y7.4238 I0.3849 J0.3191
G1 X48.8338 Y7.1781
G3 X48.8511 Y7.1602 I0.3686 J0.3379
G1 X49.1409 Y6.874
G3 X49.1591 Y6.857 I0.3513 J0.3558
G1 X49.5181 Y6.5363
G3 X49.5371 Y6.5201 I0.3331 J0.3729
G1 X49.7305 Y6.364
G3 X50.2983 Y6.3222 I0.3141 J0.389
G3 X51.1571 Y6.8462 I-16.2983 J27.6778
G3 X51.3797 Y7.3702 I-0.2671 J0.4227
G1 X51.3293 Y7.6136
G3 X51.3236 Y7.6379 I-0.4896 J-0.1013
G1 X51.2027 Y8.1038
G3 X51.1958 Y8.1278 I-0.484 J-0.1256
G1 X51.0739 Y8.5165
G3 X51.0659 Y8.54 I-0.4771 J-0.1496
G1 X50.9505 Y8.8527
G3 X50.9413 Y8.8758 I-0.469 J-0.1732
G1 X50.8395 Y9.1142
G3 X50.8293 Y9.1367 I-0.4599 J-0.1963
G1 X50.7834 Y9.2308
G3 X51.0145 Y9.3889 I-16.7834 J24.7692
G1 X51.0857 Y9.3122
G3 X51.1029 Y9.2944 I0.3667 J0.3399
G1 X51.2883 Y9.1133
G3 X51.3065 Y9.0964 I0.3494 J0.3576
G1 X51.5562 Y8.8756
G3 X51.5753 Y8.8596 I0.3312 J0.3746
G1 X51.8934 Y8.6053
G3 X51.9133 Y8.5902 I0.3122 J0.3906
G1 X52.3038 Y8.3088
G3 X52.3244 Y8.2947 I0.2923 J0.4057
G1 X52.5331 Y8.1597
G3 X53.1021 Y8.1775 I0.2717 J0.4197
G3 X53.9015 Y8.7884 I-19.1021 J25.8225
G3 X54.068 Y9.3328 I-0.3098 J0.3925
G1 X53.9925 Y9.5696
G3 X53.9843 Y9.5932 I-0.4764 J-0.152
G1 X53.8153 Y10.0439
G3 X53.806 Y10.067 I-0.4682 J-0.1755
G1 X53.6442 Y10.4408
G3 X53.6337 Y10.4634 I-0.4588 J-0.1987
G1 X53.4862 Y10.7622
G3 X53.4747 Y10.7843 I-0.4484 J-0.2213
G1 X53.3486 Y11.0107
G3 X53.336 Y11.032 I-0.4368 J-0.2433
G1 X53.2806 Y11.1208
G3 X53.4939 Y11.3023 I-19.2806 J22.8792
G1 X53.5726 Y11.2334
G3 X53.5917 Y11.2175 I0.3292 J0.3764
G1 X53.795 Y11.0568
G3 X53.8149 Y11.0418 I0.3101 J0.3922
G1 X54.0862 Y10.8484
G3 X54.1069 Y10.8344 I0.2903 J0.4071
G1 X54.4499 Y10.6148
G3 X54.4712 Y10.6019 I0.2696 J0.4211
G1 X54.889 Y10.3628
G3 X54.911 Y10.351 I0.2483 J0.434
G1 X55.1326 Y10.2385
G3 X55.6967 Y10.3157 I0.2263 J0.4458
G3 X56.4278 Y11.0068 I-21.6967 J23.6843
G3 X56.5365 Y11.5656 I-0.3491 J0.3579
G1 X56.4366 Y11.7932
G3 X56.426 Y11.8158 I-0.4579 J-0.2009
G1 X56.2109 Y12.2464
G3 X56.1992 Y12.2684 I-0.4473 J-0.2235
G1 X55.9992 Y12.6232
G3 X55.9864 Y12.6446 I-0.4356 J-0.2455
G1 X55.8085 Y12.9264
G3 X55.7947 Y12.9471 I-0.4228 J-0.2669
G1 X55.6456 Y13.1591
G3 X55.6309 Y13.179 I-0.409 J-0.2876
G1 X55.5665 Y13.2615
G3 X55.7596 Y13.4643 I-21.5665 J20.7385
G1 X55.8452 Y13.404
G3 X55.8658 Y13.3902 I0.288 J0.4087
G1 X56.0848 Y13.2516
G3 X56.1061 Y13.2388 I0.2674 J0.4225
G1 X56.3962 Y13.0748
G3 X56.4182 Y13.0631 I0.2461 J0.4352
G1 X56.7823 Y12.8805
G3 X56.8048 Y12.8699 I0.2241 J0.447
G1 X57.2454 Y12.6758
G3 X57.2684 Y12.6663 I0.2016 J0.4576
G1 X57.5006 Y12.5776
G3 X58.0535 Y12.7133 I0.1785 J0.4671
G3 X58.7084 Y13.4771 I-24.0535 J21.2867
G3 X58.7581 Y14.0442 I-0.3846 J0.3195
G1 X58.635 Y14.2601
G3 X58.6221 Y14.2815 I-0.4344 J-0.2477
G1 X58.3631 Y14.6872
G3 X58.3491 Y14.7079 I-0.4215 J-0.269
G1 X58.1131 Y15.0399
G3 X58.0982 Y15.0598 I-0.4075 J-0.2897
G1 X57.8918 Y15.3215
G3 X57.8759 Y15.3406 I-0.3926 J-0.3097
G1 X57.7055 Y15.5359
G3 X57.6888 Y15.5541 I-0.3767 J-0.3288
G1 X57.6161 Y15.6295
G3 X57.787 Y15.8513 I-23.6161 J18.3705
G1 X57.8784 Y15.8003
G3 X57.9003 Y15.7887 I0.2437 J0.4366
G1 X58.1326 Y15.6737
G3 X58.1551 Y15.6633 I0.2218 J0.4481
G1 X58.4608 Y15.5305
G3 X58.4839 Y15.5211 I0.1993 J0.4586
G1 X58.8651 Y15.3776
G3 X58.8886 Y15.3694 I0.1762 J0.4679
G1 X59.347 Y15.2224
G3 X59.3709 Y15.2154 I0.1526 J0.4761
G1 X59.6111 Y15.1515
G3 X60.1468 Y15.3442 I0.1287 J0.4832
G3 X60.7182 Y16.1722 I-26.1468 J18.6558
G3 X60.7084 Y16.7414 I-0.4159 J0.2775
G1 X60.5634 Y16.9433
G3 X60.5483 Y16.9632 I-0.4061 J-0.2917
G1 X60.2483 Y17.3396
G3 X60.2323 Y17.3588 I-0.391 J-0.3116
G1 X59.9629 Y17.6642
G3 X59.946 Y17.6825 I-0.375 J-0.3307
G1 X59.7134 Y17.9211
G3 X59.6956 Y17.9385 I-0.3581 J-0.349
G1 X59.5057 Y18.1149
G3 X59.4871 Y18.1313 I-0.3403 J-0.3664
G1 X59.407 Y18.1986
G3 X59.5538 Y18.4371 I-25.407 J15.8014
G1 X59.65 Y18.3959
G3 X59.673 Y18.3867 I0.1968 J0.4597
G1 X59.916 Y18.2967
G3 X59.9395 Y18.2886 I0.1738 J0.4688
G1 X60.2574 Y18.1885
G3 X60.2813 Y18.1816 I0.1502 J0.4769
G1 X60.6754 Y18.0787
G3 X60.6997 Y18.073 I0.1263 J0.4838
G1 X61.1709 Y17.9748
G3 X61.1955 Y17.9703 I0.102 J0.4895
G1 X61.441 Y17.9318
G3 X61.9536 Y18.1795 I0.0775 J0.494
G3 X62.4354 Y19.0627 I-27.9536 J15.8205
G3 X62.3661 Y19.6278 I-0.4426 J0.2325
G1 X62.2008 Y19.8134
G3 X62.1837 Y19.8316 I-0.3734 J-0.3326
G1 X61.846 Y20.1746
G3 X61.8281 Y20.1919 I-0.3563 J-0.3508
G1 X61.5282 Y20.4676
G3 X61.5095 Y20.484 I-0.3384 J-0.3681
G1 X61.2532 Y20.697
G3 X61.2337 Y20.7124 I-0.3196 J-0.3845
G1 X61.0264 Y20.868
G3 X61.0062 Y20.8824 I-0.3001 J-0.3999
G1 X60.9195 Y20.941
G3 X61.0405 Y21.1935 I-26.9195 J13.059
G1 X61.1405 Y21.1626
G3 X61.1644 Y21.1558 I0.1476 J0.4777
G1 X61.4155 Y21.0917
G3 X61.4397 Y21.0861 I0.1238 J0.4844
G1 X61.7663 Y21.0197
G3 X61.7908 Y21.0154 I0.0996 J0.49
G1 X62.1935 Y20.9543
G3 X62.2183 Y20.9511 I0.075 J0.4943
G1 X62.6972 Y20.9027
G3 X62.7221 Y20.9008 I0.0503 J0.4975
G1 X62.9703 Y20.8882
G3 X63.4542 Y21.1881 I0.0254 J0.4994
G3 X63.841 Y22.1168 I-29.4542 J12.8119
G3 X63.713 Y22.6716 I-0.4645 J0.185
G1 X63.5292 Y22.8389
G3 X63.5103 Y22.8552 I-0.3366 J-0.3698
G1 X63.1386 Y23.1611
G3 X63.119 Y23.1764 I-0.3177 J-0.3861
G1 X62.792 Y23.4192
G3 X62.7716 Y23.4335 I-0.298 J-0.4015
G1 X62.4945 Y23.6186
G3 X62.4734 Y23.6319 I-0.2777 J-0.4158
G1 X62.251 Y23.765
G3 X62.2294 Y23.7771 I-0.2567 J-0.4291
G1 X62.1371 Y23.8264
G3 X62.2311 Y24.0901 I-28.1371 J10.1736
G1 X62.3337 Y24.0698
G3 X62.3581 Y24.0656 I0.0969 J0.4905
G1 X62.6146 Y24.0281
G3 X62.6393 Y24.0251 I0.0725 J0.4947
G1 X62.971 Y23.9932
G3 X62.9958 Y23.9914 I0.0478 J0.4977
G1 X63.4027 Y23.9728
G3 X63.4277 Y23.9722 I0.023 J0.4995
G1 X63.909 Y23.9741
G3 X63.934 Y23.9749 I-0.002 J0.5
G1 X64.1821 Y23.9882
G3 X64.6321 Y24.3371 I-0.0269 J0.4993
G3 X64.9196 Y25.3012 I-30.6321 J9.6629
G3 X64.7344 Y25.8395 I-0.4813 J0.1354
G1 X64.5341 Y25.9867
G3 X64.5136 Y26.0009 I-0.2961 J-0.4029
G1 X64.112 Y26.2662
G3 X64.0908 Y26.2795 I-0.2756 J-0.4172
G1 X63.7402 Y26.4867
G3 X63.7185 Y26.4989 I-0.2544 J-0.4304
G1 X63.4235 Y26.654
G3 X63.4012 Y26.665 I-0.2327 J-0.4426
G1 X63.1661 Y26.7741
G3 X63.1434 Y26.7839 I-0.2104 J-0.4536
G1 X63.0464 Y26.8232
G3 X63.1123 Y27.0954 I-29.0464 J7.1768
G1 X63.2165 Y27.0859
G3 X63.2412 Y27.0843 I0.0451 J0.498
G1 X63.5002 Y27.0737
G3 X63.525 Y27.0733 I0.0204 J0.4996
G1 X63.8583 Y27.0763
G3 X63.8832 Y27.0772 I-0.0045 J0.5
G1 X64.2898 Y27.1011
G3 X64.3146 Y27.1032 I-0.0294 J0.4991
G1 X64.7932 Y27.1554
G3 X64.8179 Y27.1587 I-0.0542 J0.4971
G1 X65.0633 Y27.198
G3 X65.4743 Y27.592 I-0.079 J0.4937
G3 X65.6595 Y28.5808 I-31.4743 J6.408
G3 X65.419 Y29.0968 I-0.4928 J0.0844
G1 X65.2045 Y29.2222
G3 X65.1826 Y29.2343 I-0.2523 J-0.4317
G1 X64.7554 Y29.4562
G3 X64.733 Y29.4671 I-0.2305 J-0.4437
G1 X64.3627 Y29.6366
G3 X64.3397 Y29.6464 I-0.2081 J-0.4547
G1 X64.0302 Y29.7698
G3 X64.0069 Y29.7784 I-0.1852 J-0.4645
G1 X63.7616 Y29.8623
G3 X63.738 Y29.8698 I-0.1618 J-0.4731
G1 X63.6374 Y29.8987
G3 X63.6745 Y30.1762 I-29.6374 J4.1013
G1 X63.7792 Y30.1777
G3 X63.8039 Y30.1787 I-0.0072 J0.4999
G1 X64.0626 Y30.1953
G3 X64.0873 Y30.1975 I-0.032 J0.499
G1 X64.4184 Y30.2353
G3 X64.4431 Y30.2387 I-0.0567 J0.4968
G1 X64.845 Y30.305
G3 X64.8695 Y30.3097 I-0.0814 J0.4933
G1 X65.3399 Y30.4117
G3 X65.3642 Y30.4175 I-0.1059 J0.4887
G1 X65.6041 Y30.4822
G3 X65.9717 Y30.917 I-0.1301 J0.4828
G3 X66.0526 Y31.9198 I-31.9717 J3.083
G3 X65.7594 Y32.4079 I-0.499 J0.0324
G1 X65.5329 Y32.5102
G3 X65.5099 Y32.5199 I-0.2058 J-0.4557
G1 X65.0619 Y32.6959
G3 X65.0385 Y32.7044 I-0.1828 J-0.4654
G1 X64.6524 Y32.8343
G3 X64.6286 Y32.8416 I-0.1594 J-0.4739
G1 X64.3079 Y32.932
G3 X64.2838 Y32.9381 I-0.1356 J-0.4813
G1 X64.0311 Y32.9959
G3 X64.0068 Y33.0009 I-0.1115 J-0.4874
G1 X63.9038 Y33.0191
G3 X63.9116 Y33.299 I-29.9038 J0.9809
G1 X64.0156 Y33.3115
G3 X64.0401 Y33.315 I-0.0594 J0.4965
G1 X64.2956 Y33.3585
G3 X64.32 Y33.3633 I-0.0839 J0.4929
G1 X64.6453 Y33.4355
G3 X64.6695 Y33.4415 I-0.1083 J0.4881
G1 X65.0622 Y33.5495
G3 X65.0861 Y33.5567 I-0.1325 J0.4821
G1 X65.5433 Y33.7072
G3 X65.5668 Y33.7156 I-0.1564 J0.4749
G1 X65.7987 Y33.805
G3 X66.1188 Y34.2759 I-0.1799 J0.4665
G3 X66.0944 Y35.2816 I-32.1188 J-0.2759
G3 X65.7519 Y35.7363 I-0.4996 J-0.02
G1 X65.5159 Y35.8144
G3 X65.492 Y35.8217 I-0.1571 J-0.4747
G1 X65.0281 Y35.9499
G3 X65.0039 Y35.9559 I-0.1332 J-0.4819
G1 X64.6064 Y36.0447
G3 X64.5819 Y36.0495 I-0.109 J-0.488
G1 X64.2535 Y36.1059
G3 X64.2289 Y36.1095 I-0.0845 J-0.4928
G1 X63.9715 Y36.1405
G3 X63.9469 Y36.1429 I-0.0599 J-0.4964
G1 X63.8425 Y36.1503
G3 X63.8211 Y36.4295 I-29.8425 J-2.1503
G1 X63.9231 Y36.4527
G3 X63.9471 Y36.4588 I-0.111 J0.4875
G1 X64.1967 Y36.5288
G3 X64.2204 Y36.5361 I-0.135 J0.4814
G1 X64.5364 Y36.6419
G3 X64.5599 Y36.6504 I-0.1588 J0.4741
G1 X64.9392 Y36.7988
G3 X64.9622 Y36.8085 I-0.1822 J0.4656
G1 X65.4011 Y37.006
G3 X65.4236 Y37.0168 I-0.2052 J0.456
G1 X65.6449 Y37.13
G3 X65.914 Y37.6317 I-0.2277 J0.4452
G3 X65.7846 Y38.6294 I-31.914 J-3.6317
G3 X65.3964 Y39.0458 I-0.4948 J-0.0721
G1 X65.1536 Y39.0988
G3 X65.1291 Y39.1035 I-0.1066 J-0.4885
G1 X64.6543 Y39.1825
G3 X64.6296 Y39.186 I-0.0821 J-0.4932
G1 X64.225 Y39.2327
G3 X64.2002 Y39.235 I-0.0574 J-0.4967
G1 X63.8676 Y39.2567
G3 X63.8428 Y39.2577 I-0.0326 J-0.4989
G1 X63.5836 Y39.2617
G3 X63.5588 Y39.2615 I-0.0077 J-0.4999
G1 X63.4542 Y39.2579
G3 X63.4037 Y39.5333 I-29.4542 J-5.2579
G1 X63.5028 Y39.5671
G3 X63.526 Y39.5757 I-0.1614 J0.4733
G1 X63.7669 Y39.6713
G3 X63.7898 Y39.6811 I-0.1846 J0.4647
G1 X64.093 Y39.8194
G3 X64.1154 Y39.8303 I-0.2075 J0.4549
G1 X64.4771 Y40.0175
G3 X64.499 Y40.0295 I-0.2299 J0.444
G1 X64.9149 Y40.2719
G3 X64.9361 Y40.2849 I-0.2517 J0.432
G1 X65.1444 Y40.4206
G3 X65.3596 Y40.9477 I-0.273 J0.4189
G3 X65.1266 Y41.9264 I-31.3596 J-6.9477
G3 X64.697 Y42.3 I-0.4845 J-0.1234
G1 X64.45 Y42.3273
G3 X64.4251 Y42.3294 I-0.0549 J-0.497
G1 X63.9446 Y42.3584
G3 X63.9197 Y42.3592 I-0.0301 J-0.4991
G1 X63.5124 Y42.3634
G3 X63.4875 Y42.3631 I-0.0051 J-0.5
G1 X63.1545 Y42.3499
G3 X63.1297 Y42.3483 I0.0198 J-0.4996
G1 X62.8715 Y42.3252
G3 X62.8469 Y42.3224 I0.0446 J-0.498
G1 X62.7433 Y42.3079
G3 X62.6643 Y42.5765 I-28.7433 J-8.3079
G1 X62.7593 Y42.6205
G3 X62.7815 Y42.6314 I-0.2099 J0.4538
G1 X63.011 Y42.7518
G3 X63.0328 Y42.7639 I-0.2321 J0.4428
G1 X63.3199 Y42.9331
G3 X63.341 Y42.9462 I-0.2539 J0.4308
G1 X63.6812 Y43.1703
G3 X63.7016 Y43.1845 I-0.275 J0.4176
G1 X64.09 Y43.469
G3 X64.1097 Y43.4842 I-0.2955 J0.4033
G1 X64.3026 Y43.6409
G3 X64.4616 Y44.1876 I-0.3152 J0.3881
G3 X64.1276 Y45.1366 I-30.4616 J-10.1876
G3 X63.6613 Y45.4632 I-0.469 J-0.1734
G1 X63.4127 Y45.4646
G3 X63.3878 Y45.4641 I-0.0027 J-0.5
G1 X62.9069 Y45.4426
G3 X62.882 Y45.4409 I0.0223 J-0.4995
G1 X62.4765 Y45.4025
G3 X62.4518 Y45.3995 I0.0471 J-0.4978
G1 X62.122 Y45.3516
G3 X62.0975 Y45.3475 I0.0719 J-0.4948
G1 X61.8432 Y45.2975
G3 X61.819 Y45.2921 I0.0964 J-0.4906
G1 X61.7174 Y45.2669
G3 X61.6108 Y45.5258 I-27.7174 J-11.2669
G1 X61.7006 Y45.5794
G3 X61.7216 Y45.5926 I-0.2562 J0.4294
G1 X61.9373 Y45.7363
G3 X61.9577 Y45.7506 I-0.2772 J0.4162
G1 X62.2255 Y45.9489
G3 X62.2451 Y45.9642 I-0.2975 J0.4019
G1 X62.56 Y46.2226
G3 X62.5789 Y46.2389 I-0.3172 J0.3865
G1 X62.9353 Y46.5624
G3 X62.9534 Y46.5796 I-0.336 J0.3702
G1 X63.1289 Y46.7556
G3 X63.2298 Y47.3159 I-0.3541 J0.353
G3 X62.7984 Y48.2248 I-29.2298 J-13.3159
G3 X62.3006 Y48.5009 I-0.4483 J-0.2214
G1 X62.0532 Y48.4762
G3 X62.0285 Y48.4731 I0.0496 J-0.4975
G1 X61.5525 Y48.4016
G3 X61.5279 Y48.3972 I0.0744 J-0.4944
G1 X61.1286 Y48.3167
G3 X61.1044 Y48.3111 I0.0989 J-0.4901
G1 X60.7814 Y48.229
G3 X60.7574 Y48.2223 I0.1232 J-0.4846
G1 X60.5097 Y48.146
G3 X60.4862 Y48.1381 I0.1471 J-0.4779
G1 X60.3879 Y48.1024
G3 X60.2547 Y48.3488 I-26.3879 J-14.1024
G1 X60.3385 Y48.4115
G3 X60.358 Y48.4268 I-0.2997 J0.4002
G1 X60.5575 Y48.5923
G3 X60.5762 Y48.6086 I-0.3191 J0.3849
G1 X60.8219 Y48.8338
G3 X60.8398 Y48.8511 I-0.3379 J0.3686
G1 X61.126 Y49.1409
G3 X61.143 Y49.1591 I-0.3558 J0.3513
G1 X61.4637 Y49.5181
G3 X61.4799 Y49.5371 I-0.3729 J0.3331
G1 X61.636 Y49.7305
G3 X61.6778 Y50.2983 I-0.389 J0.3141
G3 X61.1538 Y51.1571 I-27.6778 J-16.2983
G3 X60.6298 Y51.3797 I-0.4227 J-0.2671
G1 X60.3864 Y51.3293
G3 X60.3621 Y51.3236 I0.1013 J-0.4896
G1 X59.8962 Y51.2027
G3 X59.8722 Y51.1958 I0.1256 J-0.484
G1 X59.4835 Y51.0739
G3 X59.46 Y51.0659 I0.1496 J-0.4771
G1 X59.1473 Y50.9505
G3 X59.1242 Y50.9413 I0.1732 J-0.469
G1 X58.8858 Y50.8395
G3 X58.8633 Y50.8293 I0.1963 J-0.4599
G1 X58.7692 Y50.7834
G3 X58.6111 Y51.0145 I-24.7692 J-16.7834
G1 X58.6878 Y51.0857
G3 X58.7056 Y51.1029 I-0.3399 J0.3667
G1 X58.8867 Y51.2883
G3 X58.9036 Y51.3065 I-0.3576 J0.3494
G1 X59.1244 Y51.5562
G3 X59.1404 Y51.5753 I-0.3746 J0.3312
G1 X59.3947 Y51.8934
G3 X59.4098 Y51.9133 I-0.3906 J0.3122
G1 X59.6912 Y52.3038
G3 X59.7053 Y52.3244 I-0.4057 J0.2923
G1 X59.8403 Y52.5331
G3 X59.8225 Y53.1021 I-0.4197 J0.2717
G3 X59.2116 Y53.9015 I-25.8225 J-19.1021
G3 X58.6672 Y54.068 I-0.3925 J-0.3098
G1 X58.4304 Y53.9925
G3 X58.4068 Y53.9843 I0.152 J-0.4764
G1 X57.9561 Y53.8153
G3 X57.933 Y53.806 I0.1755 J-0.4682
G1 X57.5592 Y53.6442
G3 X57.5366 Y53.6337 I0.1987 J-0.4588
G1 X57.2378 Y53.4862
G3 X57.2157 Y53.4747 I0.2213 J-0.4484
G1 X56.9893 Y53.3486
G3 X56.968 Y53.336 I0.2433 J-0.4368
G1 X56.8792 Y53.2806
G1 Z8.0
G3 X56.6977 Y53.4939 I-22.8792 J-19.2806
G1 X56.7666 Y53.5726
G3 X56.7825 Y53.5917 I-0.3764 J0.3292
G1 X56.9432 Y53.795
G3 X56.9582 Y53.8149 I-0.3922 J0.3101
G1 X57.1516 Y54.0862
G3 X57.1656 Y54.1069 I-0.4071 J0.2903
G1 X57.3852 Y54.4499
G3 X57.3981 Y54.4712 I-0.4211 J0.2696
G1 X57.6372 Y54.889
G3 X57.649 Y54.911 I-0.434 J0.2483
G1 X57.7615 Y55.1326
G3 X57.6843 Y55.6967 I-0.4458 J0.2263
G3 X56.9932 Y56.4278 I-23.6843 J-21.6967
G3 X56.4344 Y56.5365 I-0.3579 J-0.3491
G1 X56.2068 Y56.4366
G3 X56.1842 Y56.426 I0.2009 J-0.4579
G1 X55.7536 Y56.2109
G3 X55.7316 Y56.1992 I0.2235 J-0.4473
G1 X55.3768 Y55.9992
G3 X55.3554 Y55.9864 I0.2455 J-0.4356
G1 X55.0736 Y55.8085
G3 X55.0529 Y55.7947 I0.2669 J-0.4228
G1 X54.8409 Y55.6456
G3 X54.821 Y55.6309 I0.2876 J-0.409
G1 X54.7385 Y55.5665
G3 X54.5357 Y55.7596 I-20.7385 J-21.5665
G1 X54.596 Y55.8452
G3 X54.6098 Y55.8658 I-0.4087 J0.288
G1 X54.7484 Y56.0848
G3 X54.7612 Y56.1061 I-0.4225 J0.2674
G1 X54.9252 Y56.3962
G3 X54.9369 Y56.4182 I-0.4352 J0.2461
G1 X55.1195 Y56.7823
G3 X55.1301 Y56.8048 I-0.447 J0.2241
G1 X55.3242 Y57.2454
G3 X55.3337 Y57.2684 I-0.4576 J0.2016
G1 X55.4224 Y57.5006
G3 X55.2867 Y58.0535 I-0.4671 J0.1785
G3 X54.5229 Y58.7084 I-21.2867 J-24.0535
G3 X53.9558 Y58.7581 I-0.3195 J-0.3846
G1 X53.7399 Y58.635
G3 X53.7185 Y58.6221 I0.2477 J-0.4344
G1 X53.3128 Y58.3631
G3 X53.2921 Y58.3491 I0.269 J-0.4215
G1 X52.9601 Y58.1131
G3 X52.9402 Y58.0982 I0.2897 J-0.4075
G1 X52.6785 Y57.8918
G3 X52.6594 Y57.8759 I0.3097 J-0.3926
G1 X52.4641 Y57.7055
G3 X52.4459 Y57.6888 I0.3288 J-0.3767
G1 X52.3705 Y57.6161
G3 X52.1487 Y57.787 I-18.3705 J-23.6161
G1 X52.1997 Y57.8784
G3 X52.2113 Y57.9003 I-0.4366 J0.2437
G1 X52.3263 Y58.1326
G3 X52.3367 Y58.1551 I-0.4481 J0.2218
G1 X52.4695 Y58.4608
G3 X52.4789 Y58.4839 I-0.4586 J0.1993
G1 X52.6224 Y58.8651
G3 X52.6306 Y58.8886 I-0.4679 J0.1762
G1 X52.7776 Y59.347
G3 X52.7846 Y59.3709 I-0.4761 J0.1526
G1 X52.8485 Y59.6111
G3 X52.6558 Y60.1468 I-0.4832 J0.1287
G3 X51.8278 Y60.7182 I-18.6558 J-26.1468
G3 X51.2586 Y60.7084 I-0.2775 J-0.4159
G1 X51.0567 Y60.5634
G3 X51.0368 Y60.5483 I0.2917 J-0.4061
G1 X50.6604 Y60.2483
G3 X50.6412 Y60.2323 I0.3116 J-0.391
G1 X50.3358 Y59.9629
G3 X50.3175 Y59.946 I0.3307 J-0.375
G1 X50.0789 Y59.7134
G3 X50.0615 Y59.6956 I0.349 J-0.3581
G1 X49.8851 Y59.5057
G3 X49.8687 Y59.4871 I0.3664 J-0.3403
G1 X49.8014 Y59.407
G3 X49.5629 Y59.5538 I-15.8014 J-25.407
G1 X49.6041 Y59.65
G3 X49.6133 Y59.673 I-0.4597 J0.1968
G1 X49.7033 Y59.916
G3 X49.7114 Y59.9395 I-0.4688 J0.1738
G1 X49.8115 Y60.2574
G3 X49.8184 Y60.2813 I-0.4769 J0.1502
G1 X49.9213 Y60.6754
G3 X49.927 Y60.6997 I-0.4838 J0.1263
G1 X50.0252 Y61.1709
G3 X50.0297 Y61.1955 I-0.4895 J0.102
G1 X50.0682 Y61.441
G3 X49.8205 Y61.9536 I-0.494 J0.0775
G3 X48.9373 Y62.4354 I-15.8205 J-27.9536
G3 X48.3722 Y62.3661 I-0.2325 J-0.4426
G1 X48.1866 Y62.2008
G3 X48.1684 Y62.1837 I0.3326 J-0.3734
G1 X47.8254 Y61.846
G3 X47.8081 Y61.8281 I0.3508 J-0.3563
G1 X47.5324 Y61.5282
G3 X47.516 Y61.5095 I0.3681 J-0.3384
G1 X47.303 Y61.2532
G3 X47.2876 Y61.2337 I0.3845 J-0.3196
G1 X47.132 Y61.0264
G3 X47.1176 Y61.0062 I0.3999 J-0.3001
G1 X47.059 Y60.9195
G3 X46.8065 Y61.0405 I-13.059 J-26.9195
G1 X46.8374 Y61.1405
G3 X46.8442 Y61.1644 I-0.4777 J0.1476
G1 X46.9083 Y61.4155
G3 X46.9139 Y61.4397 I-0.4844 J0.1238
G1 X46.9803 Y61.7663
G3 X46.9846 Y61.7908 I-0.49 J0.0996
G1 X47.0457 Y62.1935
G3 X47.0489 Y62.2183 I-0.4943 J0.075
G1 X47.0973 Y62.6972
G3 X47.0992 Y62.7221 I-0.4975 J0.0503
G1 X47.1118 Y62.9703
G3 X46.8119 Y63.4542 I-0.4994 J0.0254
G3 X45.8832 Y63.841 I-12.8119 J-29.4542
G3 X45.3284 Y63.713 I-0.185 J-0.4645
G1 X45.1611 Y63.5292
G3 X45.1448 Y63.5103 I0.3698 J-0.3366
G1 X44.8389 Y63.1386
G3 X44.8236 Y63.119 I0.3861 J-0.3177
G1 X44.5808 Y62.792
G3 X44.5665 Y62.7716 I0.4015 J-0.298
G1 X44.3814 Y62.4945
G3 X44.3681 Y62.4734 I0.4158 J-0.2777
G1 X44.235 Y62.251
G3 X44.2229 Y62.2294 I0.4291 J-0.2567
G1 X44.1736 Y62.1371
G3 X43.9099 Y62.2311 I-10.1736 J-28.1371
G1 X43.9302 Y62.3337
G3 X43.9344 Y62.3581 I-0.4905 J0.0969
G1 X43.9719 Y62.6146
G3 X43.9749 Y62.6393 I-0.4947 J0.0725
G1 X44.0068 Y62.971
G3 X44.0086 Y62.9958 I-0.4977 J0.0478
G1 X44.0272 Y63.4027
G3 X44.0278 Y63.4277 I-0.4995 J0.023
G1 X44.0259 Y63.909
G3 X44.0251 Y63.934 I-0.5 J-0.002
G1 X44.0118 Y64.1821
G3 X43.6629 Y64.6321 I-0.4993 J-0.0269
G3 X42.6988 Y64.9196 I-9.6629 J-30.6321
G3 X42.1605 Y64.7344 I-0.1354 J-0.4813
G1 X42.0133 Y64.5341
G3 X41.9991 Y64.5136 I0.4029 J-0.2961
G1 X41.7338 Y64.112
G3 X41.7205 Y64.0908 I0.4172 J-0.2756
G1 X41.5133 Y63.7402
G3 X41.5011 Y63.7185 I0.4304 J-0.2544
G1 X41.346 Y63.4235
G3 X41.335 Y63.4012 I0.4426 J-0.2327
G1 X41.2259 Y63.1661
G3 X41.2161 Y63.1434 I0.4536 J-0.2104
G1 X41.1768 Y63.0464
G3 X40.9046 Y63.1123 I-7.1768 J-29.0464
G1 X40.9141 Y63.2165
G3 X40.9157 Y63.2412 I-0.498 J0.0451
G1 X40.9263 Y63.5002
G3 X40.9267 Y63.525 I-0.4996 J0.0204
G1 X40.9237 Y63.8583
G3 X40.9228 Y63.8832 I-0.5 J-0.0045
G1 X40.8989 Y64.2898
G3 X40.8968 Y64.3146 I-0.4991 J-0.0294
G1 X40.8446 Y64.7932
G3 X40.8413 Y64.8179 I-0.4971 J-0.0542
G1 X40.802 Y65.0633
G3 X40.408 Y65.4743 I-0.4937 J-0.079
G3 X39.4192 Y65.6595 I-6.408 J-31.4743
G3 X38.9032 Y65.419 I-0.0844 J-0.4928
G1 X38.7778 Y65.2045
G3 X38.7657 Y65.1826 I0.4317 J-0.2523
G1 X38.5438 Y64.7554
G3 X38.5329 Y64.733 I0.4437 J-0.2305
G1 X38.3634 Y64.3627
G3 X38.3536 Y64.3397 I0.4547 J-0.2081
G1 X38.2302 Y64.0302
G3 X38.2216 Y64.0069 I0.4645 J-0.1852
G1 X38.1377 Y63.7616
G3 X38.1302 Y63.738 I0.4731 J-0.1618
G1 X38.1013 Y63.6374
G3 X37.8238 Y63.6745 I-4.1013 J-29.6374
G1 X37.8223 Y63.7792
G3 X37.8213 Y63.8039 I-0.4999 J-0.0072
G1 X37.8047 Y64.0626
G3 X37.8025 Y64.0873 I-0.499 J-0.032
G1 X37.7647 Y64.4184
G3 X37.7613 Y64.4431 I-0.4968 J-0.0567
G1 X37.695 Y64.845
G3 X37.6903 Y64.8695 I-0.4933 J-0.0814
G1 X37.5883 Y65.3399
G3 X37.5825 Y65.3642 I-0.4887 J-0.1059
G1 X37.5178 Y65.6041
G3 X37.083 Y65.9717 I-0.4828 J-0.1301
G3 X36.0802 Y66.0526 I-3.083 J-31.9717
G3 X35.5921 Y65.7594 I-0.0324 J-0.499
G1 X35.4898 Y65.5329
G3 X35.4801 Y65.5099 I0.4557 J-0.2058
G1 X35.3041 Y65.0619
G3 X35.2956 Y65.0385 I0.4654 J-0.1828
G1 X35.1657 Y64.6524
G3 X35.1584 Y64.6286 I0.4739 J-0.1594
G1 X35.068 Y64.3079
G3 X35.0619 Y64.2838 I0.4813 J-0.1356
G1 X35.0041 Y64.0311
G3 X34.9991 Y64.0068 I0.4874 J-0.1115
G1 X34.9809 Y63.9038
G3 X34.701 Y63.9116 I-0.9809 J-29.9038
G1 X34.6885 Y64.0156
G3 X34.685 Y64.0401 I-0.4965 J-0.0594
G1 X34.6415 Y64.2956
G3 X34.6367 Y64.32 I-0.4929 J-0.0839
G1 X34.5645 Y64.6453
G3 X34.5585 Y64.6695 I-0.4881 J-0.1083
G1 X34.4505 Y65.0622
G3 X34.4433 Y65.0861 I-0.4821 J-0.1325
G1 X34.2928 Y65.5433
G3 X34.2844 Y65.5668 I-0.4749 J-0.1564
G1 X34.195 Y65.7987
G3 X33.7241 Y66.1188 I-0.4665 J-0.1799
G3 X32.7184 Y66.0944 I0.2759 J-32.1188
G3 X32.2637 Y65.7519 I0.02 J-0.4996
G1 X32.1856 Y65.5159
G3 X32.1783 Y65.492 I0.4747 J-0.1571
G1 X32.0501 Y65.0281
G3 X32.0441 Y65.0039 I0.4819 J-0.1332
G1 X31.9553 Y64.6064
G3 X31.9505 Y64.5819 I0.488 J-0.109
G1 X31.8941 Y64.2535
G3 X31.8905 Y64.2289 I0.4928 J-0.0845
G1 X31.8595 Y63.9715
G3 X31.8571 Y63.9469 I0.4964 J-0.0599
G1 X31.8497 Y63.8425
G3 X31.5705 Y63.8211 I2.1503 J-29.8425
G1 X31.5473 Y63.9231
G3 X31.5412 Y63.9471 I-0.4875 J-0.111
G1 X31.4712 Y64.1967
G3 X31.4639 Y64.2204 I-0.4814 J-0.135
G1 X31.3581 Y64.5364
G3 X31.3496 Y64.5599 I-0.4741 J-0.1588
G1 X31.2012 Y64.9392
G3 X31.1915 Y64.9622 I-0.4656 J-0.1822
G1 X30.994 Y65.4011
G3 X30.9832 Y65.4236 I-0.456 J-0.2052
G1 X30.87 Y65.6449
G3 X30.3683 Y65.914 I-0.4452 J-0.2277
G3 X29.3706 Y65.7846 I3.6317 J-31.914
G3 X28.9542 Y65.3964 I0.0721 J-0.4948
G1 X28.9012 Y65.1536
G3 X28.8965 Y65.1291 I0.4885 J-0.1066
G1 X28.8175 Y64.6543
G3 X28.814 Y64.6296 I0.4932 J-0.0821
G1 X28.7673 Y64.225
G3 X28.765 Y64.2002 I0.4967 J-0.0574
G1 X28.7433 Y63.8676
G3 X28.7423 Y63.8428 I0.4989 J-0.0326
G1 X28.7383 Y63.5836
G3 X28.7385 Y63.5588 I0.4999 J-0.0077
G1 X28.7421 Y63.4542
G3 X28.4667 Y63.4037 I5.2579 J-29.4542
G1 X28.4329 Y63.5028
G3 X28.4243 Y63.526 I-0.4733 J-0.1614
G1 X28.3287 Y63.7669
G3 X28.3189 Y63.7898 I-0.4647 J-0.1846
G1 X28.1806 Y64.093
G3 X28.1697 Y64.1154 I-0.4549 J-0.2075
G1 X27.9825 Y64.4771
G3 X27.9705 Y64.499 I-0.444 J-0.2299
G1 X27.7281 Y64.9149
G3 X27.7151 Y64.9361 I-0.432 J-0.2517
G1 X27.5794 Y65.1444
G3 X27.0523 Y65.3596 I-0.4189 J-0.273
G3 X26.0736 Y65.1266 I6.9477 J-31.3596
G3 X25.7 Y64.697 I0.1234 J-0.4845
G1 X25.6727 Y64.45
G3 X25.6706 Y64.4251 I0.497 J-0.0549
G1 X25.6416 Y63.9446
G3 X25.6408 Y63.9197 I0.4991 J-0.0301
G1 X25.6366 Y63.5124
G3 X25.6369 Y63.4875 I0.5 J-0.0051
G1 X25.6501 Y63.1545
G3 X25.6517 Y63.1297 I0.4996 J0.0198
G1 X25.6748 Y62.8715
G3 X25.6776 Y62.8469 I0.498 J0.0446
G1 X25.6921 Y62.7433
G3 X25.4235 Y62.6643 I8.3079 J-28.7433
G1 X25.3795 Y62.7593
G3 X25.3686 Y62.7815 I-0.4538 J-0.2099
G1 X25.2482 Y63.011
G3 X25.2361 Y63.0328 I-0.4428 J-0.2321
G1 X25.0669 Y63.3199
G3 X25.0538 Y63.341 I-0.4308 J-0.2539
G1 X24.8297 Y63.6812
G3 X24.8155 Y63.7016 I-0.4176 J-0.275
G1 X24.531 Y64.09
G3 X24.5158 Y64.1097 I-0.4033 J-0.2955
G1 X24.3591 Y64.3026
G3 X23.8124 Y64.4616 I-0.3881 J-0.3152
G3 X22.8634 Y64.1276 I10.1876 J-30.4616
G3 X22.5368 Y63.6613 I0.1734 J-0.469
G1 X22.5354 Y63.4127
G3 X22.5359 Y63.3878 I0.5 J-0.0027
G1 X22.5574 Y62.9069
G3 X22.5591 Y62.882 I0.4995 J0.0223
G1 X22.5975 Y62.4765
G3 X22.6005 Y62.4518 I0.4978 J0.0471
G1 X22.6484 Y62.122
G3 X22.6525 Y62.0975 I0.4948 J0.0719
G1 X22.7025 Y61.8432
G3 X22.7079 Y61.819 I0.4906 J0.0964
G1 X22.7331 Y61.7174
G3 X22.4742 Y61.6108 I11.2669 J-27.7174
G1 X22.4206 Y61.7006
G3 X22.4074 Y61.7216 I-0.4294 J-0.2562
G1 X22.2637 Y61.9373
G3 X22.2494 Y61.9577 I-0.4162 J-0.2772
G1 X22.0511 Y62.2255
G3 X22.0358 Y62.2451 I-0.4019 J-0.2975
G1 X21.7774 Y62.56
G3 X21.7611 Y62.5789 I-0.3865 J-0.3172
G1 X21.4376 Y62.9353
G3 X21.4204 Y62.9534 I-0.3702 J-0.336
G1 X21.2444 Y63.1289
G3 X20.6841 Y63.2298 I-0.353 J-0.3541
G3 X19.7752 Y62.7984 I13.3159 J-29.2298
G3 X19.4991 Y62.3006 I0.2214 J-0.4483
G1 X19.5238 Y62.0532
G3 X19.5269 Y62.0285 I0.4975 J0.0496
G1 X19.5984 Y61.5525
G3 X19.6028 Y61.5279 I0.4944 J0.0744
G1 X19.6833 Y61.1286
G3 X19.6889 Y61.1044 I0.4901 J0.0989
G1 X19.771 Y60.7814
G3 X19.7777 Y60.7574 I0.4846 J0.1232
G1 X19.854 Y60.5097
G3 X19.8619 Y60.4862 I0.4779 J0.1471
G1 X19.8976 Y60.3879
G3 X19.6512 Y60.2547 I14.1024 J-26.3879
G1 X19.5885 Y60.3385
G3 X19.5732 Y60.358 I-0.4002 J-0.2997
G1 X19.4077 Y60.5575
G3 X19.3914 Y60.5762 I-0.3849 J-0.3191
G1 X19.1662 Y60.8219
G3 X19.1489 Y60.8398 I-0.3686 J-0.3379
G1 X18.8591 Y61.126
G3 X18.8409 Y61.143 I-0.3513 J-0.3558
G1 X18.4819 Y61.4637
G3 X18.4629 Y61.4799 I-0.3331 J-0.3729
G1 X18.2695 Y61.636
G3 X17.7017 Y61.6778 I-0.3141 J-0.389
G3 X16.8429 Y61.1538 I16.2983 J-27.6778
G3 X16.6203 Y60.6298 I0.2671 J-0.4227
G1 X16.6707 Y60.3864
G3 X16.6764 Y60.3621 I0.4896 J0.1013
G1 X16.7973 Y59.8962
G3 X16.8042 Y59.8722 I0.484 J0.1256
G1 X16.9261 Y59.4835
G3 X16.9341 Y59.46 I0.4771 J0.1496
G1 X17.0495 Y59.1473
G3 X17.0587 Y59.1242 I0.469 J0.1732
G1 X17.1605 Y58.8858
G3 X17.1707 Y58.8633 I0.4599 J0.1963
G1 X17.2166 Y58.7692
G3 X16.9855 Y58.6111 I16.7834 J-24.7692
G1 X16.9143 Y58.6878
G3 X16.8971 Y58.7056 I-0.3667 J-0.3399
G1 X16.7117 Y58.8867
G3 X16.6935 Y58.9036 I-0.3494 J-0.3576
G1 X16.4438 Y59.1244
G3 X16.4247 Y59.1404 I-0.3312 J-0.3746
G1 X16.1066 Y59.3947
G3 X16.0867 Y59.4098 I-0.3122 J-0.3906
G1 X15.6962 Y59.6912
G3 X15.6756 Y59.7053 I-0.2923 J-0.4057
G1 X15.4669 Y59.8403
G3 X14.8979 Y59.8225 I-0.2717 J-0.4197
G3 X14.0985 Y59.2116 I19.1021 J-25.8225
G3 X13.932 Y58.6672 I0.3098 J-0.3925
G1 X14.0075 Y58.4304
G3 X14.0157 Y58.4068 I0.4764 J0.152
G1 X14.1847 Y57.9561
G3 X14.194 Y57.933 I0.4682 J0.1755
G1 X14.3558 Y57.5592
G3 X14.3663 Y57.5366 I0.4588 J0.1987
G1 X14.5138 Y57.2378
G3 X14.5253 Y57.2157 I0.4484 J0.2213
G1 X14.6514 Y56.9893
G3 X14.664 Y56.968 I0.4368 J0.2433
G1 X14.7194 Y56.8792
G3 X14.5061 Y56.6977 I19.2806 J-22.8792
G1 X14.4274 Y56.7666
G3 X14.4083 Y56.7825 I-0.3292 J-0.3764
G1 X14.205 Y56.9432
G3 X14.1851 Y56.9582 I-0.3101 J-0.3922
G1 X13.9138 Y57.1516
G3 X13.8931 Y57.1656 I-0.2903 J-0.4071
G1 X13.5501 Y57.3852
G3 X13.5288 Y57.3981 I-0.2696 J-0.4211
G1 X13.111 Y57.6372
G3 X13.089 Y57.649 I-0.2483 J-0.434
G1 X12.8674 Y57.7615
G3 X12.3033 Y57.6843 I-0.2263 J-0.4458
G3 X11.5722 Y56.9932 I21.6967 J-23.6843
G3 X11.4635 Y56.4344 I0.3491 J-0.3579
G1 X11.5634 Y56.2068
G3 X11.574 Y56.1842 I0.4579 J0.2009
G1 X11.7891 Y55.7536
G3 X11.8008 Y55.7316 I0.4473 J0.2235
G1 X12.0008 Y55.3768
G3 X12.0136 Y55.3554 I0.4356 J0.2455
G1 X12.1915 Y55.0736
G3 X12.2053 Y55.0529 I0.4228 J0.2669
G1 X12.3544 Y54.8409
G3 X12.3691 Y54.821 I0.409 J0.2876
G1 X12.4335 Y54.7385
G3 X12.2404 Y54.5357 I21.5665 J-20.7385
G1 X12.1548 Y54.596
G3 X12.1342 Y54.6098 I-0.288 J-0.4087
G1 X11.9152 Y54.7484
G3 X11.8939 Y54.7612 I-0.2674 J-0.4225
G1 X11.6038 Y54.9252
G3 X11.5818 Y54.9369 I-0.2461 J-0.4352
G1 X11.2177 Y55.1195
G3 X11.1952 Y55.1301 I-0.2241 J-0.447
G1 X10.7546 Y55.3242
G3 X10.7316 Y55.3337 I-0.2016 J-0.4576
G1 X10.4994 Y55.4224
G3 X9.9465 Y55.2867 I-0.1785 J-0.4671
G3 X9.2916 Y54.5229 I24.0535 J-21.2867
G3 X9.2419 Y53.9558 I0.3846 J-0.3195
G1 X9.365 Y53.7399
G3 X9.3779 Y53.7185 I0.4344 J0.2477
G1 X9.6369 Y53.3128
G3 X9.6509 Y53.2921 I0.4215 J0.269
G1 X9.8869 Y52.9601
G3 X9.9018 Y52.9402 I0.4075 J0.2897
G1 X10.1082 Y52.6785
G3 X10.1241 Y52.6594 I0.3926 J0.3097
G1 X10.2945 Y52.4641
G3 X10.3112 Y52.4459 I0.3767 J0.3288
G1 X10.3839 Y52.3705
G3 X10.213 Y52.1487 I23.6161 J-18.3705
G1 X10.1216 Y52.1997
G3 X10.0997 Y52.2113 I-0.2437 J-0.4366
G1 X9.8674 Y52.3263
G3 X9.8449 Y52.3367 I-0.2218 J-0.4481
G1 X9.5392 Y52.4695
G3 X9.5161 Y52.4789 I-0.1993 J-0.4586
G1 X9.1349 Y52.6224
G3 X9.1114 Y52.6306 I-0.1762 J-0.4679
G1 X8.653 Y52.7776
G3 X8.6291 Y52.7846 I-0.1526 J-0.4761
G1 X8.3889 Y52.8485
G3 X7.8532 Y52.6558 I-0.1287 J-0.4832
G3 X7.2818 Y51.8278 I26.1468 J-18.6558
G3 X7.2916 Y51.2586 I0.4159 J-0.2775
G1 X7.4366 Y51.0567
G3 X7.4517 Y51.0368 I0.4061 J0.2917
G1 X7.7517 Y50.6604
G3 X7.7677 Y50.6412 I0.391 J0.3116
G1 X8.0371 Y50.3358
G3 X8.054 Y50.3175 I0.375 J0.3307
G1 X8.2866 Y50.0789
G3 X8.3044 Y50.0615 I0.3581 J0.349
G1 X8.4943 Y49.8851
G3 X8.5129 Y49.8687 I0.3403 J0.3664
G1 X8.593 Y49.8014
G3 X8.4462 Y49.5629 I25.407 J-15.8014
G1 X8.35 Y49.6041
G3 X8.327 Y49.6133 I-0.1968 J-0.4597
G1 X8.084 Y49.7033
G3 X8.0605 Y49.7114 I-0.1738 J-0.4688
G1 X7.7426 Y49.8115
G3 X7.7187 Y49.8184 I-0.1502 J-0.4769
G1 X7.3246 Y49.9213
G3 X7.3003 Y49.927 I-0.1263 J-0.4838
G1 X6.8291 Y50.0252
G3 X6.8045 Y50.0297 I-0.102 J-0.4895
G1 X6.559 Y50.0682
G3 X6.0464 Y49.8205 I-0.0775 J-0.494
G3 X5.5646 Y48.9373 I27.9536 J-15.8205
G3 X5.6339 Y48.3722 I0.4426 J-0.2325
G1 X5.7992 Y48.1866
G3 X5.8163 Y48.1684 I0.3734 J0.3326
G1 X6.154 Y47.8254
G3 X6.1719 Y47.8081 I0.3563 J0.3508
G1 X6.4718 Y47.5324
G3 X6.4905 Y47.516 I0.3384 J0.3681
G1 X6.7468 Y47.303
G3 X6.7663 Y47.2876 I0.3196 J0.3845
G1 X6.9736 Y47.132
G3 X6.9938 Y47.1176 I0.3001 J0.3999
G1 X7.0805 Y47.059
G3 X6.9595 Y46.8065 I26.9195 J-13.059
G1 X6.8595 Y46.8374
G3 X6.8356 Y46.8442 I-0.1476 J-0.4777
G1 X6.5845 Y46.9083
G3 X6.5603 Y46.9139 I-0.1238 J-0.4844
G1 X6.2337 Y46.9803
G3 X6.2092 Y46.9846 I-0.0996 J-0.49
G1 X5.8065 Y47.0457
G3 X5.7817 Y47.0489 I-0.075 J-0.4943
G1 X5.3028 Y47.0973
G3 X5.2779 Y47.0992 I-0.0503 J-0.4975
G1 X5.0297 Y47.1118
G3 X4.5458 Y46.8119 I-0.0254 J-0.4994
G3 X4.159 Y45.8832 I29.4542 J-12.8119
G3 X4.287 Y45.3284 I0.4645 J-0.185
G1 X4.4708 Y45.1611
G3 X4.4897 Y45.1448 I0.3366 J0.3698
G1 X4.8614 Y44.8389
G3 X4.881 Y44.8236 I0.3177 J0.3861
G1 X5.208 Y44.5808
G3 X5.2284 Y44.5665 I0.298 J0.4015
G1 X5.5055 Y44.3814
G3 X5.5266 Y44.3681 I0.2777 J0.4158
G1 X5.749 Y44.235
G3 X5.7706 Y44.2229 I0.2567 J0.4291
G1 X5.8629 Y44.1736
G3 X5.7689 Y43.9099 I28.1371 J-10.1736
G1 X5.6663 Y43.9302
G3 X5.6419 Y43.9344 I-0.0969 J-0.4905
G1 X5.3854 Y43.9719
G3 X5.3607 Y43.9749 I-0.0725 J-0.4947
G1 X5.029 Y44.0068
G3 X5.0042 Y44.0086 I-0.0478 J-0.4977
G1 X4.5973 Y44.0272
G3 X4.5723 Y44.0278 I-0.023 J-0.4995
G1 X4.091 Y44.0259
G3 X4.066 Y44.0251 I0.002 J-0.5
G1 X3.8179 Y44.0118
G3 X3.3679 Y43.6629 I0.0269 J-0.4993
G3 X3.0804 Y42.6988 I30.6321 J-9.6629
G3 X3.2656 Y42.1605 I0.4813 J-0.1354
G1 X3.4659 Y42.0133
G3 X3.4864 Y41.9991 I0.2961 J0.4029
G1 X3.888 Y41.7338
G3 X3.9092 Y41.7205 I0.2756 J0.4172
G1 X4.2598 Y41.5133
G3 X4.2815 Y41.5011 I0.2544 J0.4304
G1 X4.5765 Y41.346
G3 X4.5988 Y41.335 I0.2327 J0.4426
G1 X4.8339 Y41.2259
G3 X4.8566 Y41.2161 I0.2104 J0.4536
G1 X4.9536 Y41.1768
G3 X4.8877 Y40.9046 I29.0464 J-7.1768
G1 X4.7835 Y40.9141
G3 X4.7588 Y40.9157 I-0.0451 J-0.498
G1 X4.4998 Y40.9263
G3 X4.475 Y40.9267 I-0.0204 J-0.4996
G1 X4.1417 Y40.9237
G3 X4.1168 Y40.9228 I0.0045 J-0.5
G1 X3.7102 Y40.8989
G3 X3.6854 Y40.8968 I0.0294 J-0.4991
G1 X3.2068 Y40.8446
G3 X3.1821 Y40.8413 I0.0542 J-0.4971
G1 X2.9367 Y40.802
G3 X2.5257 Y40.408 I0.079 J-0.4937
G3 X2.3405 Y39.4192 I31.4743 J-6.408
G3 X2.581 Y38.9032 I0.4928 J-0.0844
G1 X2.7955 Y38.7778
G3 X2.8174 Y38.7657 I0.2523 J0.4317
G1 X3.2446 Y38.5438
G3 X3.267 Y38.5329 I0.2305 J0.4437
G1 X3.6373 Y38.3634
G3 X3.6603 Y38.3536 I0.2081 J0.4547
G1 X3.9698 Y38.2302
G3 X3.9931 Y38.2216 I0.1852 J0.4645
G1 X4.2384 Y38.1377
G3 X4.262 Y38.1302 I0.1618 J0.4731
G1 X4.3626 Y38.1013
G3 X4.3255 Y37.8238 I29.6374 J-4.1013
G1 X4.2208 Y37.8223
G3 X4.1961 Y37.8213 I0.0072 J-0.4999
G1 X3.9374 Y37.8047
G3 X3.9127 Y37.8025 I0.032 J-0.499
G1 X3.5816 Y37.7647
G3 X3.5569 Y37.7613 I0.0567 J-0.4968
G1 X3.155 Y37.695
G3 X3.1305 Y37.6903 I0.0814 J-0.4933
G1 X2.6601 Y37.5883
G3 X2.6358 Y37.5825 I0.1059 J-0.4887
G1 X2.3959 Y37.5178
G3 X2.0283 Y37.083 I0.1301 J-0.4828
G3 X1.9474 Y36.0802 I31.9717 J-3.083
G3 X2.2406 Y35.5921 I0.499 J-0.0324
G1 X2.4671 Y35.4898
G3 X2.4901 Y35.4801 I0.2058 J0.4557
G1 X2.9381 Y35.3041
G3 X2.9615 Y35.2956 I0.1828 J0.4654
G1 X3.3476 Y35.1657
G3 X3.3714 Y35.1584 I0.1594 J0.4739
G1 X3.6921 Y35.068
G3 X3.7162 Y35.0619 I0.1356 J0.4813
G1 X3.9689 Y35.0041
G3 X3.9932 Y34.9991 I0.1115 J0.4874
G1 X4.0962 Y34.9809
G3 X4.0884 Y34.701 I29.9038 J-0.9809
G1 X3.9844 Y34.6885
G3 X3.9599 Y34.685 I0.0594 J-0.4965
G1 X3.7044 Y34.6415
G3 X3.68 Y34.6367 I0.0839 J-0.4929
G1 X3.3547 Y34.5645
G3 X3.3305 Y34.5585 I0.1083 J-0.4881
G1 X2.9378 Y34.4505
G3 X2.9139 Y34.4433 I0.1325 J-0.4821
G1 X2.4567 Y34.2928
G3 X2.4332 Y34.2844 I0.1564 J-0.4749
G1 X2.2013 Y34.195
G3 X1.8812 Y33.7241 I0.1799 J-0.4665
G3 X1.9056 Y32.7184 I32.1188 J0.2759
G3 X2.2481 Y32.2637 I0.4996 J0.02
G1 X2.4841 Y32.1856
G3 X2.508 Y32.1783 I0.1571 J0.4747
G1 X2.9719 Y32.0501
G3 X2.9961 Y32.0441 I0.1332 J0.4819
G1 X3.3936 Y31.9553
G3 X3.4181 Y31.9505 I0.109 J0.488
G1 X3.7465 Y31.8941
G3 X3.7711 Y31.8905 I0.0845 J0.4928
G1 X4.0285 Y31.8595
G3 X4.0531 Y31.8571 I0.0599 J0.4964
G1 X4.1575 Y31.8497
G3 X4.1789 Y31.5705 I29.8425 J2.1503
G1 X4.0769 Y31.5473
G3 X4.0529 Y31.5412 I0.111 J-0.4875
G1 X3.8033 Y31.4712
G3 X3.7796 Y31.4639 I0.135 J-0.4814
G1 X3.4636 Y31.3581
G3 X3.4401 Y31.3496 I0.1588 J-0.4741
G1 X3.0608 Y31.2012
G3 X3.0378 Y31.1915 I0.1822 J-0.4656
G1 X2.5989 Y30.994
G3 X2.5764 Y30.9832 I0.2052 J-0.456
G1 X2.3551 Y30.87
G3 X2.086 Y30.3683 I0.2277 J-0.4452
G3 X2.2154 Y29.3706 I31.914 J3.6317
G3 X2.6036 Y28.9542 I0.4948 J0.0721
G1 X2.8464 Y28.9012
G3 X2.8709 Y28.8965 I0.1066 J0.4885
G1 X3.3457 Y28.8175
G3 X3.3704 Y28.814 I0.0821 J0.4932
G1 X3.775 Y28.7673
G3 X3.7998 Y28.765 I0.0574 J0.4967
G1 X4.1324 Y28.7433
G3 X4.1572 Y28.7423 I0.0326 J0.4989
G1 X4.4164 Y28.7383
G3 X4.4412 Y28.7385 I0.0077 J0.4999
G1 X4.5458 Y28.7421
G3 X4.5963 Y28.4667 I29.4542 J5.2579
G1 X4.4972 Y28.4329
G3 X4.474 Y28.4243 I0.1614 J-0.4733
G1 X4.2331 Y28.3287
G3 X4.2102 Y28.3189 I0.1846 J-0.4647
G1 X3.907 Y28.1806
G3 X3.8846 Y28.1697 I0.2075 J-0.4549
G1 X3.5229 Y27.9825
G3 X3.501 Y27.9705 I0.2299 J-0.444
G1 X3.0851 Y27.7281
G3 X3.0639 Y27.7151 I0.2517 J-0.432
G1 X2.8556 Y27.5794
G3 X2.6404 Y27.0523 I0.273 J-0.4189
G3 X2.8734 Y26.0736 I31.3596 J6.9477
G3 X3.303 Y25.7 I0.4845 J0.1234
G1 X3.55 Y25.6727
G3 X3.5749 Y25.6706 I0.0549 J0.497
G1 X4.0554 Y25.6416
G3 X4.0803 Y25.6408 I0.0301 J0.4991
G1 X4.4876 Y25.6366
G3 X4.5125 Y25.6369 I0.0051 J0.5
G1 X4.8455 Y25.6501
G3 X4.8703 Y25.6517 I-0.0198 J0.4996
G1 X5.1285 Y25.6748
G3 X5.1531 Y25.6776 I-0.0446 J0.498
G1 X5.2567 Y25.6921
G3 X5.3357 Y25.4235 I28.7433 J8.3079
G1 X5.2407 Y25.3795
G3 X5.2185 Y25.3686 I0.2099 J-0.4538
G1 X4.989 Y25.2482
G3 X4.9672 Y25.2361 I0.2321 J-0.4428
G1 X4.6801 Y25.0669
G3 X4.659 Y25.0538 I0.2539 J-0.4308
G1 X4.3188 Y24.8297
G3 X4.2984 Y24.8155 I0.275 J-0.4176
G1 X3.91 Y24.531
G3 X3.8903 Y24.5158 I0.2955 J-0.4033
G1 X3.6974 Y24.3591
G3 X3.5384 Y23.8124 I0.3152 J-0.3881
G3 X3.8724 Y22.8634 I30.4616 J10.1876
G3 X4.3387 Y22.5368 I0.469 J0.1734
G1 X4.5873 Y22.5354
G3 X4.6122 Y22.5359 I0.0027 J0.5
G1 X5.0931 Y22.5574
G3 X5.118 Y22.5591 I-0.0223 J0.4995
G1 X5.5235 Y22.5975
G3 X5.5482 Y22.6005 I-0.0471 J0.4978
G1 X5.878 Y22.6484
G3 X5.9025 Y22.6525 I-0.0719 J0.4948
G1 X6.1568 Y22.7025
G3 X6.181 Y22.7079 I-0.0964 J0.4906
G1 X6.2826 Y22.7331
G3 X6.3892 Y22.4742 I27.7174 J11.2669
G1 X6.2994 Y22.4206
G3 X6.2784 Y22.4074 I0.2562 J-0.4294
G1 X6.0627 Y22.2637
G3 X6.0423 Y22.2494 I0.2772 J-0.4162
G1 X5.7745 Y22.0511
G3 X5.7549 Y22.0358 I0.2975 J-0.4019
G1 X5.44 Y21.7774
G3 X5.4211 Y21.7611 I0.3172 J-0.3865
G1 X5.0647 Y21.4376
G3 X5.0466 Y21.4204 I0.336 J-0.3702
G1 X4.8711 Y21.2444
G3 X4.7702 Y20.6841 I0.3541 J-0.353
G3 X5.2016 Y19.7752 I29.2298 J13.3159
G3 X5.6994 Y19.4991 I0.4483 J0.2214
G1 X5.9468 Y19.5238
G3 X5.9715 Y19.5269 I-0.0496 J0.4975
G1 X6.4475 Y19.5984
G3 X6.4721 Y19.6028 I-0.0744 J0.4944
G1 X6.8714 Y19.6833
G3 X6.8956 Y19.6889 I-0.0989 J0.4901
G1 X7.2186 Y19.771
G3 X7.2426 Y19.7777 I-0.1232 J0.4846
G1 X7.4903 Y19.854
G3 X7.5138 Y19.8619 I-0.1471 J0.4779
G1 X7.6121 Y19.8976
G3 X7.7453 Y19.6512 I26.3879 J14.1024
G1 X7.6615 Y19.5885
G3 X7.642 Y19.5732 I0.2997 J-0.4002
G1 X7.4425 Y19.4077
G3 X7.4238 Y19.3914 I0.3191 J-0.3849
G1 X7.1781 Y19.1662
G3 X7.1602 Y19.1489 I0.3379 J-0.3686
G1 X6.874 Y18.8591
G3 X6.857 Y18.8409 I0.3558 J-0.3513
G1 X6.5363 Y18.4819
G3 X6.5201 Y18.4629 I0.3729 J-0.3331
G1 X6.364 Y18.2695
G3 X6.3222 Y17.7017 I0.389 J-0.3141
G3 X6.8462 Y16.8429 I27.6778 J16.2983
G3 X7.3702 Y16.6203 I0.4227 J0.2671
G1 X7.6136 Y16.6707
G3 X7.6379 Y16.6764 I-0.1013 J0.4896
G1 X8.1038 Y16.7973
G3 X8.1278 Y16.8042 I-0.1256 J0.484
G1 X8.5165 Y16.9261
G3 X8.54 Y16.9341 I-0.1496 J0.4771
G1 X8.8527 Y17.0495
G3 X8.8758 Y17.0587 I-0.1732 J0.469
G1 X9.1142 Y17.1605
G3 X9.1367 Y17.1707 I-0.1963 J0.4599
G1 X9.2308 Y17.2166
G3 X9.3889 Y16.9855 I24.7692 J16.7834
G1 X9.3122 Y16.9143
G3 X9.2944 Y16.8971 I0.3399 J-0.3667
G1 X9.1133 Y16.7117
G3 X9.0964 Y16.6935 I0.3576 J-0.3494
G1 X8.8756 Y16.4438
G3 X8.8596 Y16.4247 I0.3746 J-0.3312
G1 X8.6053 Y16.1066
G3 X8.5902 Y16.0867 I0.3906 J-0.3122
G1 X8.3088 Y15.6962
G3 X8.2947 Y15.6756 I0.4057 J-0.2923
G1 X8.1597 Y15.4669
G3 X8.1775 Y14.8979 I0.4197 J-0.2717
G3 X8.7884 Y14.0985 I25.8225 J19.1021
G3 X9.3328 Y13.932 I0.3925 J0.3098
G1 X9.5696 Y14.0075
G3 X9.5932 Y14.0157 I-0.152 J0.4764
G1 X10.0439 Y14.1847
G3 X10.067 Y14.194 I-0.1755 J0.4682
G1 X10.4408 Y14.3558
G3 X10.4634 Y14.3663 I-0.1987 J0.4588
G1 X10.7622 Y14.5138
G3 X10.7843 Y14.5253 I-0.2213 J0.4484
G1 X11.0107 Y14.6514
G3 X11.032 Y14.664 I-0.2433 J0.4368
G1 X11.1208 Y14.7194
G3 X11.3023 Y14.5061 I22.8792 J19.2806
G1 X11.2334 Y14.4274
G3 X11.2175 Y14.4083 I0.3764 J-0.3292
G1 X11.0568 Y14.205
G3 X11.0418 Y14.1851 I0.3922 J-0.3101
G1 X10.8484 Y13.9138
G3 X10.8344 Y13.8931 I0.4071 J-0.2903
G1 X10.6148 Y13.5501
G3 X10.6019 Y13.5288 I0.4211 J-0.2696
G1 X10.3628 Y13.111
G3 X10.351 Y13.089 I0.434 J-0.2483
G1 X10.2385 Y12.8674
G3 X10.3157 Y12.3033 I0.4458 J-0.2263
G3 X11.0068 Y11.5722 I23.6843 J21.6967
G3 X11.5656 Y11.4635 I0.3579 J0.3491
G1 X11.7932 Y11.5634
G3 X11.8158 Y11.574 I-0.2009 J0.4579
G1 X12.2464 Y11.7891
G3 X12.2684 Y11.8008 I-0.2235 J0.4473
G1 X12.6232 Y12.0008
G3 X12.6446 Y12.0136 I-0.2455 J0.4356
G1 X12.9264 Y12.1915
G3 X12.9471 Y12.2053 I-0.2669 J0.4228
G1 X13.1591 Y12.3544
G3 X13.179 Y12.3691 I-0.2876 J0.409
G1 X13.2615 Y12.4335
G3 X13.4643 Y12.2404 I20.7385 J21.5665
G1 X13.404 Y12.1548
G3 X13.3902 Y12.1342 I0.4087 J-0.288
G1 X13.2516 Y11.9152
G3 X13.2388 Y11.8939 I0.4225 J-0.2674
G1 X13.0748 Y11.6038
G3 X13.0631 Y11.5818 I0.4352 J-0.2461
G1 X12.8805 Y11.2177
G3 X12.8699 Y11.1952 I0.447 J-0.2241
G1 X12.6758 Y10.7546
G3 X12.6663 Y10.7316 I0.4576 J-0.2016
G1 X12.5776 Y10.4994
G3 X12.7133 Y9.9465 I0.4671 J-0.1785
G3 X13.4771 Y9.2916 I21.2867 J24.0535
G3 X14.0442 Y9.2419 I0.3195 J0.3846
G1 X14.2601 Y9.365
G3 X14.2815 Y9.3779 I-0.2477 J0.4344
G1 X14.6872 Y9.6369
G3 X14.7079 Y9.6509 I-0.269 J0.4215
G1 X15.0399 Y9.8869
G3 X15.0598 Y9.9018 I-0.2897 J0.4075
G1 X15.3215 Y10.1082
G3 X15.3406 Y10.1241 I-0.3097 J0.3926
G1 X15.5359 Y10.2945
G3 X15.5541 Y10.3112 I-0.3288 J0.3767
G1 X15.6295 Y10.3839
G3 X15.8513 Y10.213 I18.3705 J23.6161
G1 X15.8003 Y10.1216
G3 X15.7887 Y10.0997 I0.4366 J-0.2437
G1 X15.6737 Y9.8674
G3 X15.6633 Y9.8449 I0.4481 J-0.2218
G1 X15.5305 Y9.5392
G3 X15.5211 Y9.5161 I0.4586 J-0.1993
G1 X15.3776 Y9.1349
G3 X15.3694 Y9.1114 I0.4679 J-0.1762
G1 X15.2224 Y8.653
G3 X15.2154 Y8.6291 I0.4761 J-0.1526
G1 X15.1515 Y8.3889
G3 X15.3442 Y7.8532 I0.4832 J-0.1287
G3 X16.1722 Y7.2818 I18.6558 J26.1468
G3 X16.7414 Y7.2916 I0.2775 J0.4159
G1 X16.9433 Y7.4366
G3 X16.9632 Y7.4517 I-0.2917 J0.4061
G1 X17.3396 Y7.7517
G3 X17.3588 Y7.7677 I-0.3116 J0.391
G1 X17.6642 Y8.0371
G3 X17.6825 Y8.054 I-0.3307 J0.375
G1 X17.9211 Y8.2866
G3 X17.9385 Y8.3044 I-0.349 J0.3581
G1 X18.1149 Y8.4943
G3 X18.1313 Y8.5129 I-0.3664 J0.3403
G1 X18.1986 Y8.593
G3 X18.4371 Y8.4462 I15.8014 J25.407
G1 X18.3959 Y8.35
G3 X18.3867 Y8.327 I0.4597 J-0.1968
G1 X18.2967 Y8.084
G3 X18.2886 Y8.0605 I0.4688 J-0.1738
G1 X18.1885 Y7.7426
G3 X18.1816 Y7.7187 I0.4769 J-0.1502
G1 X18.0787 Y7.3246
G3 X18.073 Y7.3003 I0.4838 J-0.1263
G1 X17.9748 Y6.8291
G3 X17.9703 Y6.8045 I0.4895 J-0.102
G1 X17.9318 Y6.559
G3 X18.1795 Y6.0464 I0.494 J-0.0775
G3 X19.0627 Y5.5646 I15.8205 J27.9536
G3 X19.6278 Y5.6339 I0.2325 J0.4426
G1 X19.8134 Y5.7992
G3 X19.8316 Y5.8163 I-0.3326 J0.3734
G1 X20.1746 Y6.154
G3 X20.1919 Y6.1719 I-0.3508 J0.3563
G1 X20.4676 Y6.4718
G3 X20.484 Y6.4905 I-0.3681 J0.3384
G1 X20.697 Y6.7468
G3 X20.7124 Y6.7663 I-0.3845 J0.3196
G1 X20.868 Y6.9736
G3 X20.8824 Y6.9938 I-0.3999 J0.3001
G1 X20.941 Y7.0805
G3 X21.1935 Y6.9595 I13.059 J26.9195
G1 X21.1626 Y6.8595
G3 X21.1558 Y6.8356 I0.4777 J-0.1476
G1 X21.0917 Y6.5845
G3 X21.0861 Y6.5603 I0.4844 J-0.1238
G1 X21.0197 Y6.2337
G3 X21.0154 Y6.2092 I0.49 J-0.0996
G1 X20.9543 Y5.8065
G3 X20.9511 Y5.7817 I0.4943 J-0.075
G1 X20.9027 Y5.3028
G3 X20.9008 Y5.2779 I0.4975 J-0.0503
G1 X20.8882 Y5.0297
G3 X21.1881 Y4.5458 I0.4994 J-0.0254
G3 X22.1168 Y4.159 I12.8119 J29.4542
G3 X22.6716 Y4.287 I0.185 J0.4645
G1 X22.8389 Y4.4708
G3 X22.8552 Y4.4897 I-0.3698 J0.3366
G1 X23.1611 Y4.8614
G3 X23.1764 Y4.881 I-0.3861 J0.3177
G1 X23.4192 Y5.208
G3 X23.4335 Y5.2284 I-0.4015 J0.298
G1 X23.6186 Y5.5055
G3 X23.6319 Y5.5266 I-0.4158 J0.2777
G1 X23.765 Y5.749
G3 X23.7771 Y5.7706 I-0.4291 J0.2567
G1 X23.8264 Y5.8629
G3 X24.0901 Y5.7689 I10.1736 J28.1371
G1 X24.0698 Y5.6663
G3 X24.0656 Y5.6419 I0.4905 J-0.0969
G1 X24.0281 Y5.3854
G3 X24.0251 Y5.3607 I0.4947 J-0.0725
G1 X23.9932 Y5.029
G3 X23.9914 Y5.0042 I0.4977 J-0.0478
G1 X23.9728 Y4.5973
G3 X23.9722 Y4.5723 I0.4995 J-0.023
G1 X23.9741 Y4.091
G3 X23.9749 Y4.066 I0.5 J0.002
G1 X23.9882 Y3.8179
G3 X24.3371 Y3.3679 I0.4993 J0.0269
G3 X25.3012 Y3.0804 I9.6629 J30.6321
G3 X25.8395 Y3.2656 I0.1354 J0.4813
G1 X25.9867 Y3.4659
G3 X26.0009 Y3.4864 I-0.4029 J0.2961
G1 X26.2662 Y3.888
G3 X26.2795 Y3.9092 I-0.4172 J0.2756
G1 X26.4867 Y4.2598
G3 X26.4989 Y4.2815 I-0.4304 J0.2544
G1 X26.654 Y4.5765
G3 X26.665 Y4.5988 I-0.4426 J0.2327
G1 X26.7741 Y4.8339
G3 X26.7839 Y4.8566 I-0.4536 J0.2104
G1 X26.8232 Y4.9536
G3 X27.0954 Y4.8877 I7.1768 J29.0464
G1 X27.0859 Y4.7835
G3 X27.0843 Y4.7588 I0.498 J-0.0451
G1 X27.0737 Y4.4998
G3 X27.0733 Y4.475 I0.4996 J-0.0204
G1 X27.0763 Y4.1417
G3 X27.0772 Y4.1168 I0.5 J0.0045
G1 X27.1011 Y3.7102
G3 X27.1032 Y3.6854 I0.4991 J0.0294
G1 X27.1554 Y3.2068
G3 X27.1587 Y3.1821 I0.4971 J0.0542
G1 X27.198 Y2.9367
G3 X27.592 Y2.5257 I0.4937 J0.079
G3 X28.5808 Y2.3405 I6.408 J31.4743
G3 X29.0968 Y2.581 I0.0844 J0.4928
G1 X29.2222 Y2.7955
G3 X29.2343 Y2.8174 I-0.4317 J0.2523
G1 X29.4562 Y3.2446
G3 X29.4671 Y3.267 I-0.4437 J0.2305
G1 X29.6366 Y3.6373
G3 X29.6464 Y3.6603 I-0.4547 J0.2081
G1 X29.7698 Y3.9698
G3 X29.7784 Y3.9931 I-0.4645 J0.1852
G1 X29.8623 Y4.2384
G3 X29.8698 Y4.262 I-0.4731 J0.1618
G1 X29.8987 Y4.3626
G3 X30.1762 Y4.3255 I4.1013 J29.6374
G1 X30.1777 Y4.2208
G3 X30.1787 Y4.1961 I0.4999 J0.0072
G1 X30.1953 Y3.9374
G3 X30.1975 Y3.9127 I0.499 J0.032
G1 X30.2353 Y3.5816
G3 X30.2387 Y3.5569 I0.4968 J0.0567
G1 X30.305 Y3.155
G3 X30.3097 Y3.1305 I0.4933 J0.0814
G1 X30.4117 Y2.6601
G3 X30.4175 Y2.6358 I0.4887 J0.1059
G1 X30.4822 Y2.3959
G3 X30.917 Y2.0283 I0.4828 J0.1301
G3 X31.9198 Y1.9474 I3.083 J31.9717
G3 X32.4079 Y2.2406 I0.0324 J0.499
G1 X32.5102 Y2.4671
G3 X32.5199 Y2.4901 I-0.4557 J0.2058
G1 X32.6959 Y2.9381
G3 X32.7044 Y2.9615 I-0.4654 J0.1828
G1 X32.8343 Y3.3476
G3 X32.8416 Y3.3714 I-0.4739 J0.1594
G1 X32.932 Y3.6921
G3 X32.9381 Y3.7162 I-0.4813 J0.1356
G1 X32.9959 Y3.9689
G3 X33.0009 Y3.9932 I-0.4874 J0.1115
G1 X33.0191 Y4.0962
G3 X33.299 Y4.0884 I0.9809 J29.9038
G1 X33.3115 Y3.9844
G3 X33.315 Y3.9599 I0.4965 J0.0594
G1 X33.3585 Y3.7044
G3 X33.3633 Y3.68 I0.4929 J0.0839
G1 X33.4355 Y3.3547
G3 X33.4415 Y3.3305 I0.4881 J0.1083
G1 X33.5495 Y2.9378
G3 X33.5567 Y2.9139 I0.4821 J0.1325
G1 X33.7072 Y2.4567
G3 X33.7156 Y2.4332 I0.4749 J0.1564
G1 X33.805 Y2.2013
G3 X34.2759 Y1.8812 I0.4665 J0.1799
G3 X35.2816 Y1.9056 I-0.2759 J32.1188
G3 X35.7363 Y2.2481 I-0.02 J0.4996
G1 X35.8144 Y2.4841
G3 X35.8217 Y2.508 I-0.4747 J0.1571
G1 X35.9499 Y2.9719
G3 X35.9559 Y2.9961 I-0.4819 J0.1332
G1 X36.0447 Y3.3936
G3 X36.0495 Y3.4181 I-0.488 J0.109
G1 X36.1059 Y3.7465
G3 X36.1095 Y3.7711 I-0.4928 J0.0845
G1 X36.1405 Y4.0285
G3 X36.1429 Y4.0531 I-0.4964 J0.0599
G1 X36.1503 Y4.1575
G3 X36.4295 Y4.1789 I-2.1503 J29.8425
G1 X36.4527 Y4.0769
G3 X36.4588 Y4.0529 I0.4875 J0.111
G1 X36.5288 Y3.8033
G3 X36.5361 Y3.7796 I0.4814 J0.135
G1 X36.6419 Y3.4636
G3 X36.6504 Y3.4401 I0.4741 J0.1588
G1 X36.7988 Y3.0608
G3 X36.8085 Y3.0378 I0.4656 J0.1822
G1 X37.006 Y2.5989
G3 X37.0168 Y2.5764 I0.456 J0.2052
G1 X37.13 Y2.3551
G3 X37.6317 Y2.086 I0.4452 J0.2277
G3 X38.6294 Y2.2154 I-3.6317 J31.914
G3 X39.0458 Y2.6036 I-0.0721 J0.4948
G1 X39.0988 Y2.8464
G3 X39.1035 Y2.8709 I-0.4885 J0.1066
G1 X39.1825 Y3.3457
G3 X39.186 Y3.3704 I-0.4932 J0.0821
G1 X39.2327 Y3.775
G3 X39.235 Y3.7998 I-0.4967 J0.0574
G1 X39.2567 Y4.1324
G3 X39.2577 Y4.1572 I-0.4989 J0.0326
G1 X39.2617 Y4.4164
G3 X39.2615 Y4.4412 I-0.4999 J0.0077
G1 X39.2579 Y4.5458
G3 X39.5333 Y4.5963 I-5.2579 J29.4542
G1 X39.5671 Y4.4972
G3 X39.5757 Y4.474 I0.4733 J0.1614
G1 X39.6713 Y4.2331
G3 X39.6811 Y4.2102 I0.4647 J0.1846
G1 X39.8194 Y3.907
G3 X39.8303 Y3.8846 I0.4549 J0.2075
G1 X40.0175 Y3.5229
G3 X40.0295 Y3.501 I0.444 J0.2299
G1 X40.2719 Y3.0851
G3 X40.2849 Y3.0639 I0.432 J0.2517
G1 X40.4206 Y2.8556
G3 X40.9477 Y2.6404 I0.4189 J0.273
G3 X41.9264 Y2.8734 I-6.9477 J31.3596
G3 X42.3 Y3.303 I-0.1234 J0.4845
G1 X42.3273 Y3.55
G3 X42.3294 Y3.5749 I-0.497 J0.0549
G1 X42.3584 Y4.0554
G3 X42.3592 Y4.0803 I-0.4991 J0.0301
G1 X42.3634 Y4.4876
G3 X42.3631 Y4.5125 I-0.5 J0.0051
G1 X42.3499 Y4.8455
G3 X42.3483 Y4.8703 I-0.4996 J-0.0198
G1 X42.3252 Y5.1285
G3 X42.3224 Y5.1531 I-0.498 J-0.0446
G1 X42.3079 Y5.2567
G3 X42.5765 Y5.3357 I-8.3079 J28.7433
G1 X42.6205 Y5.2407
G3 X42.6314 Y5.2185 I0.4538 J0.2099
G1 X42.7518 Y4.989
G3 X42.7639 Y4.9672 I0.4428 J0.2321
G1 X42.9331 Y4.6801
G3 X42.9462 Y4.659 I0.4308 J0.2539
G1 X43.1703 Y4.3188
G3 X43.1845 Y4.2984 I0.4176 J0.275
G1 X43.469 Y3.91
G3 X43.4842 Y3.8903 I0.4033 J0.2955
G1 X43.6409 Y3.6974
G3 X44.1876 Y3.5384 I0.3881 J0.3152
G3 X45.1366 Y3.8724 I-10.1876 J30.4616
G3 X45.4632 Y4.3387 I-0.1734 J0.469
G1 X45.4646 Y4.5873
G3 X45.4641 Y4.6122 I-0.5 J0.0027
G1 X45.4426 Y5.0931
G3 X45.4409 Y5.118 I-0.4995 J-0.0223
G1 X45.4025 Y5.5235
G3 X45.3995 Y5.5482 I-0.4978 J-0.0471
G1 X45.3516 Y5.878
G3 X45.3475 Y5.9025 I-0.4948 J-0.0719
G1 X45.2975 Y6.1568
G3 X45.2921 Y6.181 I-0.4906 J-0.0964
G1 X45.2669 Y6.2826
G3 X45.5258 Y6.3892 I-11.2669 J27.7174
G1 X45.5794 Y6.2994
G3 X45.5926 Y6.2784 I0.4294 J0.2562
G1 X45.7363 Y6.0627
G3 X45.7506 Y6.0423 I0.4162 J0.2772
G1 X45.9489 Y5.7745
G3 X45.9642 Y5.7549 I0.4019 J0.2975
G1 X46.2226 Y5.44
G3 X46.2389 Y5.4211 I0.3865 J0.3172
G1 X46.5624 Y5.0647
G3 X46.5796 Y5.0466 I0.3702 J0.336
G1 X46.7556 Y4.8711
G3 X47.3159 Y4.7702 I0.353 J0.3541
G3 X48.2248 Y5.2016 I-13.3159 J29.2298
G3 X48.5009 Y5.6994 I-0.2214 J0.4483
G1 X48.4762 Y5.9468
G3 X48.4731 Y5.9715 I-0.4975 J-0.0496
G1 X48.4016 Y6.4475
G3 X48.3972 Y6.4721 I-0.4944 J-0.0744
G1 X48.3167 Y6.8714
G3 X48.3111 Y6.8956 I-0.4901 J-0.0989
G1 X48.229 Y7.2186
G3 X48.2223 Y7.2426 I-0.4846 J-0.1232
G1 X48.146 Y7.4903
G3 X48.1381 Y7.5138 I-0.4779 J-0.1471
G1 X48.1024 Y7.6121
G3 X48.3488 Y7.7453 I-14.1024 J26.3879
G1 X48.4115 Y7.6615
G3 X48.4268 Y7.642 I0.4002 J0.2997
G1 X48.5923 Y7.4425
G3 X48.6086 Y7.4238 I0.3849 J0.3191
G1 X48.8338 Y7.1781
G3 X48.8511 Y7.1602 I0.3686 J0.3379
G1 X49.1409 Y6.874
G3 X49.1591 Y6.857 I0.3513 J0.3558
G1 X49.5181 Y6.5363
G3 X49.5371 Y6.5201 I0.3331 J0.3729
G1 X49.7305 Y6.364
G3 X50.2983 Y6.3222 I0.3141 J0.389
G3 X51.1571 Y6.8462 I-16.2983 J27.6778
G3 X51.3797 Y7.3702 I-0.2671 J0.4227
G1 X51.3293 Y7.6136
G3 X51.3236 Y7.6379 I-0.4896 J-0.1013
G1 X51.2027 Y8.1038
G3 X51.1958 Y8.1278 I-0.484 J-0.1256
G1 X51.0739 Y8.5165
G3 X51.0659 Y8.54 I-0.4771 J-0.1496
G1 X50.9505 Y8.8527
G3 X50.9413 Y8.8758 I-0.469 J-0.1732
G1 X50.8395 Y9.1142
G3 X50.8293 Y9.1367 I-0.4599 J-0.1963
G1 X50.7834 Y9.2308
G3 X51.0145 Y9.3889 I-16.7834 J24.7692
G1 X51.0857 Y9.3122
G3 X51.1029 Y9.2944 I0.3667 J0.3399
G1 X51.2883 Y9.1133
G3 X51.3065 Y9.0964 I0.3494 J0.3576
G1 X51.5562 Y8.8756
G3 X51.5753 Y8.8596 I0.3312 J0.3746
G1 X51.8934 Y8.6053
G3 X51.9133 Y8.5902 I0.3122 J0.3906
G1 X52.3038 Y8.3088
G3 X52.3244 Y8.2947 I0.2923 J0.4057
G1 X52.5331 Y8.1597
G3 X53.1021 Y8.1775 I0.2717 J0.4197
G3 X53.9015 Y8.7884 I-19.1021 J25.8225
G3 X54.068 Y9.3328 I-0.3098 J0.3925
G1 X53.9925 Y9.5696
G3 X53.9843 Y9.5932 I-0.4764 J-0.152
G1 X53.8153 Y10.0439
G3 X53.806 Y10.067 I-0.4682 J-0.1755
G1 X53.6442 Y10.4408
G3 X53.6337 Y10.4634 I-0.4588 J-0.1987
G1 X53.4862 Y10.7622
G3 X53.4747 Y10.7843 I-0.4484 J-0.2213
G1 X53.3486 Y11.0107
G3 X53.336 Y11.032 I-0.4368 J-0.2433
G1 X53.2806 Y11.1208
G3 X53.4939 Y11.3023 I-19.2806 J22.8792
G1 X53.5726 Y11.2334
G3 X53.5917 Y11.2175 I0.3292 J0.3764
G1 X53.795 Y11.0568
G3 X53.8149 Y11.0418 I0.3101 J0.3922
G1 X54.0862 Y10.8484
G3 X54.1069 Y10.8344 I0.2903 J0.4071
G1 X54.4499 Y10.6148
G3 X54.4712 Y10.6019 I0.2696 J0.4211
G1 X54.889 Y10.3628
G3 X54.911 Y10.351 I0.2483 J0.434
G1 X55.1326 Y10.2385
G3 X55.6967 Y10.3157 I0.2263 J0.4458
G3 X56.4278 Y11.0068 I-21.6967 J23.6843
G3 X56.5365 Y11.5656 I-0.3491 J0.3579
G1 X56.4366 Y11.7932
G3 X56.426 Y11.8158 I-0.4579 J-0.2009
G1 X56.2109 Y12.2464
G3 X56.1992 Y12.2684 I-0.4473 J-0.2235
G1 X55.9992 Y12.6232
G3 X55.9864 Y12.6446 I-0.4356 J-0.2455
G1 X55.8085 Y12.9264
G3 X55.7947 Y12.9471 I-0.4228 J-0.2669
G1 X55.6456 Y13.1591
G3 X55.6309 Y13.179 I-0.409 J-0.2876
G1 X55.5665 Y13.2615
G3 X55.7596 Y13.4643 I-21.5665 J20.7385
G1 X55.8452 Y13.404
G3 X55.8658 Y13.3902 I0.288 J0.4087
G1 X56.0848 Y13.2516
G3 X56.1061 Y13.2388 I0.2674 J0.4225
G1 X56.3962 Y13.0748
G3 X56.4182 Y13.0631 I0.2461 J0.4352
G1 X56.7823 Y12.8805
G3 X56.8048 Y12.8699 I0.2241 J0.447
G1 X57.2454 Y12.6758
G3 X57.2684 Y12.6663 I0.2016 J0.4576
G1 X57.5006 Y12.5776
G3 X58.0535 Y12.7133 I0.1785 J0.4671
G3 X58.7084 Y13.4771 I-24.0535 J21.2867
G3 X58.7581 Y14.0442 I-0.3846 J0.3195
G1 X58.635 Y14.2601
G3 X58.6221 Y14.2815 I-0.4344 J-0.2477
G1 X58.3631 Y14.6872
G3 X58.3491 Y14.7079 I-0.4215 J-0.269
G1 X58.1131 Y15.0399
G3 X58.0982 Y15.0598 I-0.4075 J-0.2897
G1 X57.8918 Y15.3215
G3 X57.8759 Y15.3406 I-0.3926 J-0.3097
G1 X57.7055 Y15.5359
G3 X57.6888 Y15.5541 I-0.3767 J-0.3288
G1 X57.6161 Y15.6295
G3 X57.787 Y15.8513 I-23.6161 J18.3705
G1 X57.8784 Y15.8003
G3 X57.9003 Y15.7887 I0.2437 J0.4366
G1 X58.1326 Y15.6737
G3 X58.1551 Y15.6633 I0.2218 J0.4481
G1 X58.4608 Y15.5305
G3 X58.4839 Y15.5211 I0.1993 J0.4586
G1 X58.8651 Y15.3776
G3 X58.8886 Y15.3694 I0.1762 J0.4679
G1 X59.347 Y15.2224
G3 X59.3709 Y15.2154 I0.1526 J0.4761
G1 X59.6111 Y15.1515
G3 X60.1468 Y15.3442 I0.1287 J0.4832
G3 X60.7182 Y16.1722 I-26.1468 J18.6558
G3 X60.7084 Y16.7414 I-0.4159 J0.2775
G1 X60.5634 Y16.9433
G3 X60.5483 Y16.9632 I-0.4061 J-0.2917
G1 X60.2483 Y17.3396
G3 X60.2323 Y17.3588 I-0.391 J-0.3116
G1 X59.9629 Y17.6642
G3 X59.946 Y17.6825 I-0.375 J-0.3307
G1 X59.7134 Y17.9211
G3 X59.6956 Y17.9385 I-0.3581 J-0.349
G1 X59.5057 Y18.1149
G3 X59.4871 Y18.1313 I-0.3403 J-0.3664
G1 X59.407 Y18.1986
G3 X59.5538 Y18.4371 I-25.407 J15.8014
G1 X59.65 Y18.3959
G3 X59.673 Y18.3867 I0.1968 J0.4597
G1 X59.916 Y18.2967
G3 X59.9395 Y18.2886 I0.1738 J0.4688
G1 X60.2574 Y18.1885
G3 X60.2813 Y18.1816 I0.1502 J0.4769
G1 X60.6754 Y18.0787
G3 X60.6997 Y18.073 I0.1263 J0.4838
G1 X61.1709 Y17.9748
G3 X61.1955 Y17.9703 I0.102 J0.4895
G1 X61.441 Y17.9318
G3 X61.9536 Y18.1795 I0.0775 J0.494
G3 X62.4354 Y19.0627 I-27.9536 J15.8205
G3 X62.3661 Y19.6278 I-0.4426 J0.2325
G1 X62.2008 Y19.8134
G3 X62.1837 Y19.8316 I-0.3734 J-0.3326
G1 X61.846 Y20.1746
G3 X61.8281 Y20.1919 I-0.3563 J-0.3508
G1 X61.5282 Y20.4676
G3 X61.5095 Y20.484 I-0.3384 J-0.3681
G1 X61.2532 Y20.697
G3 X61.2337 Y20.7124 I-0.3196 J-0.3845
G1 X61.0264 Y20.868
G3 X61.0062 Y20.8824 I-0.3001 J-0.3999
G1 X60.9195 Y20.941
G3 X61.0405 Y21.1935 I-26.9195 J13.059
G1 X61.1405 Y21.1626
G3 X61.1644 Y21.1558 I0.1476 J0.4777
G1 X61.4155 Y21.0917
G3 X61.4397 Y21.0861 I0.1238 J0.4844
G1 X61.7663 Y21.0197
G3 X61.7908 Y21.0154 I0.0996 J0.49
G1 X62.1935 Y20.9543
G3 X62.2183 Y20.9511 I0.075 J0.4943
G1 X62.6972 Y20.9027
G3 X62.7221 Y20.9008 I0.0503 J0.4975
G1 X62.9703 Y20.8882
G3 X63.4542 Y21.1881 I0.0254 J0.4994
G3 X63.841 Y22.1168 I-29.4542 J12.8119
G3 X63.713 Y22.6716 I-0.4645 J0.185
G1 X63.5292 Y22.8389
G3 X63.5103 Y22.8552 I-0.3366 J-0.3698
G1 X63.1386 Y23.1611
G3 X63.119 Y23.1764 I-0.3177 J-0.3861
G1 X62.792 Y23.4192
G3 X62.7716 Y23.4335 I-0.298 J-0.4015
G1 X62.4945 Y23.6186
G3 X62.4734 Y23.6319 I-0.2777 J-0.4158
G1 X62.251 Y23.765
G3 X62.2294 Y23.7771 I-0.2567 J-0.4291
G1 X62.1371 Y23.8264
G3 X62.2311 Y24.0901 I-28.1371 J10.1736
G1 X62.3337 Y24.0698
G3 X62.3581 Y24.0656 I0.0969 J0.4905
G1 X62.6146 Y24.0281
G3 X62.6393 Y24.0251 I0.0725 J0.4947
G1 X62.971 Y23.9932
G3 X62.9958 Y23.9914 I0.0478 J0.4977
G1 X63.4027 Y23.9728
G3 X63.4277 Y23.9722 I0.023 J0.4995
G1 X63.909 Y23.9741
G3 X63.934 Y23.9749 I-0.002 J0.5
G1 X64.1821 Y23.9882
G3 X64.6321 Y24.3371 I-0.0269 J0.4993
G3 X64.9196 Y25.3012 I-30.6321 J9.6629
G3 X64.7344 Y25.8395 I-0.4813 J0.1354
G1 X64.5341 Y25.9867
G3 X64.5136 Y26.0009 I-0.2961 J-0.4029
G1 X64.112 Y26.2662
G3 X64.0908 Y26.2795 I-0.2756 J-0.4172
G1 X63.7402 Y26.4867
G3 X63.7185 Y26.4989 I-0.2544 J-0.4304
G1 X63.4235 Y26.654
G3 X63.4012 Y26.665 I-0.2327 J-0.4426
G1 X63.1661 Y26.7741
G3 X63.1434 Y26.7839 I-0.2104 J-0.4536
G1 X63.0464 Y26.8232
G3 X63.1123 Y27.0954 I-29.0464 J7.1768
G1 X63.2165 Y27.0859
G3 X63.2412 Y27.0843 I0.0451 J0.498
G1 X63.5002 Y27.0737
G3 X63.525 Y27.0733 I0.0204 J0.4996
G1 X63.8583 Y27.0763
G3 X63.8832 Y27.0772 I-0.0045 J0.5
G1 X64.2898 Y27.1011
G3 X64.3146 Y27.1032 I-0.0294 J0.4991
G1 X64.7932 Y27.1554
G3 X64.8179 Y27.1587 I-0.0542 J0.4971
G1 X65.0633 Y27.198
G3 X65.4743 Y27.592 I-0.079 J0.4937
G3 X65.6595 Y28.5808 I-31.4743 J6.408
G3 X65.419 Y29.0968 I-0.4928 J0.0844
G1 X65.2045 Y29.2222
G3 X65.1826 Y29.2343 I-0.2523 J-0.4317
G1 X64.7554 Y29.4562
G3 X64.733 Y29.4671 I-0.2305 J-0.4437
G1 X64.3627 Y29.6366
G3 X64.3397 Y29.6464 I-0.2081 J-0.4547
G1 X64.0302 Y29.7698
G3 X64.0069 Y29.7784 I-0.1852 J-0.4645
G1 X63.7616 Y29.8623
G3 X63.738 Y29.8698 I-0.1618 J-0.4731
G1 X63.6374 Y29.8987
G3 X63.6745 Y30.1762 I-29.6374 J4.1013
G1 X63.7792 Y30.1777
G3 X63.8039 Y30.1787 I-0.0072 J0.4999
G1 X64.0626 Y30.1953
G3 X64.0873 Y30.1975 I-0.032 J0.499
G1 X64.4184 Y30.2353
G3 X64.4431 Y30.2387 I-0.0567 J0.4968
G1 X64.845 Y30.305
G3 X64.8695 Y30.3097 I-0.0814 J0.4933
G1 X65.3399 Y30.4117
G3 X65.3642 Y30.4175 I-0.1059 J0.4887
G1 X65.6041 Y30.4822
G3 X65.9717 Y30.917 I-0.1301 J0.4828
G3 X66.0526 Y31.9198 I-31.9717 J3.083
G3 X65.7594 Y32.4079 I-0.499 J0.0324
G1 X65.5329 Y32.5102
G3 X65.5099 Y32.5199 I-0.2058 J-0.4557
G1 X65.0619 Y32.6959
G3 X65.0385 Y32.7044 I-0.1828 J-0.4654
G1 X64.6524 Y32.8343
G3 X64.6286 Y32.8416 I-0.1594 J-0.4739
G1 X64.3079 Y32.932
G3 X64.2838 Y32.9381 I-0.1356 J-0.4813
G1 X64.0311 Y32.9959
G3 X64.0068 Y33.0009 I-0.1115 J-0.4874
G1 X63.9038 Y33.0191
G3 X63.9116 Y33.299 I-29.9038 J0.9809
G1 X64.0156 Y33.3115
G3 X64.0401 Y33.315 I-0.0594 J0.4965
G1 X64.2956 Y33.3585
G3 X64.32 Y33.3633 I-0.0839 J0.4929
G1 X64.6453 Y33.4355
G3 X64.6695 Y33.4415 I-0.1083 J0.4881
G1 X65.0622 Y33.5495
G3 X65.0861 Y33.5567 I-0.1325 J0.4821
G1 X65.5433 Y33.7072
G3 X65.5668 Y33.7156 I-0.1564 J0.4749
G1 X65.7987 Y33.805
G3 X66.1188 Y34.2759 I-0.1799 J0.4665
G3 X66.0944 Y35.2816 I-32.1188 J-0.2759
G3 X65.7519 Y35.7363 I-0.4996 J-0.02
G1 X65.5159 Y35.8144
G3 X65.492 Y35.8217 I-0.1571 J-0.4747
G1 X65.0281 Y35.9499
G3 X65.0039 Y35.9559 I-0.1332 J-0.4819
G1 X64.6064 Y36.0447
G3 X64.5819 Y36.0495 I-0.109 J-0.488
G1 X64.2535 Y36.1059
G3 X64.2289 Y36.1095 I-0.0845 J-0.4928
G1 X63.9715 Y36.1405
G3 X63.9469 Y36.1429 I-0.0599 J-0.4964
G1 X63.8425 Y36.1503
G3 X63.8211 Y36.4295 I-29.8425 J-2.1503
G1 X63.9231 Y36.4527
G3 X63.9471 Y36.4588 I-0.111 J0.4875
G1 X64.1967 Y36.5288
G3 X64.2204 Y36.5361 I-0.135 J0.4814
G1 X64.5364 Y36.6419
G3 X64.5599 Y36.6504 I-0.1588 J0.4741
G1 X64.9392 Y36.7988
G3 X64.9622 Y36.8085 I-0.1822 J0.4656
G1 X65.4011 Y37.006
G3 X65.4236 Y37.0168 I-0.2052 J0.456
G1 X65.6449 Y37.13
G3 X65.914 Y37.6317 I-0.2277 J0.4452
G3 X65.7846 Y38.6294 I-31.914 J-3.6317
G3 X65.3964 Y39.0458 I-0.4948 J-0.0721
G1 X65.1536 Y39.0988
G3 X65.1291 Y39.1035 I-0.1066 J-0.4885
G1 X64.6543 Y39.1825
G3 X64.6296 Y39.186 I-0.0821 J-0.4932
G1 X64.225 Y39.2327
G3 X64.2002 Y39.235 I-0.0574 J-0.4967
G1 X63.8676 Y39.2567
G3 X63.8428 Y39.2577 I-0.0326 J-0.4989
G1 X63.5836 Y39.2617
G3 X63.5588 Y39.2615 I-0.0077 J-0.4999
G1 X63.4542 Y39.2579
G3 X63.4037 Y39.5333 I-29.4542 J-5.2579
G1 X63.5028 Y39.5671
G3 X63.526 Y39.5757 I-0.1614 J0.4733
G1 X63.7669 Y39.6713
G3 X63.7898 Y39.6811 I-0.1846 J0.4647
G1 X64.093 Y39.8194
G3 X64.1154 Y39.8303 I-0.2075 J0.4549
G1 X64.4771 Y40.0175
G3 X64.499 Y40.0295 I-0.2299 J0.444
G1 X64.9149 Y40.2719
G3 X64.9361 Y40.2849 I-0.2517 J0.432
G1 X65.1444 Y40.4206
G3 X65.3596 Y40.9477 I-0.273 J0.4189
G3 X65.1266 Y41.9264 I-31.3596 J-6.9477
G3 X64.697 Y42.3 I-0.4845 J-0.1234
G1 X64.45 Y42.3273
G3 X64.4251 Y42.3294 I-0.0549 J-0.497
G1 X63.9446 Y42.3584
G3 X63.9197 Y42.3592 I-0.0301 J-0.4991
G1 X63.5124 Y42.3634
G3 X63.4875 Y42.3631 I-0.0051 J-0.5
G1 X63.1545 Y42.3499
G3 X63.1297 Y42.3483 I0.0198 J-0.4996
G1 X62.8715 Y42.3252
G3 X62.8469 Y42.3224 I0.0446 J-0.498
G1 X62.7433 Y42.3079
G3 X62.6643 Y42.5765 I-28.7433 J-8.3079
G1 X62.7593 Y42.6205
G3 X62.7815 Y42.6314 I-0.2099 J0.4538
G1 X63.011 Y42.7518
G3 X63.0328 Y42.7639 I-0.2321 J0.4428
G1 X63.3199 Y42.9331
G3 X63.341 Y42.9462 I-0.2539 J0.4308
G1 X63.6812 Y43.1703
G3 X63.7016 Y43.1845 I-0.275 J0.4176
G1 X64.09 Y43.469
G3 X64.1097 Y43.4842 I-0.2955 J0.4033
G1 X64.3026 Y43.6409
G3 X64.4616 Y44.1876 I-0.3152 J0.3881
G3 X64.1276 Y45.1366 I-30.4616 J-10.1876
G3 X63.6613 Y45.4632 I-0.469 J-0.1734
G1 X63.4127 Y45.4646
G3 X63.3878 Y45.4641 I-0.0027 J-0.5
G1 X62.9069 Y45.4426
G3 X62.882 Y45.4409 I0.0223 J-0.4995
G1 X62.4765 Y45.4025
G3 X62.4518 Y45.3995 I0.0471 J-0.4978
G1 X62.122 Y45.3516
G3 X62.0975 Y45.3475 I0.0719 J-0.4948
G1 X61.8432 Y45.2975
G3 X61.819 Y45.2921 I0.0964 J-0.4906
G1 X61.7174 Y45.2669
G3 X61.6108 Y45.5258 I-27.7174 J-11.2669
G1 X61.7006 Y45.5794
G3 X61.7216 Y45.5926 I-0.2562 J0.4294
G1 X61.9373 Y45.7363
G3 X61.9577 Y45.7506 I-0.2772 J0.4162
G1 X62.2255 Y45.9489
G3 X62.2451 Y45.9642 I-0.2975 J0.4019
G1 X62.56 Y46.2226
G3 X62.5789 Y46.2389 I-0.3172 J0.3865
G1 X62.9353 Y46.5624
G3 X62.9534 Y46.5796 I-0.336 J0.3702
G1 X63.1289 Y46.7556
G3 X63.2298 Y47.3159 I-0.3541 J0.353
G3 X62.7984 Y48.2248 I-29.2298 J-13.3159
G3 X62.3006 Y48.5009 I-0.4483 J-0.2214
G1 X62.0532 Y48.4762
G3 X62.0285 Y48.4731 I0.0496 J-0.4975
G1 X61.5525 Y48.4016
G3 X61.5279 Y48.3972 I0.0744 J-0.4944
G1 X61.1286 Y48.3167
G3 X61.1044 Y48.3111 I0.0989 J-0.4901
G1 X60.7814 Y48.229
G3 X60.7574 Y48.2223 I0.1232 J-0.4846
G1 X60.5097 Y48.146
G3 X60.4862 Y48.1381 I0.1471 J-0.4779
G1 X60.3879 Y48.1024
G3 X60.2547 Y48.3488 I-26.3879 J-14.1024
G1 X60.3385 Y48.4115
G3 X60.358 Y48.4268 I-0.2997 J0.4002
G1 X60.5575 Y48.5923
G3 X60.5762 Y48.6086 I-0.3191 J0.3849
G1 X60.8219 Y48.8338
G3 X60.8398 Y48.8511 I-0.3379 J0.3686
G1 X61.126 Y49.1409
G3 X61.143 Y49.1591 I-0.3558 J0.3513
G1 X61.4637 Y49.5181
G3 X61.4799 Y49.5371 I-0.3729 J0.3331
G1 X61.636 Y49.7305
G3 X61.6778 Y50.2983 I-0.389 J0.3141
G3 X61.1538 Y51.1571 I-27.6778 J-16.2983
G3 X60.6298 Y51.3797 I-0.4227 J-0.2671
G1 X60.3864 Y51.3293
G3 X60.3621 Y51.3236 I0.1013 J-0.4896
G1 X59.8962 Y51.2027
G3 X59.8722 Y51.1958 I0.1256 J-0.484
G1 X59.4835 Y51.0739
G3 X59.46 Y51.0659 I0.1496 J-0.4771
G1 X59.1473 Y50.9505
G3 X59.1242 Y50.9413 I0.1732 J-0.469
G1 X58.8858 Y50.8395
G3 X58.8633 Y50.8293 I0.1963 J-0.4599
G1 X58.7692 Y50.7834
G3 X58.6111 Y51.0145 I-24.7692 J-16.7834
G1 X58.6878 Y51.0857
G3 X58.7056 Y51.1029 I-0.3399 J0.3667
G1 X58.8867 Y51.2883
G3 X58.9036 Y51.3065 I-0.3576 J0.3494
G1 X59.1244 Y51.5562
G3 X59.1404 Y51.5753 I-0.3746 J0.3312
G1 X59.3947 Y51.8934
G3 X59.4098 Y51.9133 I-0.3906 J0.3122
G1 X59.6912 Y52.3038
G3 X59.7053 Y52.3244 I-0.4057 J0.2923
G1 X59.8403 Y52.5331
G3 X59.8225 Y53.1021 I-0.4197 J0.2717
G3 X59.2116 Y53.9015 I-25.8225 J-19.1021
G3 X58.6672 Y54.068 I-0.3925 J-0.3098
G1 X58.4304 Y53.9925
G3 X58.4068 Y53.9843 I0.152 J-0.4764
G1 X57.9561 Y53.8153
G3 X57.933 Y53.806 I0.1755 J-0.4682
G1 X57.5592 Y53.6442
G3 X57.5366 Y53.6337 I0.1987 J-0.4588
G1 X57.2378 Y53.4862
G3 X57.2157 Y53.4747 I0.2213 J-0.4484
G1 X56.9893 Y53.3486
G3 X56.968 Y53.336 I0.2433 J-0.4368
G1 X56.8792 Y53.2806
G1 Z7.0
G3 X56.6977 Y53.4939 I-22.8792 J-19.2806
G1 X56.7666 Y53.5726
G3 X56.7825 Y53.5917 I-0.3764 J0.3292
G1 X56.9432 Y53.795
G3 X56.9582 Y53.8149 I-0.3922 J0.3101
G1 X57.1516 Y54.0862
G3 X57.1656 Y54.1069 I-0.4071 J0.2903
G1 X57.3852 Y54.4499
G3 X57.3981 Y54.4712 I-0.4211 J0.2696
G1 X57.6372 Y54.889
G3 X57.649 Y54.911 I-0.434 J0.2483
G1 X57.7615 Y55.1326
G3 X57.6843 Y55.6967 I-0.4458 J0.2263
G3 X56.9932 Y56.4278 I-23.6843 J-21.6967
G3 X56.4344 Y56.5365 I-0.3579 J-0.3491
G1 X56.2068 Y56.4366
G3 X56.1842 Y56.426 I0.2009 J-0.4579
G1 X55.7536 Y56.2109
G3 X55.7316 Y56.1992 I0.2235 J-0.4473
G1 X55.3768 Y55.9992
G3 X55.3554 Y55.9864 I0.2455 J-0.4356
G1 X55.0736 Y55.8085
G3 X55.0529 Y55.7947 I0.2669 J-0.4228
G1 X54.8409 Y55.6456
G3 X54.821 Y55.6309 I0.2876 J-0.409
G1 X54.7385 Y55.5665
G3 X54.5357 Y55.7596 I-20.7385 J-21.5665
G1 X54.596 Y55.8452
G3 X54.6098 Y55.8658 I-0.4087 J0.288
G1 X54.7484 Y56.0848
G3 X54.7612 Y56.1061 I-0.4225 J0.2674
G1 X54.9252 Y56.3962
G3 X54.9369 Y56.4182 I-0.4352 J0.2461
G1 X55.1195 Y56.7823
G3 X55.1301 Y56.8048 I-0.447 J0.2241
G1 X55.3242 Y57.2454
G3 X55.3337 Y57.2684 I-0.4576 J0.2016
G1 X55.4224 Y57.5006
G3 X55.2867 Y58.0535 I-0.4671 J0.1785
G3 X54.5229 Y58.7084 I-21.2867 J-24.0535
G3 X53.9558 Y58.7581 I-0.3195 J-0.3846
G1 X53.7399 Y58.635
G3 X53.7185 Y58.6221 I0.2477 J-0.4344
G1 X53.3128 Y58.3631
G3 X53.2921 Y58.3491 I0.269 J-0.4215
G1 X52.9601 Y58.1131
G3 X52.9402 Y58.0982 I0.2897 J-0.4075
G1 X52.6785 Y57.8918
G3 X52.6594 Y57.8759 I0.3097 J-0.3926
G1 X52.4641 Y57.7055
G3 X52.4459 Y57.6888 I0.3288 J-0.3767
G1 X52.3705 Y57.6161
G3 X52.1487 Y57.787 I-18.3705 J-23.6161
G1 X52.1997 Y57.8784
G3 X52.2113 Y57.9003 I-0.4366 J0.2437
G1 X52.3263 Y58.1326
G3 X52.3367 Y58.1551 I-0.4481 J0.2218
G1 X52.4695 Y58.4608
G3 X52.4789 Y58.4839 I-0.4586 J0.1993
G1 X52.6224 Y58.8651
G3 X52.6306 Y58.8886 I-0.4679 J0.1762
G1 X52.7776 Y59.347
G3 X52.7846 Y59.3709 I-0.4761 J0.1526
G1 X52.8485 Y59.6111
G3 X52.6558 Y60.1468 I-0.4832 J0.1287
G3 X51.8278 Y60.7182 I-18.6558 J-26.1468
G3 X51.2586 Y60.7084 I-0.2775 J-0.4159
G1 X51.0567 Y60.5634
G3 X51.0368 Y60.5483 I0.2917 J-0.4061
G1 X50.6604 Y60.2483
G3 X50.6412 Y60.2323 I0.3116 J-0.391
G1 X50.3358 Y59.9629
G3 X50.3175 Y59.946 I0.3307 J-0.375
G1 X50.0789 Y59.7134
G3 X50.0615 Y59.6956 I0.349 J-0.3581
G1 X49.8851 Y59.5057
G3 X49.8687 Y59.4871 I0.3664 J-0.3403
G1 X49.8014 Y59.407
G3 X49.5629 Y59.5538 I-15.8014 J-25.407
G1 X49.6041 Y59.65
G3 X49.6133 Y59.673 I-0.4597 J0.1968
G1 X49.7033 Y59.916
G3 X49.7114 Y59.9395 I-0.4688 J0.1738
G1 X49.8115 Y60.2574
G3 X49.8184 Y60.2813 I-0.4769 J0.1502
G1 X49.9213 Y60.6754
G3 X49.927 Y60.6997 I-0.4838 J0.1263
G1 X50.0252 Y61.1709
G3 X50.0297 Y61.1955 I-0.4895 J0.102
G1 X50.0682 Y61.441
G3 X49.8205 Y61.9536 I-0.494 J0.0775
G3 X48.9373 Y62.4354 I-15.8205 J-27.9536
G3 X48.3722 Y62.3661 I-0.2325 J-0.4426
G1 X48.1866 Y62.2008
G3 X48.1684 Y62.1837 I0.3326 J-0.3734
G1 X47.8254 Y61.846
G3 X47.8081 Y61.8281 I0.3508 J-0.3563
G1 X47.5324 Y61.5282
G3 X47.516 Y61.5095 I0.3681 J-0.3384
G1 X47.303 Y61.2532
G3 X47.2876 Y61.2337 I0.3845 J-0.3196
G1 X47.132 Y61.0264
G3 X47.1176 Y61.0062 I0.3999 J-0.3001
G1 X47.059 Y60.9195
G3 X46.8065 Y61.0405 I-13.059 J-26.9195
G1 X46.8374 Y61.1405
G3 X46.8442 Y61.1644 I-0.4777 J0.1476
G1 X46.9083 Y61.4155
G3 X46.9139 Y61.4397 I-0.4844 J0.1238
G1 X46.9803 Y61.7663
G3 X46.9846 Y61.7908 I-0.49 J0.0996
G1 X47.0457 Y62.1935
G3 X47.0489 Y62.2183 I-0.4943 J0.075
G1 X47.0973 Y62.6972
G3 X47.0992 Y62.7221 I-0.4975 J0.0503
G1 X47.1118 Y62.9703
G3 X46.8119 Y63.4542 I-0.4994 J0.0254
G3 X45.8832 Y63.841 I-12.8119 J-29.4542
G3 X45.3284 Y63.713 I-0.185 J-0.4645
G1 X45.1611 Y63.5292
G3 X45.1448 Y63.5103 I0.3698 J-0.3366
G1 X44.8389 Y63.1386
G3 X44.8236 Y63.119 I0.3861 J-0.3177
G1 X44.5808 Y62.792
G3 X44.5665 Y62.7716 I0.4015 J-0.298
G1 X44.3814 Y62.4945
G3 X44.3681 Y62.4734 I0.4158 J-0.2777
G1 X44.235 Y62.251
G3 X44.2229 Y62.2294 I0.4291 J-0.2567
G1 X44.1736 Y62.1371
G3 X43.9099 Y62.2311 I-10.1736 J-28.1371
G1 X43.9302 Y62.3337
G3 X43.9344 Y62.3581 I-0.4905 J0.0969
G1 X43.9719 Y62.6146
G3 X43.9749 Y62.6393 I-0.4947 J0.0725
G1 X44.0068 Y62.971
G3 X44.0086 Y62.9958 I-0.4977 J0.0478
G1 X44.0272 Y63.4027
G3 X44.0278 Y63.4277 I-0.4995 J0.023
G1 X44.0259 Y63.909
G3 X44.0251 Y63.934 I-0.5 J-0.002
G1 X44.0118 Y64.1821
G3 X43.6629 Y64.6321 I-0.4993 J-0.0269
G3 X42.6988 Y64.9196 I-9.6629 J-30.6321
G3 X42.1605 Y64.7344 I-0.1354 J-0.4813
G1 X42.0133 Y64.5341
G3 X41.9991 Y64.5136 I0.4029 J-0.2961
G1 X41.7338 Y64.112
G3 X41.7205 Y64.0908 I0.4172 J-0.2756
G1 X41.5133 Y63.7402
G3 X41.5011 Y63.7185 I0.4304 J-0.2544
G1 X41.346 Y63.4235
G3 X41.335 Y63.4012 I0.4426 J-0.2327
G1 X41.2259 Y63.1661
G3 X41.2161 Y63.1434 I0.4536 J-0.2104
G1 X41.1768 Y63.0464
G3 X40.9046 Y63.1123 I-7.1768 J-29.0464
G1 X40.9141 Y63.2165
G3 X40.9157 Y63.2412 I-0.498 J0.0451
G1 X40.9263 Y63.5002
G3 X40.9267 Y63.525 I-0.4996 J0.0204
G1 X40.9237 Y63.8583
G3 X40.9228 Y63.8832 I-0.5 J-0.0045
G1 X40.8989 Y64.2898
G3 X40.8968 Y64.3146 I-0.4991 J-0.0294
G1 X40.8446 Y64.7932
G3 X40.8413 Y64.8179 I-0.4971 J-0.0542
G1 X40.802 Y65.0633
G3 X40.408 Y65.4743 I-0.4937 J-0.079
G3 X39.4192 Y65.6595 I-6.408 J-31.4743
G3 X38.9032 Y65.419 I-0.0844 J-0.4928
G1 X38.7778 Y65.2045
G3 X38.7657 Y65.1826 I0.4317 J-0.2523
G1 X38.5438 Y64.7554
G3 X38.5329 Y64.733 I0.4437 J-0.2305
G1 X38.3634 Y64.3627
G3 X38.3536 Y64.3397 I0.4547 J-0.2081
G1 X38.2302 Y64.0302
G3 X38.2216 Y64.0069 I0.4645 J-0.1852
G1 X38.1377 Y63.7616
G3 X38.1302 Y63.738 I0.4731 J-0.1618
G1 X38.1013 Y63.6374
G3 X37.8238 Y63.6745 I-4.1013 J-29.6374
G1 X37.8223 Y63.7792
G3 X37.8213 Y63.8039 I-0.4999 J-0.0072
G1 X37.8047 Y64.0626
G3 X37.8025 Y64.0873 I-0.499 J-0.032
G1 X37.7647 Y64.4184
G3 X37.7613 Y64.4431 I-0.4968 J-0.0567
G1 X37.695 Y64.845
G3 X37.6903 Y64.8695 I-0.4933 J-0.0814
G1 X37.5883 Y65.3399
G3 X37.5825 Y65.3642 I-0.4887 J-0.1059
G1 X37.5178 Y65.6041
G3 X37.083 Y65.9717 I-0.4828 J-0.1301
G3 X36.0802 Y66.0526 I-3.083 J-31.9717
G3 X35.5921 Y65.7594 I-0.0324 J-0.499
G1 X35.4898 Y65.5329
G3 X35.4801 Y65.5099 I0.4557 J-0.2058
G1 X35.3041 Y65.0619
G3 X35.2956 Y65.0385 I0.4654 J-0.1828
G1 X35.1657 Y64.6524
G3 X35.1584 Y64.6286 I0.4739 J-0.1594
G1 X35.068 Y64.3079
G3 X35.0619 Y64.2838 I0.4813 J-0.1356
G1 X35.0041 Y64.0311
G3 X34.9991 Y64.0068 I0.4874 J-0.1115
G1 X34.9809 Y63.9038
G3 X34.701 Y63.9116 I-0.9809 J-29.9038
G1 X34.6885 Y64.0156
G3 X34.685 Y64.0401 I-0.4965 J-0.0594
G1 X34.6415 Y64.2956
G3 X34.6367 Y64.32 I-0.4929 J-0.0839
G1 X34.5645 Y64.6453
G3 X34.5585 Y64.6695 I-0.4881 J-0.1083
G1 X34.4505 Y65.0622
G3 X34.4433 Y65.0861 I-0.4821 J-0.1325
G1 X34.2928 Y65.5433
G3 X34.2844 Y65.5668 I-0.4749 J-0.1564
G1 X34.195 Y65.7987
G3 X33.7241 Y66.1188 I-0.4665 J-0.1799
G3 X32.7184 Y66.0944 I0.2759 J-32.1188
G3 X32.2637 Y65.7519 I0.02 J-0.4996
G1 X32.1856 Y65.5159
G3 X32.1783 Y65.492 I0.4747 J-0.1571
G1 X32.0501 Y65.0281
G3 X32.0441 Y65.0039 I0.4819 J-0.1332
G1 X31.9553 Y64.6064
G3 X31.9505 Y64.5819 I0.488 J-0.109
G1 X31.8941 Y64.2535
G3 X31.8905 Y64.2289 I0.4928 J-0.0845
G1 X31.8595 Y63.9715
G3 X31.8571 Y63.9469 I0.4964 J-0.0599
G1 X31.8497 Y63.8425
G3 X31.5705 Y63.8211 I2.1503 J-29.8425
G1 X31.5473 Y63.9231
G3 X31.5412 Y63.9471 I-0.4875 J-0.111
G1 X31.4712 Y64.1967
G3 X31.4639 Y64.2204 I-0.4814 J-0.135
G1 X31.3581 Y64.5364
G3 X31.3496 Y64.5599 I-0.4741 J-0.1588
G1 X31.2012 Y64.9392
G3 X31.1915 Y64.9622 I-0.4656 J-0.1822
G1 X30.994 Y65.4011
G3 X30.9832 Y65.4236 I-0.456 J-0.2052
G1 X30.87 Y65.6449
G3 X30.3683 Y65.914 I-0.4452 J-0.2277
G3 X29.3706 Y65.7846 I3.6317 J-31.914
G3 X28.9542 Y65.3964 I0.0721 J-0.4948
G1 X28.9012 Y65.1536
G3 X28.8965 Y65.1291 I0.4885 J-0.1066
G1 X28.8175 Y64.6543
G3 X28.814 Y64.6296 I0.4932 J-0.0821
G1 X28.7673 Y64.225
G3 X28.765 Y64.2002 I0.4967 J-0.0574
G1 X28.7433 Y63.8676
G3 X28.7423 Y63.8428 I0.4989 J-0.0326
G1 X28.7383 Y63.5836
G3 X28.7385 Y63.5588 I0.4999 J-0.0077
G1 X28.7421 Y63.4542
