; generated by Slic3r 0.9.10b on 2014-02-26 at 07:56:08

; layer_height = 0.2
; perimeters = 2
; top_solid_layers = 5
; bottom_solid_layers = 5
; fill_density = 0.4
; perimeter_speed = 90
; infill_speed = 90
; travel_speed = 100
; nozzle_diameter = 0.5
; filament_diameter = 2.9
; extrusion_multiplier = 0.853
; perimeters extrusion width = 0.85mm
; infill extrusion width = 1.02mm
; solid infill extrusion width = 0.85mm
; top infill extrusion width = 0.85mm
; support material extrusion width = 0.85mm

G21 ; set units to millimeters
;G28 ; home all axes
G90 ; use absolute coordinates
G92 E0
M82 ; use absolute distances for extrusion
G1 F600.000 E-1.00000
G92 E0
G1 Z0.200 F6000.000
G1 X42.190 Y42.290
G1 F600.000 E1.00000
G1 X43.220 Y41.440 F1080.000 E1.02784
G1 X44.400 Y40.810 E1.05572
G1 X45.670 Y40.420 E1.08342
G1 X47.000 Y40.290 E1.11127
G1 X103.150 Y40.290 E2.28174
G1 X104.480 Y40.420 E2.30960
G1 X105.750 Y40.810 E2.33729
G1 X106.930 Y41.440 E2.36517
G1 X107.960 Y42.290 E2.39301
G1 X108.810 Y43.320 E2.42085
G1 X109.440 Y44.500 E2.44873
G1 X109.830 Y45.770 E2.47643
G1 X109.960 Y47.100 E2.50428
G1 X109.960 Y69.700 E2.97539
G1 X109.800 Y71.860 E3.02054
G1 X109.600 Y73.060 E3.04590
G1 X109.180 Y74.200 E3.07122
G1 X97.080 Y100.030 E3.66581
G1 X96.160 Y101.840 E3.70813
G1 X95.600 Y102.750 E3.73041
G1 X94.430 Y104.360 E3.77189
G1 X93.820 Y105.080 E3.79156
G1 X93.130 Y105.710 E3.81104
G1 X91.070 Y107.330 E3.86567
G1 X89.790 Y108.130 E3.89713
G1 X88.360 Y108.620 E3.92864
G1 X86.860 Y108.790 E3.96011
G1 X63.130 Y108.790 E4.45477
G1 X61.630 Y108.620 E4.48624
G1 X60.200 Y108.130 E4.51775
G1 X58.920 Y107.330 E4.54922
G1 X56.860 Y105.710 E4.60385
G1 X56.170 Y105.080 E4.62332
G1 X55.560 Y104.360 E4.64299
G1 X54.390 Y102.750 E4.68448
G1 X53.830 Y101.840 E4.70675
G1 X53.010 Y100.230 E4.74442
G1 X41.530 Y75.730 E5.30841
G1 X40.800 Y74.120 E5.34526
G1 X40.350 Y72.750 E5.37532
G1 X40.190 Y71.310 E5.40553
G1 X40.190 Y47.100 E5.91019
G1 X40.320 Y45.770 E5.93805
G1 X40.710 Y44.500 E5.96574
G1 X41.340 Y43.320 E5.99363
G1 X42.113 Y42.383 E6.01894
G1 F600.000 E5.01894
G92 E0
G1 X47.069 Y55.596 F6000.000
G1 F600.000 E1.00000
G1 X57.431 Y55.596 F1080.000 E1.21599
G1 X57.904 Y56.069 E1.22993
G1 X57.904 Y65.931 E1.43549
G1 X57.431 Y66.404 E1.44943
G1 X47.069 Y66.404 E1.66542
G1 X46.596 Y65.931 E1.67936
G1 X46.596 Y56.069 E1.88493
G1 X46.984 Y55.682 E1.89634
G1 F600.000 E0.89634
G92 E0
G1 X82.596 Y56.069 F6000.000
G1 F600.000 E1.00000
G1 X83.069 Y55.596 F1080.000 E1.01394
G1 X102.931 Y55.596 E1.42796
G1 X103.404 Y56.069 E1.44190
G1 X103.404 Y65.931 E1.64746
G1 X102.931 Y66.404 E1.66140
G1 X83.069 Y66.404 E2.07542
G1 X82.596 Y65.931 E2.08936
G1 X82.596 Y56.190 E2.29240
G1 X82.554 Y56.957 F6000.000
G1 X82.431 Y57.253 F1080.000 E2.29909
G1 X82.191 Y57.493 E2.30616
G1 X81.946 Y57.594 E2.31168
G1 X82.191 Y57.696 E2.31721
G1 X82.431 Y57.935 E2.32427
G1 X82.554 Y58.232 E2.33096
G1 X82.554 Y60.185 E2.37167
G1 X82.431 Y60.481 E2.37837
G1 X82.191 Y60.721 E2.38543
G1 X81.946 Y60.823 E2.39095
G1 X82.191 Y60.924 E2.39648
G1 X82.431 Y61.164 E2.40354
G1 X82.554 Y61.460 E2.41023
G1 X82.554 Y63.413 E2.45095
G1 X82.431 Y63.710 E2.45764
G1 X82.191 Y63.949 E2.46470
G1 X81.946 Y64.051 E2.47023
G1 X82.191 Y64.152 E2.47575
G1 X82.431 Y64.392 E2.48281
G1 X82.554 Y64.688 E2.48951
G1 X82.554 Y66.641 E2.53022
G1 X82.431 Y66.938 E2.53691
G1 X82.191 Y67.178 E2.54397
G1 X81.998 Y67.258 E2.54833
G1 X103.512 Y67.258 E2.99680
G1 X103.985 Y67.730 E3.01073
G1 X103.985 Y68.442 E3.02557
G1 X103.512 Y68.915 E3.03950
G1 X103.433 Y68.915 E3.04116
G1 X103.645 Y69.008 E3.04598
G1 X103.886 Y69.270 E3.05342
G1 X103.997 Y69.590 E3.06046
G1 X103.838 Y71.542 E3.10129
G1 X103.705 Y71.815 E3.10763
G1 X103.469 Y72.032 E3.11432
G1 X103.186 Y72.143 E3.12065
G1 X102.566 Y72.143 E3.13358
G1 X102.850 Y72.300 E3.14035
G1 X103.085 Y72.669 E3.14948
G1 X103.112 Y73.082 E3.15811
G1 X102.211 Y75.004 E3.20236
G1 X102.059 Y75.177 E3.20716
G1 X101.854 Y75.307 E3.21221
G1 X101.633 Y75.371 E3.21701
G1 X101.052 Y75.371 E3.22912
G1 X101.337 Y75.528 E3.23589
G1 X101.572 Y75.897 E3.24502
G1 X101.598 Y76.311 E3.25365
G1 X100.697 Y78.233 E3.29790
G1 X100.545 Y78.405 E3.30269
G1 X100.341 Y78.535 E3.30775
G1 X100.120 Y78.600 E3.31254
G1 X99.539 Y78.600 E3.32465
G1 X99.824 Y78.756 E3.33143
G1 X100.059 Y79.126 E3.34055
G1 X100.085 Y79.539 E3.34918
G1 X99.184 Y81.461 E3.39344
G1 X99.032 Y81.634 E3.39823
G1 X98.828 Y81.764 E3.40329
G1 X98.607 Y81.828 E3.40808
G1 X98.026 Y81.828 E3.42019
G1 X98.311 Y81.984 E3.42696
G1 X98.545 Y82.354 E3.43609
G1 X98.572 Y82.767 E3.44472
G1 X97.671 Y84.689 E3.48897
G1 X97.519 Y84.862 E3.49377
G1 X97.314 Y84.992 E3.49882
G1 X97.093 Y85.056 E3.50362
G1 X96.512 Y85.056 E3.51573
G1 X96.797 Y85.213 E3.52250
G1 X97.032 Y85.582 E3.53162
G1 X97.059 Y85.995 E3.54026
G1 X96.158 Y87.918 E3.58451
G1 X96.006 Y88.090 E3.58930
G1 X95.801 Y88.220 E3.59436
G1 X95.580 Y88.285 E3.59915
G1 X94.999 Y88.285 E3.61126
G1 X95.284 Y88.441 E3.61804
G1 X95.519 Y88.811 E3.62716
G1 X95.545 Y89.224 E3.63579
G1 X94.644 Y91.146 E3.68004
G1 X94.492 Y91.319 E3.68484
G1 X94.288 Y91.449 E3.68990
G1 X94.067 Y91.513 E3.69469
G1 X93.486 Y91.513 E3.70680
G1 X93.771 Y91.669 E3.71357
G1 X94.006 Y92.039 E3.72270
G1 X94.032 Y92.452 E3.73133
G1 X93.131 Y94.374 E3.77558
G1 X92.979 Y94.547 E3.78038
G1 X92.774 Y94.677 E3.78543
G1 X92.554 Y94.741 E3.79023
G1 X91.973 Y94.741 E3.80234
G1 X92.258 Y94.898 E3.80911
G1 X92.492 Y95.267 E3.81823
G1 X92.519 Y95.680 E3.82687
G1 X91.618 Y97.603 E3.87112
G1 X91.466 Y97.775 E3.87591
G1 X91.261 Y97.905 E3.88097
G1 X91.040 Y97.970 E3.88576
G1 X90.401 Y97.970 E3.89908
G1 X90.719 Y98.164 E3.90685
G1 X90.938 Y98.593 E3.91688
G1 X90.903 Y99.047 E3.92637
G1 X89.533 Y100.937 E3.97504
G1 X89.387 Y101.062 E3.97903
G1 X89.208 Y101.153 E3.98323
G1 X89.022 Y101.198 E3.98722
G1 X87.266 Y101.198 E4.02381
G1 X87.696 Y101.628 E4.03648
G1 X87.696 Y102.339 E4.05131
G1 X87.224 Y102.812 E4.06525
G1 X63.061 Y102.812 E4.56892
G1 X62.794 Y102.743 E4.57467
G1 X62.676 Y102.679 E4.57748
G1 X60.352 Y100.852 E4.63910
G1 X60.207 Y100.357 E4.64985
G1 X60.385 Y99.840 E4.66125
G1 X60.745 Y99.584 E4.67046
G1 X59.792 Y99.584 E4.69034
G1 X59.578 Y99.524 E4.69498
G1 X59.377 Y99.401 E4.69987
G1 X59.226 Y99.238 E4.70452
G1 X58.242 Y97.321 E4.74943
G1 X58.258 Y96.899 E4.75822
G1 X58.490 Y96.519 E4.76752
G1 X58.781 Y96.355 E4.77448
G1 X58.203 Y96.355 E4.78654
G1 X57.982 Y96.291 E4.79134
G1 X57.778 Y96.161 E4.79639
G1 X57.626 Y95.988 E4.80119
G1 X56.725 Y94.066 E4.84544
G1 X56.751 Y93.653 E4.85407
G1 X56.986 Y93.284 E4.86319
G1 X57.271 Y93.127 E4.86997
G1 X56.690 Y93.127 E4.88208
G1 X56.469 Y93.063 E4.88687
G1 X56.264 Y92.933 E4.89193
G1 X56.112 Y92.760 E4.89672
G1 X55.211 Y90.838 E4.94097
G1 X55.238 Y90.425 E4.94961
G1 X55.473 Y90.055 E4.95873
G1 X55.757 Y89.899 E4.96550
G1 X55.177 Y89.899 E4.97761
G1 X54.956 Y89.835 E4.98241
G1 X54.751 Y89.704 E4.98746
G1 X54.599 Y89.532 E4.99226
G1 X53.698 Y87.610 E5.03651
G1 X53.724 Y87.196 E5.04514
G1 X53.959 Y86.827 E5.05427
G1 X54.244 Y86.671 E5.06104
G1 X53.663 Y86.671 E5.07315
G1 X53.442 Y86.606 E5.07794
G1 X53.238 Y86.476 E5.08300
G1 X53.086 Y86.303 E5.08780
G1 X52.185 Y84.381 E5.13205
G1 X52.211 Y83.968 E5.14068
G1 X52.446 Y83.599 E5.14980
G1 X52.731 Y83.442 E5.15658
G1 X52.150 Y83.442 E5.16869
G1 X51.929 Y83.378 E5.17348
G1 X51.724 Y83.248 E5.17854
G1 X51.572 Y83.075 E5.18333
G1 X50.671 Y81.153 E5.22758
G1 X50.698 Y80.740 E5.23622
G1 X50.933 Y80.370 E5.24534
G1 X51.218 Y80.214 E5.25211
G1 X50.637 Y80.214 E5.26422
G1 X50.416 Y80.150 E5.26902
G1 X50.211 Y80.020 E5.27407
G1 X50.059 Y79.847 E5.27887
G1 X49.158 Y77.925 E5.32312
G1 X49.185 Y77.511 E5.33175
G1 X49.419 Y77.142 E5.34088
G1 X49.704 Y76.986 E5.34765
G1 X49.123 Y76.986 E5.35976
G1 X48.903 Y76.921 E5.36455
G1 X48.698 Y76.791 E5.36961
G1 X48.546 Y76.618 E5.37440
G1 X47.645 Y74.696 E5.41866
G1 X47.671 Y74.283 E5.42729
G1 X47.906 Y73.914 E5.43641
G1 X48.191 Y73.757 E5.44319
G1 X47.609 Y73.757 E5.45532
G1 X47.386 Y73.692 E5.46018
G1 X47.179 Y73.559 E5.46529
G1 X47.027 Y73.382 E5.47014
G1 X46.156 Y71.459 E5.51417
G1 X46.186 Y71.048 E5.52274
G1 X46.421 Y70.683 E5.53181
G1 X46.759 Y70.499 E5.53981
G1 X46.534 Y70.406 E5.54488
G1 X46.294 Y70.166 E5.55194
G1 X46.171 Y69.870 E5.55864
G1 X46.171 Y67.917 E5.59935
G1 X46.294 Y67.620 E5.60604
G1 X46.534 Y67.381 E5.61310
G1 X46.831 Y67.258 E5.61980
G1 X58.376 Y67.258 E5.86047
G1 X57.946 Y66.828 E5.87314
G1 X57.946 Y66.116 E5.88797
G1 X58.419 Y65.644 E5.90191
G1 X58.502 Y65.644 E5.90364
G1 X58.309 Y65.564 E5.90799
G1 X58.069 Y65.324 E5.91505
G1 X57.946 Y65.027 E5.92175
G1 X57.946 Y63.074 E5.96246
G1 X58.069 Y62.778 E5.96915
G1 X58.309 Y62.538 E5.97621
G1 X58.554 Y62.437 E5.98174
G1 X58.309 Y62.335 E5.98726
G1 X58.069 Y62.096 E5.99433
G1 X57.946 Y61.799 E6.00102
G1 X57.946 Y59.846 E6.04173
G1 X58.069 Y59.549 E6.04842
G1 X58.309 Y59.310 E6.05549
G1 X58.554 Y59.208 E6.06101
G1 X58.309 Y59.107 E6.06653
G1 X58.069 Y58.867 E6.07360
G1 X57.946 Y58.571 E6.08029
G1 X57.946 Y56.618 E6.12100
G1 X58.069 Y56.321 E6.12770
G1 X58.309 Y56.081 E6.13476
G1 X58.502 Y56.001 E6.13911
G1 X58.419 Y56.001 E6.14084
G1 X57.946 Y55.529 E6.15478
G1 X57.946 Y54.817 E6.16961
G1 X58.376 Y54.387 E6.18228
G1 X46.831 Y54.387 E6.42295
G1 X46.534 Y54.264 E6.42965
G1 X46.294 Y54.025 E6.43671
G1 X46.171 Y53.728 E6.44340
G1 X46.171 Y51.775 E6.48411
G1 X46.294 Y51.479 E6.49081
G1 X46.534 Y51.239 E6.49787
G1 X46.779 Y51.138 E6.50339
G1 X46.534 Y51.036 E6.50892
G1 X46.294 Y50.797 E6.51598
G1 X46.171 Y50.500 E6.52267
G1 X46.171 Y48.547 E6.56339
G1 X46.294 Y48.250 E6.57008
G1 X46.534 Y48.011 E6.57714
G1 X46.727 Y47.931 E6.58150
G1 X46.644 Y47.931 E6.58322
G1 X46.171 Y47.458 E6.59716
G1 X46.171 Y46.746 E6.61199
G1 X46.644 Y46.274 E6.62593
G1 X103.326 Y46.274 E7.80748
G1 X103.622 Y46.396 E7.81417
G1 X103.862 Y46.636 E7.82123
G1 X103.985 Y46.933 E7.82793
G1 X103.985 Y48.886 E7.86864
G1 X103.862 Y49.182 E7.87533
G1 X103.622 Y49.422 E7.88239
G1 X103.378 Y49.523 E7.88792
G1 X103.622 Y49.625 E7.89344
G1 X103.862 Y49.864 E7.90050
G1 X103.985 Y50.161 E7.90720
G1 X103.985 Y52.114 E7.94791
G1 X103.862 Y52.411 E7.95460
G1 X103.622 Y52.650 E7.96167
G1 X103.429 Y52.730 E7.96602
G1 X103.512 Y52.730 E7.96774
G1 X103.985 Y53.203 E7.98168
G1 X103.985 Y53.915 E7.99651
G1 X103.512 Y54.387 E8.01045
G1 X81.998 Y54.387 E8.45892
G1 X82.191 Y54.467 E8.46327
G1 X82.431 Y54.707 E8.47034
G1 X82.554 Y55.004 E8.47703
G1 X82.554 Y56.835 E8.51522
G1 F600.000 E7.51522
G92 E0
G1 X70.867 Y75.371 F6000.000
G1 F600.000 E1.00000
G1 X70.437 Y75.801 F1080.000 E1.01267
G1 X70.437 Y76.513 E1.02750
G1 X70.910 Y76.986 E1.04144
G1 X72.089 Y76.986 E1.06603
G1 X71.839 Y77.109 E1.07185
G1 X71.597 Y77.424 E1.08014
G1 X71.523 Y77.794 E1.08798
G1 X72.043 Y79.736 E1.12989
G1 X72.192 Y79.957 E1.13544
G1 X72.415 Y80.128 E1.14130
G1 X72.540 Y80.171 E1.14407
G1 X72.325 Y80.171 E1.14857
G1 X72.120 Y80.225 E1.15298
G1 X71.927 Y80.337 E1.15763
G1 X71.777 Y80.486 E1.16204
G1 X70.664 Y82.394 E1.20810
G1 X70.662 Y82.828 E1.21713
G1 X70.890 Y83.225 E1.22669
G1 X71.191 Y83.399 E1.23394
G1 X68.056 Y83.399 E1.29930
G1 X68.000 Y83.455 E1.30095
G1 X67.944 Y83.399 E1.30259
G1 X64.904 Y83.399 E1.36597
G1 X65.334 Y82.969 E1.37864
G1 X65.334 Y82.258 E1.39347
G1 X64.861 Y81.785 E1.40741
G1 X63.847 Y81.785 E1.42854
G1 X64.091 Y81.668 E1.43416
G1 X64.333 Y81.363 E1.44228
G1 X64.415 Y81.004 E1.44997
G1 X63.968 Y79.059 E1.49156
G1 X63.822 Y78.827 E1.49727
G1 X63.596 Y78.647 E1.50330
G1 X63.460 Y78.600 E1.50629
G1 X63.981 Y78.600 E1.51716
G1 X64.454 Y78.127 E1.53109
G1 X64.454 Y77.415 E1.54593
G1 X64.024 Y76.986 E1.55860
G1 X65.090 Y76.986 E1.58083
G1 X65.563 Y76.513 E1.59477
G1 X65.563 Y75.801 E1.60960
G1 X65.133 Y75.371 E1.62227
G1 X70.746 Y75.371 E1.73926
G1 F600.000 E0.73926
G92 E0
G1 X69.884 Y91.513 F6000.000
G1 F600.000 E1.00000
G1 X69.611 Y91.658 F1080.000 E1.00644
G1 X69.373 Y92.008 E1.01527
G1 X69.329 Y92.406 E1.02362
G1 X70.091 Y94.336 E1.06688
G1 X70.242 Y94.526 E1.07194
G1 X70.454 Y94.670 E1.07728
G1 X70.547 Y94.698 E1.07930
G1 X70.016 Y94.698 E1.09036
G1 X69.544 Y95.171 E1.10430
G1 X69.544 Y95.883 E1.11913
G1 X69.973 Y96.313 E1.13180
G1 X66.053 Y96.313 E1.21353
G1 X66.483 Y95.883 E1.22620
G1 X66.483 Y95.171 E1.24103
G1 X66.010 Y94.698 E1.25497
G1 X65.439 Y94.698 E1.26687
G1 X65.545 Y94.665 E1.26917
G1 X65.761 Y94.511 E1.27470
G1 X65.912 Y94.310 E1.27994
G1 X66.583 Y92.375 E1.32264
G1 X66.527 Y91.987 E1.33080
G1 X66.287 Y91.650 E1.33943
G1 X66.022 Y91.513 E1.34564
G1 X69.763 Y91.513 E1.42362
G1 F600.000 E0.42362
G92 E0
G1 X79.460 Y93.127 F6000.000
G1 F600.000 E1.00000
G1 X80.110 Y93.127 F1080.000 E1.01356
G1 X80.583 Y92.654 E1.02750
G1 X80.583 Y91.943 E1.04233
G1 X80.153 Y91.513 E1.05500
G1 X83.847 Y91.513 E1.13200
G1 X83.417 Y91.943 E1.14467
G1 X83.417 Y92.654 E1.15951
G1 X83.890 Y93.127 E1.17344
G1 X84.540 Y93.127 E1.18700
G1 X84.420 Y93.167 E1.18964
G1 X84.199 Y93.333 E1.19541
G1 X84.050 Y93.549 E1.20088
G1 X83.488 Y95.489 E1.24299
G1 X83.556 Y95.864 E1.25092
G1 X83.798 Y96.185 E1.25930
G1 X84.052 Y96.313 E1.26524
G1 X79.948 Y96.313 E1.35080
G1 X80.202 Y96.185 E1.35673
G1 X80.444 Y95.864 E1.36512
G1 X80.512 Y95.489 E1.37305
G1 X79.950 Y93.549 E1.41516
G1 X79.801 Y93.333 E1.42063
G1 X79.574 Y93.165 E1.42651
G1 X79.754 Y92.299 F6000.000
G1 X70.177 Y92.299 F720.000 E1.62615
G1 X70.814 Y93.913 E1.66232
G1 X79.193 Y93.913 E1.83697
G1 X79.661 Y95.527 E1.87201
G1 X70.372 Y95.527 E2.06563
G1 F600.000 E1.06563
G92 E0
G1 X65.654 Y95.527 F6000.000
G1 F600.000 E1.00000
G1 X58.324 Y95.527 F720.000 E1.15280
G1 X57.568 Y93.913 E1.18996
G1 X65.172 Y93.913 E1.34848
G1 X65.732 Y92.299 E1.38410
G1 X56.811 Y92.299 E1.57006
G1 X56.054 Y90.684 E1.60722
G1 X93.946 Y90.684 E2.39708
G1 X94.702 Y89.070 E2.43424
G1 X55.298 Y89.070 E3.25564
G1 X54.541 Y87.456 E3.29280
G1 X95.459 Y87.456 E4.14575
G1 X96.216 Y85.842 E4.18291
G1 X53.784 Y85.842 E5.06740
G1 X53.028 Y84.228 E5.10456
G1 X67.588 Y84.228 E5.40808
G1 X68.412 Y84.228 F6000.000
G1 X96.972 Y84.228 F720.000 E6.00343
G1 X97.729 Y82.614 E6.04059
G1 X71.495 Y82.614 E6.58745
G1 X72.436 Y81.000 E6.62640
G1 X98.485 Y81.000 E7.16941
G1 X99.242 Y79.385 E7.20657
G1 X72.807 Y79.385 E7.75761
G1 X72.375 Y77.771 E7.79244
G1 X99.999 Y77.771 E8.36827
G1 X100.755 Y76.157 E8.40543
G1 X71.265 Y76.157 E9.02016
G1 F600.000 E8.02016
G92 E0
G1 X64.735 Y76.157 F6000.000
G1 F600.000 E1.00000
G1 X49.245 Y76.157 F720.000 E1.32289
G1 X48.488 Y74.543 E1.36005
G1 X101.512 Y74.543 E2.46536
G1 X102.269 Y72.929 E2.50252
G1 X47.731 Y72.929 E3.63937
G1 X47.000 Y71.315 E3.67631
G1 X103.025 Y71.315 E4.84417
G1 X103.156 Y69.700 E4.87793
G1 X47.000 Y69.700 E6.04853
G1 X47.000 Y68.086 E6.08218
G1 X103.156 Y68.086 E7.25278
G1 F600.000 E6.25278
G92 E0
G1 X103.156 Y53.559 F6000.000
G1 F600.000 E1.00000
G1 X47.000 Y53.559 F720.000 E2.17060
G1 X47.000 Y51.945 E2.20425
G1 X103.156 Y51.945 E3.37485
G1 X103.156 Y50.330 E3.40850
G1 X47.000 Y50.330 E4.57910
G1 X47.000 Y48.716 E4.61274
G1 X103.156 Y48.716 E5.78334
G1 X103.156 Y47.102 E5.81699
G1 X47.000 Y47.102 E6.98759
G1 F600.000 E5.98759
G92 E0
G1 X58.775 Y55.173 F6000.000
G1 F600.000 E1.00000
G1 X81.725 Y55.173 F720.000 E1.47841
G1 X81.725 Y56.787 E1.51205
G1 X58.775 Y56.787 E1.99046
G1 X58.775 Y58.401 E2.02411
G1 X81.725 Y58.401 E2.50251
G1 X81.725 Y60.015 E2.53616
G1 X58.775 Y60.015 E3.01456
G1 X58.775 Y61.630 E3.04821
G1 X81.725 Y61.630 E3.52662
G1 X81.725 Y63.244 E3.56027
G1 X58.775 Y63.244 E4.03867
G1 X58.775 Y64.858 E4.07232
G1 X81.725 Y64.858 E4.55072
G1 X81.725 Y66.472 E4.58437
G1 X58.775 Y66.472 E5.06278
G1 F600.000 E4.06278
G92 E0
G1 X63.625 Y77.771 F6000.000
G1 F600.000 E1.00000
G1 X50.001 Y77.771 F720.000 E1.28399
G1 X50.758 Y79.385 E1.32115
G1 X63.193 Y79.385 E1.58036
G1 X63.564 Y81.000 E1.61488
G1 X51.515 Y81.000 E1.86605
G1 X52.271 Y82.614 E1.90321
G1 X64.505 Y82.614 E2.15824
G1 F600.000 E1.15824
G92 E0
G1 X84.246 Y92.299 F6000.000
G1 F600.000 E1.00000
G1 X93.189 Y92.299 F720.000 E1.18643
G1 X92.432 Y93.913 E1.22359
G1 X84.807 Y93.913 E1.38254
G1 X84.339 Y95.527 E1.41757
G1 X91.676 Y95.527 E1.57050
G1 X90.919 Y97.141 E1.60766
