; generated by Slic3r 0.9.10b on 2014-02-17 at 23:49:21

; layer_height = 0.2
; perimeters = 1
; top_solid_layers = 5
; bottom_solid_layers = 5
; fill_density = 0.4
; perimeter_speed = 90
; infill_speed = 90
; travel_speed = 100
; nozzle_diameter = 0.5
; filament_diameter = 2.9
; extrusion_multiplier = 0.853
; perimeters extrusion width = 0.85mm
; infill extrusion width = 1.02mm
; solid infill extrusion width = 0.85mm
; top infill extrusion width = 0.85mm
; support material extrusion width = 0.85mm

G21 ; set units to millimeters
;G28 ; home all axes
G90 ; use absolute coordinates
G92 E0
M82 ; use absolute distances for extrusion
G1 F600.000 E-1.00000
G92 E0
G1 Z0.200 F6000.000
G1 X29.400 Y55.710
G1 F600.000 E1.00000
G1 X30.670 Y55.320 F1080.000 E1.02769
G1 X32.000 Y55.190 E1.05555
G1 X118.000 Y55.190 E2.84825
G1 X119.330 Y55.320 E2.87611
G1 X120.600 Y55.710 E2.90380
G1 X121.780 Y56.340 E2.93169
G1 X122.810 Y57.190 E2.95952
G1 X123.660 Y58.220 E2.98736
G1 X124.290 Y59.400 E3.01524
G1 X124.680 Y60.670 E3.04294
G1 X124.810 Y62.000 E3.07080
G1 X124.810 Y88.000 E3.61277
G1 X124.680 Y89.330 E3.64063
G1 X124.290 Y90.600 E3.66832
G1 X123.660 Y91.780 E3.69621
G1 X122.810 Y92.810 E3.72405
G1 X121.780 Y93.660 E3.75188
G1 X120.600 Y94.290 E3.77977
G1 X119.330 Y94.680 E3.80746
G1 X118.000 Y94.810 E3.83532
G1 X32.000 Y94.810 E5.62802
G1 X30.670 Y94.680 E5.65588
G1 X29.400 Y94.290 E5.68357
G1 X28.220 Y93.660 E5.71145
G1 X27.190 Y92.810 E5.73929
G1 X26.340 Y91.780 E5.76713
G1 X25.710 Y90.600 E5.79501
G1 X25.320 Y89.330 E5.82271
G1 X25.190 Y88.000 E5.85056
G1 X25.190 Y62.000 E6.39254
G1 X25.320 Y60.670 E6.42040
G1 X25.710 Y59.400 E6.44809
G1 X26.340 Y58.220 E6.47598
G1 X27.190 Y57.190 E6.50381
G1 X28.220 Y56.340 E6.53165
G1 X29.293 Y55.767 E6.55701
G1 F600.000 E5.55701
G92 E0
G1 X32.069 Y61.596 F6000.000
G1 F600.000 E1.00000
G1 X117.931 Y61.596 F1080.000 E2.78981
G1 X118.404 Y62.069 E2.80375
G1 X118.404 Y75.127 E3.07594
G1 X118.471 Y75.255 E3.07896
G1 X118.408 Y75.461 E3.08346
G1 X118.404 Y76.293 E3.10080
G1 X118.342 Y76.327 E3.10228
G1 X118.404 Y76.411 E3.10445
G1 X118.404 Y87.931 E3.34458
G1 X117.931 Y88.404 E3.35852
G1 X32.069 Y88.404 E5.14834
G1 X31.596 Y87.931 E5.16227
G1 X31.596 Y75.547 E5.42042
G1 X31.569 Y75.345 E5.42466
G1 X31.489 Y75.240 E5.42741
G1 X31.522 Y74.999 E5.43248
G1 X31.490 Y74.759 E5.43754
G1 X31.570 Y74.654 E5.44029
G1 X31.596 Y74.457 E5.44443
G1 X31.596 Y62.069 E5.70266
G1 X31.984 Y61.682 E5.71407
G1 X32.404 Y62.404 F6000.000
G1 X117.596 Y62.404 F1080.000 E7.48995
G1 X117.596 Y73.734 E7.72613
G1 X117.337 Y73.768 E7.73158
G1 X116.975 Y72.415 E7.76077
G1 X115.083 Y70.524 E7.81654
G1 X112.500 Y69.832 E7.87228
G1 X109.917 Y70.524 E7.92802
G1 X108.025 Y72.416 E7.98378
G1 X107.333 Y75.000 E8.03956
G1 X108.025 Y77.584 E8.09533
G1 X109.917 Y79.476 E8.15110
G1 X112.500 Y80.168 E8.20684
G1 X115.083 Y79.476 E8.26258
G1 X116.975 Y77.584 E8.31834
G1 X117.337 Y76.232 E8.34753
G1 X117.596 Y76.266 E8.35298
G1 X117.596 Y87.596 E8.58916
G1 X32.404 Y87.596 E10.36504
G1 X32.404 Y76.266 E10.60123
G1 X32.663 Y76.232 E10.60668
G1 X33.025 Y77.584 E10.63586
G1 X34.917 Y79.476 E10.69163
G1 X37.500 Y80.168 E10.74737
G1 X40.083 Y79.476 E10.80311
G1 X41.975 Y77.584 E10.85887
G1 X42.667 Y75.000 E10.91465
G1 X41.975 Y72.416 E10.97042
G1 X40.083 Y70.524 E11.02619
G1 X37.500 Y69.832 E11.08193
G1 X34.917 Y70.524 E11.13767
G1 X33.025 Y72.416 E11.19343
G1 X32.663 Y73.768 E11.22262
G1 X32.404 Y73.734 E11.22807
G1 X32.404 Y62.525 E11.46173
G1 X33.211 Y63.211 F6000.000
G1 X116.789 Y63.211 F1080.000 E13.20396
G1 X116.789 Y71.089 E13.36819
G1 X115.501 Y69.800 E13.40618
G1 X112.500 Y68.997 E13.47093
G1 X109.499 Y69.800 E13.53568
G1 X107.302 Y71.998 E13.60047
G1 X106.497 Y75.000 E13.66526
G1 X107.302 Y78.002 E13.73005
G1 X109.499 Y80.199 E13.79483
G1 X112.500 Y81.003 E13.85959
G1 X115.501 Y80.200 E13.92434
G1 X116.789 Y78.911 E13.96233
G1 X116.789 Y86.789 E14.12655
G1 X33.211 Y86.789 E15.86878
G1 X33.211 Y78.911 E16.03301
G1 X34.499 Y80.199 E16.07100
G1 X37.500 Y81.003 E16.13575
G1 X40.501 Y80.200 E16.20051
G1 X42.698 Y78.002 E16.26529
G1 X43.503 Y75.000 E16.33008
G1 X42.698 Y71.998 E16.39487
G1 X40.501 Y69.800 E16.45965
G1 X37.500 Y68.997 E16.52441
G1 X34.499 Y69.801 E16.58916
G1 X33.211 Y71.089 E16.62715
G1 X33.211 Y63.332 E16.78885
G1 F600.000 E15.78885
G92 E0
G1 X117.575 Y75.351 F6000.000
G1 F600.000 E1.00000
G1 X117.533 Y74.201 F1080.000 E1.02400
G1 X116.950 Y73.120 E1.04960
G1 F600.000 E0.04960
G92 E0
G1 X117.575 Y75.351 F6000.000
G1 F600.000 E1.00000
G1 X117.329 Y76.150 F1080.000 E1.01742
G1 X117.329 Y76.150 F6000.000
G1 X117.124 Y76.475 F1080.000 E1.02544
G1 X117.124 Y76.475 F6000.000
G1 X116.916 Y76.834 F1080.000 E1.03409
G1 X116.916 Y76.834 F6000.000
G1 X116.923 Y76.854 F1080.000 E1.03452
G1 F600.000 E0.03452
G92 E0
G1 X33.059 Y76.822 F6000.000
G1 F600.000 E1.00000
G1 X32.465 Y75.789 F1080.000 E1.02484
G1 X32.359 Y75.000 E1.04143
G1 X32.359 Y75.000 F6000.000
G1 X32.467 Y74.209 F1080.000 E1.05807
G1 X32.467 Y74.209 F6000.000
G1 X32.874 Y73.498 F1080.000 E1.07515
G1 X32.874 Y73.498 F6000.000
G1 X33.077 Y73.146 F1080.000 E1.08362
G1 F600.000 E0.08362
G92 E0
G1 X34.549 Y69.181 F6000.000
G1 F600.000 E1.00000
G1 X33.796 Y68.428 F1080.000 E1.02235
G1 X33.796 Y67.280 E1.04641
G1 X35.455 Y68.939 E1.09559
G1 X36.360 Y68.696 E1.11523
G1 X33.796 Y66.132 E1.19125
G1 X33.796 Y64.984 E1.21531
G1 X37.265 Y68.454 E1.31817
G1 X38.661 Y68.702 E1.34789
G1 X33.796 Y63.837 E1.49212
G1 X34.902 Y63.796 E1.51534
G1 X40.229 Y69.122 E1.67324
G1 F600.000 E0.67324
G92 E0
G1 X43.377 Y72.270 F6000.000
G1 F600.000 E1.00000
G1 X57.311 Y86.204 F1080.000 E1.41307
G1 X56.163 Y86.204 E1.43713
G1 X43.797 Y73.838 E1.80373
G1 X44.046 Y75.234 E1.83345
G1 X55.016 Y86.204 E2.15865
G1 X53.868 Y86.204 E2.18271
G1 X43.803 Y76.140 E2.48108
G1 X43.561 Y77.045 E2.50072
G1 X52.720 Y86.204 E2.77225
G1 X51.572 Y86.204 E2.79631
G1 X43.318 Y77.950 E3.04101
G1 X42.874 Y78.654 E3.05845
G1 X50.425 Y86.204 E3.28229
G1 X49.277 Y86.204 E3.30635
G1 X42.300 Y79.228 E3.51317
G1 X41.726 Y79.801 E3.53018
G1 X48.129 Y86.204 E3.71999
G1 X46.981 Y86.204 E3.74405
G1 X41.152 Y80.375 E3.91685
G1 X40.448 Y80.819 E3.93430
G1 X45.833 Y86.204 E4.09394
G1 X44.686 Y86.204 E4.11800
G1 X39.543 Y81.062 E4.27045
G1 X38.638 Y81.304 E4.29010
G1 X43.538 Y86.204 E4.43536
G1 X42.390 Y86.204 E4.45942
G1 X37.732 Y81.547 E4.59750
G1 X36.335 Y81.297 E4.62726
G1 X41.242 Y86.204 E4.77274
G1 X40.095 Y86.204 E4.79680
G1 X34.767 Y80.877 E4.95474
G1 X33.796 Y81.053 E4.97543
G1 X38.947 Y86.204 E5.12814
G1 X37.799 Y86.204 E5.15220
G1 X33.796 Y82.201 E5.27088
G1 X33.796 Y83.349 E5.29494
G1 X36.651 Y86.204 E5.37960
G1 X35.504 Y86.204 E5.40366
G1 X33.796 Y84.496 E5.45429
G1 X33.796 Y85.644 E5.47835
G1 X34.356 Y86.204 E5.49496
G1 F600.000 E4.49496
G92 E0
G1 X36.050 Y63.796 F6000.000
G1 F600.000 E1.00000
G1 X58.459 Y86.204 F1080.000 E1.66430
G1 X59.607 Y86.204 E1.68836
G1 X37.198 Y63.796 E2.35266
G1 X38.346 Y63.796 E2.37672
G1 X60.754 Y86.204 E3.04102
G1 X61.902 Y86.204 E3.06508
G1 X39.494 Y63.796 E3.72938
G1 X40.641 Y63.796 E3.75344
G1 X63.050 Y86.204 E4.41774
G1 X64.198 Y86.204 E4.44180
G1 X41.789 Y63.796 E5.10610
G1 X42.937 Y63.796 E5.13016
G1 X65.346 Y86.204 E5.79446
G1 X66.493 Y86.204 E5.81852
G1 X44.085 Y63.796 E6.48282
G1 X45.232 Y63.796 E6.50688
G1 X67.641 Y86.204 E7.17118
G1 X68.789 Y86.204 E7.19524
G1 X46.380 Y63.796 E7.85954
G1 X47.528 Y63.796 E7.88360
G1 X69.937 Y86.204 E8.54790
G1 X71.084 Y86.204 E8.57196
G1 X48.676 Y63.796 E9.23626
G1 X49.823 Y63.796 E9.26032
G1 X72.232 Y86.204 E9.92463
G1 X73.380 Y86.204 E9.94868
G1 X50.971 Y63.796 E10.61299
G1 X52.119 Y63.796 E10.63704
G1 X74.528 Y86.204 E11.30135
G1 X75.675 Y86.204 E11.32541
G1 X53.267 Y63.796 E11.98971
G1 X54.414 Y63.796 E12.01377
G1 X76.823 Y86.204 E12.67807
G1 X77.971 Y86.204 E12.70213
G1 X55.562 Y63.796 E13.36643
G1 X56.710 Y63.796 E13.39049
G1 X79.119 Y86.204 E14.05479
G1 X80.267 Y86.204 E14.07885
G1 X57.858 Y63.796 E14.74315
G1 X59.006 Y63.796 E14.76721
G1 X81.414 Y86.204 E15.43151
G1 X82.562 Y86.204 E15.45557
G1 X60.153 Y63.796 E16.11987
G1 X61.301 Y63.796 E16.14393
G1 X83.710 Y86.204 E16.80823
G1 X84.858 Y86.204 E16.83229
G1 X62.449 Y63.796 E17.49659
G1 X63.597 Y63.796 E17.52065
G1 X86.005 Y86.204 E18.18495
G1 X87.153 Y86.204 E18.20901
G1 X64.744 Y63.796 E18.87331
G1 X65.892 Y63.796 E18.89737
G1 X88.301 Y86.204 E19.56167
G1 X89.449 Y86.204 E19.58573
G1 X67.040 Y63.796 E20.25003
G1 X68.188 Y63.796 E20.27409
G1 X90.596 Y86.204 E20.93839
G1 X91.744 Y86.204 E20.96245
G1 X69.335 Y63.796 E21.62675
G1 X70.483 Y63.796 E21.65081
G1 X92.892 Y86.204 E22.31511
G1 X94.040 Y86.204 E22.33917
G1 X71.631 Y63.796 E23.00347
G1 X72.779 Y63.796 E23.02753
G1 X95.188 Y86.204 E23.69183
G1 X96.335 Y86.204 E23.71589
G1 X73.927 Y63.796 E24.38019
G1 X75.074 Y63.796 E24.40425
G1 X97.483 Y86.204 E25.06855
G1 X98.631 Y86.204 E25.09261
G1 X76.222 Y63.796 E25.75691
G1 X77.370 Y63.796 E25.78097
G1 X99.779 Y86.204 E26.44527
G1 X100.926 Y86.204 E26.46933
G1 X78.518 Y63.796 E27.13363
G1 X79.665 Y63.796 E27.15769
G1 X102.074 Y86.204 E27.82199
G1 X103.222 Y86.204 E27.84605
G1 X80.813 Y63.796 E28.51035
G1 X81.961 Y63.796 E28.53441
G1 X104.370 Y86.204 E29.19871
G1 X105.517 Y86.204 E29.22277
G1 X83.109 Y63.796 E29.88708
G1 X84.256 Y63.796 E29.91113
G1 X106.665 Y86.204 E30.57544
G1 X107.813 Y86.204 E30.59950
G1 X85.404 Y63.796 E31.26380
G1 X86.552 Y63.796 E31.28786
G1 X108.961 Y86.204 E31.95216
G1 X110.109 Y86.204 E31.97622
G1 X87.700 Y63.796 E32.64052
G1 X88.848 Y63.796 E32.66458
G1 X111.256 Y86.204 E33.32888
G1 X112.404 Y86.204 E33.35294
G1 X89.995 Y63.796 E34.01724
G1 X91.143 Y63.796 E34.04130
G1 X113.552 Y86.204 E34.70560
G1 X114.700 Y86.204 E34.72966
G1 X109.228 Y80.732 E34.89187
G1 X110.795 Y81.152 E34.92590
G1 X115.847 Y86.204 E35.07566
G1 X116.204 Y85.414 E35.09385
G1 X112.363 Y81.572 E35.20773
G1 X113.326 Y81.388 E35.22828
G1 X116.204 Y84.266 E35.31361
G1 X116.204 Y83.118 E35.33767
G1 X114.231 Y81.145 E35.39616
G1 X115.137 Y80.903 E35.41580
G1 X116.204 Y81.970 E35.44745
G1 X116.204 Y80.823 E35.47151
G1 X116.042 Y80.660 E35.47632
G1 F600.000 E34.47632
G92 E0
G1 X106.769 Y78.273 F6000.000
G1 F600.000 E1.00000
G1 X92.291 Y63.796 F1080.000 E1.42919
G1 X93.439 Y63.796 E1.45325
G1 X106.348 Y76.705 E1.83596
G1 X105.928 Y75.137 E1.86999
G1 X94.586 Y63.796 E2.20621
G1 X95.734 Y63.796 E2.23027
G1 X106.113 Y74.174 E2.53794
G1 X106.355 Y73.269 E2.55759
G1 X96.882 Y63.796 E2.83842
G1 X98.030 Y63.796 E2.86248
G1 X106.598 Y72.364 E3.11649
G1 X106.927 Y71.545 E3.13498
G1 X99.177 Y63.796 E3.36471
G1 X100.325 Y63.796 E3.38877
G1 X107.501 Y70.971 E3.60149
G1 X108.075 Y70.397 E3.61850
G1 X101.473 Y63.796 E3.81421
G1 X102.621 Y63.796 E3.83827
G1 X108.649 Y69.824 E4.01697
G1 X109.238 Y69.265 E4.03399
G1 X103.769 Y63.796 E4.19613
G1 X104.916 Y63.796 E4.22019
G1 X110.143 Y69.022 E4.37513
G1 X111.048 Y68.780 E4.39478
G1 X106.064 Y63.796 E4.54254
G1 X107.212 Y63.796 E4.56660
G1 X111.954 Y68.537 E4.70717
G1 X113.122 Y68.558 E4.73165
G1 X108.360 Y63.796 E4.87282
G1 X109.507 Y63.796 E4.89688
G1 X114.689 Y68.978 E5.05049
G1 X116.204 Y69.345 E5.08317
G1 X110.655 Y63.796 E5.24768
G1 X111.803 Y63.796 E5.27174
G1 X116.204 Y68.197 E5.40222
G1 X116.204 Y67.049 E5.42628
G1 X112.951 Y63.796 E5.52273
G1 X114.098 Y63.796 E5.54679
G1 X116.204 Y65.902 E5.60922
G1 X116.204 Y64.754 E5.63328
G1 X115.246 Y63.796 E5.66168
G1 F600.000 E4.66168
G92 E0
G1 Z0.400 F6000.000
G1 X116.789 Y63.211
G1 F600.000 E1.00000
G1 X116.789 Y71.089 F5400.000 E1.16423
G1 X115.501 Y69.800 E1.20222
G1 X112.500 Y68.997 E1.26697
G1 X109.499 Y69.800 E1.33172
G1 X107.302 Y71.998 E1.39650
G1 X106.497 Y75.000 E1.46130
G1 X107.302 Y78.002 E1.52609
G1 X109.499 Y80.199 E1.59087
G1 X112.500 Y81.003 E1.65562
G1 X115.501 Y80.199 E1.72038
G1 X116.789 Y78.911 E1.75837
G1 X116.789 Y86.789 E1.92259
G1 X33.211 Y86.789 E3.66482
G1 X33.211 Y78.911 E3.82905
G1 X34.499 Y80.199 E3.86704
G1 X37.500 Y81.003 E3.93179
G1 X40.501 Y80.199 E3.99655
G1 X42.698 Y78.002 E4.06133
G1 X43.503 Y75.000 E4.12612
G1 X42.698 Y71.998 E4.19091
G1 X40.501 Y69.800 E4.25569
G1 X37.500 Y68.997 E4.32045
G1 X34.499 Y69.800 E4.38520
G1 X33.211 Y71.089 E4.42319
G1 X33.211 Y63.211 E4.58742
G1 X116.668 Y63.211 E6.32712
G1 X117.596 Y62.404 F6000.000
G1 X117.596 Y73.734 F5400.000 E6.56331
G1 X117.337 Y73.768 E6.56876
G1 X116.975 Y72.416 E6.59795
G1 X115.083 Y70.524 E6.65371
G1 X112.500 Y69.832 E6.70945
G1 X109.917 Y70.524 E6.76519
G1 X108.025 Y72.416 E6.82095
G1 X107.333 Y75.000 E6.87673
G1 X108.025 Y77.584 E6.93251
G1 X109.917 Y79.476 E6.98827
G1 X112.500 Y80.168 E7.04401
G1 X115.083 Y79.476 E7.09975
G1 X116.975 Y77.584 E7.15551
G1 X117.337 Y76.232 E7.18470
G1 X117.596 Y76.266 E7.19015
G1 X117.596 Y87.596 E7.42634
G1 X32.404 Y87.596 E9.20222
G1 X32.404 Y76.266 E9.43840
G1 X32.663 Y76.232 E9.44385
G1 X33.025 Y77.584 E9.47304
G1 X34.917 Y79.476 E9.52880
G1 X37.500 Y80.168 E9.58454
G1 X40.083 Y79.476 E9.64028
G1 X41.975 Y77.584 E9.69605
G1 X42.667 Y75.000 E9.75182
G1 X41.975 Y72.416 E9.80760
G1 X40.083 Y70.524 E9.86336
G1 X37.500 Y69.832 E9.91910
G1 X34.917 Y70.524 E9.97484
G1 X33.025 Y72.416 E10.03061
G1 X32.663 Y73.768 E10.05979
G1 X32.404 Y73.734 E10.06525
G1 X32.404 Y62.404 E10.30143
G1 X117.475 Y62.404 E12.07478
G1 F600.000 E11.07478
G92 E0
G1 X32.388 Y75.000 F6000.000
G1 F600.000 E1.00000
G1 X32.482 Y75.768 F5400.000 E1.01613
G1 X33.036 Y76.745 E1.03954
G1 X32.388 Y75.000 F6000.000
G1 X32.407 Y74.604 F5400.000 E1.04780
G1 X32.407 Y74.604 F6000.000
G1 X32.463 Y74.209 F5400.000 E1.05613
G1 X32.463 Y74.209 F6000.000
G1 X33.099 Y73.141 F5400.000 E1.08203
G1 F600.000 E0.08203
G92 E0
G1 X116.957 Y73.339 F6000.000
G1 F600.000 E1.00000
G1 X117.519 Y74.211 F5400.000 E1.02163
G1 X117.537 Y75.791 E1.05456
G1 X117.537 Y75.791 F6000.000
G1 X117.099 Y76.516 F5400.000 E1.07221
G1 X117.099 Y76.516 F6000.000
G1 X116.901 Y76.859 F5400.000 E1.08047
G1 F600.000 E0.08047
G92 E0
G1 Z0.600 F6000.000
G1 X116.789 Y78.911
G1 F600.000 E1.00000
G1 X116.789 Y86.789 F5400.000 E1.16423
G1 X33.211 Y86.789 E2.90646
G1 X33.211 Y78.911 E3.07068
G1 X34.499 Y80.199 E3.10867
G1 X37.500 Y81.003 E3.17343
G1 X40.501 Y80.199 E3.23818
G1 X42.698 Y78.002 E3.30296
G1 X43.503 Y75.000 E3.36775
G1 X42.698 Y71.998 E3.43255
G1 X40.501 Y69.800 E3.49733
G1 X37.500 Y68.997 E3.56208
G1 X34.499 Y69.800 E3.62683
G1 X33.211 Y71.089 E3.66482
G1 X33.211 Y63.211 E3.82905
G1 X116.789 Y63.211 E5.57128
G1 X116.789 Y71.089 E5.73551
G1 X115.501 Y69.800 E5.77349
G1 X112.500 Y68.997 E5.83825
G1 X109.499 Y69.800 E5.90300
G1 X107.302 Y71.998 E5.96778
G1 X106.497 Y75.000 E6.03258
G1 X107.302 Y78.002 E6.09737
G1 X109.499 Y80.199 E6.16215
G1 X112.500 Y81.003 E6.22690
G1 X115.501 Y80.199 E6.29166
G1 X116.704 Y78.997 E6.32712
G1 X116.705 Y77.854 F6000.000
G1 X116.975 Y77.584 F5400.000 E6.33507
G1 X117.337 Y76.232 E6.36426
G1 X117.596 Y76.266 E6.36971
G1 X117.596 Y87.596 E6.60590
G1 X32.404 Y87.596 E8.38177
G1 X32.404 Y76.266 E8.61796
G1 X32.663 Y76.232 E8.62341
G1 X33.025 Y77.584 E8.65260
G1 X34.917 Y79.476 E8.70836
G1 X37.500 Y80.168 E8.76410
G1 X40.083 Y79.476 E8.81984
G1 X41.975 Y77.584 E8.87560
G1 X42.667 Y75.000 E8.93138
G1 X41.975 Y72.416 E8.98716
G1 X40.083 Y70.524 E9.04292
G1 X37.500 Y69.832 E9.09866
G1 X34.917 Y70.524 E9.15440
G1 X33.025 Y72.416 E9.21016
G1 X32.663 Y73.768 E9.23935
G1 X32.404 Y73.734 E9.24480
G1 X32.404 Y62.404 E9.48099
G1 X117.596 Y62.404 E11.25687
G1 X117.596 Y73.734 E11.49305
G1 X117.337 Y73.768 E11.49850
G1 X116.975 Y72.416 E11.52769
G1 X115.083 Y70.524 E11.58345
G1 X112.500 Y69.832 E11.63919
G1 X109.917 Y70.524 E11.69493
G1 X108.025 Y72.416 E11.75070
G1 X107.333 Y75.000 E11.80647
G1 X108.025 Y77.584 E11.86225
G1 X109.917 Y79.476 E11.91801
G1 X112.500 Y80.168 E11.97375
G1 X115.083 Y79.476 E12.02949
G1 X116.619 Y77.940 E12.07478
G1 F600.000 E11.07478
G92 E0
G1 X32.429 Y75.000 F6000.000
G1 F600.000 E1.00000
G1 X32.505 Y75.745 F5400.000 E1.01560
G1 X33.015 Y76.666 E1.03754
G1 X32.429 Y75.000 F6000.000
G1 X32.397 Y74.604 F5400.000 E1.04581
G1 X32.397 Y74.604 F6000.000
G1 X32.453 Y74.209 F5400.000 E1.05414
G1 X32.453 Y74.209 F6000.000
