; generated by Slic3r 0.9.10b on 2014-02-18 at 19:38:02

; layer_height = 0.2
; perimeters = 1
; top_solid_layers = 5
; bottom_solid_layers = 5
; fill_density = 0.4
; perimeter_speed = 90
; infill_speed = 90
; travel_speed = 100
; nozzle_diameter = 0.5
; filament_diameter = 2.9
; extrusion_multiplier = 0.853
; perimeters extrusion width = 0.85mm
; infill extrusion width = 1.02mm
; solid infill extrusion width = 0.85mm
; top infill extrusion width = 0.85mm
; support material extrusion width = 0.85mm

G21 ; set units to millimeters
;G28 ; home all axes
G90 ; use absolute coordinates
G92 E0
M82 ; use absolute distances for extrusion
G1 F600.000 E-1.00000
G92 E0
G1 Z0.200 F6000.000
G1 X50.190 Y60.690
G1 F600.000 E1.00000
G1 X51.220 Y59.840 F1080.000 E1.02784
G1 X52.400 Y59.210 E1.05572
G1 X53.670 Y58.820 E1.08342
G1 X55.000 Y58.690 E1.11127
G1 X95.000 Y58.690 E1.94509
G1 X96.330 Y58.820 E1.97294
G1 X97.600 Y59.210 E2.00064
G1 X98.780 Y59.840 E2.02852
G1 X99.810 Y60.690 E2.05636
G1 X100.660 Y61.720 E2.08420
G1 X101.290 Y62.900 E2.11208
G1 X101.680 Y64.170 E2.13977
G1 X101.810 Y65.500 E2.16763
G1 X101.810 Y84.500 E2.56369
G1 X101.680 Y85.830 E2.59155
G1 X101.290 Y87.100 E2.61924
G1 X100.660 Y88.280 E2.64713
G1 X99.810 Y89.310 E2.67496
G1 X98.780 Y90.160 E2.70280
G1 X97.600 Y90.790 E2.73068
G1 X96.330 Y91.180 E2.75838
G1 X95.000 Y91.310 E2.78624
G1 X55.000 Y91.310 E3.62005
G1 X53.670 Y91.180 E3.64791
G1 X52.400 Y90.790 E3.67560
G1 X51.220 Y90.160 E3.70348
G1 X50.190 Y89.310 E3.73132
G1 X49.340 Y88.280 E3.75916
G1 X48.710 Y87.100 E3.78704
G1 X48.320 Y85.830 E3.81474
G1 X48.190 Y84.500 E3.84259
G1 X48.190 Y65.500 E4.23866
G1 X48.320 Y64.170 E4.26651
G1 X48.710 Y62.900 E4.29421
G1 X49.340 Y61.720 E4.32209
G1 X50.113 Y60.783 E4.34740
G1 F600.000 E3.34740
G92 E0
G1 X54.596 Y65.569 F6000.000
G1 F600.000 E1.00000
G1 X55.069 Y65.096 F1080.000 E1.01394
G1 X73.963 Y65.096 E1.40779
G1 X74.436 Y65.569 E1.42173
G1 X74.436 Y68.431 E1.48138
G1 X73.963 Y68.904 E1.49531
G1 X66.404 Y68.904 E1.65290
G1 X66.404 Y81.096 E1.90707
G1 X73.963 Y81.096 E2.06465
G1 X74.436 Y81.569 E2.07859
G1 X74.436 Y84.431 E2.13824
G1 X73.963 Y84.904 E2.15218
G1 X55.069 Y84.904 E2.54603
G1 X54.596 Y84.431 E2.55997
G1 X54.596 Y65.690 E2.95062
G1 F600.000 E1.95062
G92 E0
G1 X75.564 Y65.569 F6000.000
G1 F600.000 E1.00000
G1 X76.037 Y65.096 F1080.000 E1.01394
G1 X94.931 Y65.096 E1.40779
G1 X95.404 Y65.569 E1.42173
G1 X95.404 Y84.431 E1.81490
G1 X94.931 Y84.904 E1.82884
G1 X76.037 Y84.904 E2.22269
G1 X75.564 Y84.431 E2.23663
G1 X75.564 Y81.569 E2.29628
G1 X76.037 Y81.096 E2.31022
G1 X83.596 Y81.096 E2.46780
G1 X83.596 Y68.904 E2.72197
G1 X76.037 Y68.904 E2.87955
G1 X75.564 Y68.431 E2.89349
G1 X75.564 Y65.690 E2.95062
G1 X76.371 Y65.904 F6000.000
G1 X94.596 Y65.904 F1080.000 E3.33053
G1 X94.596 Y84.096 E3.70977
G1 X76.371 Y84.096 E4.08969
G1 X76.371 Y81.904 E4.13540
G1 X84.404 Y81.904 E4.30284
G1 X84.404 Y68.096 E4.59065
G1 X76.371 Y68.096 E4.75809
G1 X76.371 Y66.025 E4.80128
G1 F600.000 E3.80128
G92 E0
G1 X85.211 Y66.711 F6000.000
G1 F600.000 E1.00000
G1 X93.789 Y66.711 F1080.000 E1.17883
G1 X93.789 Y73.110 E1.31222
G1 X92.434 Y72.125 E1.34716
G1 X90.566 Y72.125 E1.38608
G1 X89.054 Y73.223 E1.42504
G1 X88.477 Y75.000 E1.46398
G1 X89.054 Y76.777 E1.50292
G1 X90.566 Y77.875 E1.54187
G1 X92.434 Y77.875 E1.58080
G1 X93.789 Y76.890 E1.61573
G1 X93.789 Y83.289 E1.74913
G1 X85.211 Y83.289 E1.92796
G1 X85.211 Y66.832 E2.27102
G1 F600.000 E1.27102
G92 E0
G1 X73.629 Y65.904 F6000.000
G1 F600.000 E1.00000
G1 X73.629 Y68.096 F1080.000 E1.04571
G1 X65.596 Y68.096 E1.21315
G1 X65.596 Y81.904 E1.50097
G1 X73.629 Y81.904 E1.66841
G1 X73.629 Y84.096 E1.71412
G1 X55.404 Y84.096 E2.09403
G1 X55.404 Y65.904 E2.47327
G1 X73.508 Y65.904 E2.85066
G1 F600.000 E1.85066
G92 E0
G1 X64.789 Y66.711 F6000.000
G1 F600.000 E1.00000
G1 X64.789 Y83.289 F1080.000 E1.34559
G1 X56.211 Y83.289 E1.52442
G1 X56.211 Y76.890 E1.65781
G1 X57.566 Y77.875 E1.69275
G1 X59.434 Y77.875 E1.73167
G1 X60.946 Y76.777 E1.77063
G1 X61.523 Y75.000 E1.80957
G1 X60.946 Y73.223 E1.84851
G1 X59.434 Y72.125 E1.88746
G1 X57.566 Y72.125 E1.92639
G1 X56.211 Y73.110 E1.96132
G1 X56.211 Y66.711 E2.09472
G1 X64.668 Y66.711 E2.27102
G1 F600.000 E1.27102
G92 E0
G1 X60.259 Y73.722 F6000.000
G1 F600.000 E1.00000
G1 X60.674 Y75.000 F1080.000 E1.02801
G1 X60.259 Y76.278 E1.05601
G1 X59.171 Y77.068 E1.08404
G1 X57.829 Y77.068 E1.11203
G1 X56.741 Y76.278 E1.14005
G1 X56.326 Y75.000 E1.16806
G1 X56.741 Y73.722 E1.19607
G1 X57.829 Y72.932 E1.22409
G1 X59.171 Y72.932 E1.25208
G1 X60.161 Y73.651 E1.27758
G1 F600.000 E0.27758
G92 E0
G1 X89.326 Y75.000 F6000.000
G1 F600.000 E1.00000
G1 X89.741 Y73.722 F1080.000 E1.02801
G1 X90.829 Y72.932 E1.05603
G1 X92.171 Y72.932 E1.08402
G1 X93.259 Y73.722 E1.11205
G1 X93.674 Y75.000 E1.14005
G1 X93.259 Y76.278 E1.16806
G1 X92.171 Y77.068 E1.19608
G1 X90.829 Y77.068 E1.22408
G1 X89.741 Y76.278 E1.25210
G1 X89.363 Y75.115 E1.27758
G1 F600.000 E0.27758
G92 E0
G1 X63.072 Y67.296 F6000.000
G1 F600.000 E1.00000
G1 X64.204 Y68.428 F1080.000 E1.03342
G1 X64.204 Y69.571 E1.05728
G1 X61.929 Y67.296 E1.12443
G1 X60.786 Y67.296 E1.14829
G1 X64.204 Y70.714 E1.24920
G1 X64.204 Y71.857 E1.27306
G1 X59.643 Y67.296 E1.40770
G1 X58.500 Y67.296 E1.43156
G1 X64.204 Y73.000 E1.59995
G1 X64.204 Y74.143 E1.62381
G1 X57.357 Y67.296 E1.82594
G1 X56.796 Y67.877 E1.84281
G1 X64.204 Y75.286 E2.06153
G1 X64.204 Y76.429 E2.08539
G1 X61.831 Y74.055 E2.15545
G1 X62.014 Y75.381 E2.18340
G1 X64.204 Y77.572 E2.24806
G1 X64.204 Y78.715 E2.27192
G1 X61.734 Y76.244 E2.34485
G1 X61.453 Y77.107 E2.36379
G1 X64.204 Y79.858 E2.44500
G1 X64.204 Y81.001 E2.46886
G1 X60.805 Y77.602 E2.56920
G1 X60.143 Y78.083 E2.58628
G1 X64.204 Y82.144 E2.70617
G1 X63.622 Y82.704 E2.72305
G1 X59.378 Y78.460 E2.84834
G1 X58.235 Y78.460 E2.87220
G1 X62.479 Y82.704 E2.99750
G1 X61.336 Y82.704 E3.02136
G1 X57.092 Y78.460 E3.14666
G1 X56.796 Y79.307 E3.16538
G1 X60.193 Y82.704 E3.26569
G1 X59.050 Y82.704 E3.28955
G1 X56.796 Y80.450 E3.35611
G1 X56.796 Y81.593 E3.37997
G1 X57.907 Y82.704 E3.41278
G1 F600.000 E2.41278
G92 E0
G1 X59.316 Y71.540 F6000.000
G1 F600.000 E1.00000
G1 X56.796 Y69.020 F1080.000 E1.07440
G1 X56.796 Y70.163 E1.09826
G1 X58.173 Y71.540 E1.13891
G1 X57.030 Y71.540 E1.16277
G1 X56.796 Y71.306 E1.16969
G1 F600.000 E0.16969
G92 E0
G1 X55.990 Y75.822 F6000.000
G1 F600.000 E1.00000
G1 X55.977 Y75.809 F240.000 E1.00018
G1 X55.978 Y74.215 F6000.000
G1 X55.977 Y74.215 F240.000 E1.00019
G1 F600.000 E0.00019
G92 E0
G1 X66.967 Y67.056 F6000.000
G1 F600.000 E1.00000
G1 X66.856 Y66.944 F240.000 E1.00500
G1 X68.631 Y66.944 F6000.000
G1 X68.742 Y67.056 F240.000 E1.00999
G1 X70.406 Y66.944 F6000.000
G1 X70.517 Y67.056 F240.000 E1.01499
G1 X72.181 Y66.944 F6000.000
G1 X72.292 Y67.056 F240.000 E1.01999
G1 F600.000 E0.01999
G92 E0
G1 X77.618 Y67.056 F6000.000
G1 F600.000 E1.00000
G1 X77.507 Y66.944 F240.000 E1.00500
G1 X79.283 Y66.944 F6000.000
G1 X79.394 Y67.056 F240.000 E1.00999
G1 X81.058 Y66.944 F6000.000
G1 X81.169 Y67.056 F240.000 E1.01499
G1 X82.833 Y66.944 F6000.000
G1 X82.944 Y67.056 F240.000 E1.01999
G1 F600.000 E0.01999
G92 E0
G1 X94.023 Y73.996 F6000.000
G1 F600.000 E1.00000
G1 X93.997 Y73.969 F240.000 E1.00036
G1 F600.000 E0.00036
G92 E0
G1 X93.959 Y76.058 F6000.000
G1 F600.000 E1.00000
G1 X93.940 Y76.038 F240.000 E1.00027
G1 F600.000 E0.00027
G92 E0
G1 X92.525 Y78.460 F6000.000
G1 F600.000 E1.00000
G1 X93.204 Y79.140 F1080.000 E1.02003
G1 X93.204 Y80.283 F6000.000
G1 X91.382 Y78.460 F1080.000 E1.07376
G1 X89.874 Y78.095 F6000.000
G1 X93.204 Y81.426 F1080.000 E1.17195
G1 X93.204 Y82.569 F6000.000
G1 X85.796 Y75.160 F1080.000 E1.39036
G1 X85.796 Y74.017 F6000.000
G1 X88.383 Y76.605 F1080.000 E1.46665
G1 X87.877 Y74.955 F6000.000
G1 X85.796 Y72.874 F1080.000 E1.52800
G1 X85.796 Y71.731 F6000.000
G1 X88.157 Y74.092 F1080.000 E1.59761
G1 X88.437 Y73.230 F6000.000
G1 X85.796 Y70.588 F1080.000 E1.67548
G1 X85.796 Y69.445 F6000.000
G1 X88.937 Y72.586 F1080.000 E1.76808
G1 X89.599 Y72.105 F6000.000
G1 X85.796 Y68.302 F1080.000 E1.88019
G1 X85.932 Y67.296 F6000.000
G1 X90.261 Y71.624 F1080.000 E2.00779
G1 X91.320 Y71.540 F6000.000
G1 X87.075 Y67.296 F1080.000 E2.13291
G1 X88.218 Y67.296 F6000.000
G1 X92.463 Y71.540 F1080.000 E2.25803
G1 X93.204 Y71.139 F6000.000
G1 X89.361 Y67.296 F1080.000 E2.37133
G1 X90.504 Y67.296 F6000.000
G1 X93.204 Y69.996 F1080.000 E2.45092
G1 X93.204 Y68.853 F6000.000
G1 X91.647 Y67.296 F1080.000 E2.49682
G1 X92.790 Y67.296 F6000.000
G1 X93.204 Y67.710 F1080.000 E2.50903
G1 F600.000 E1.50903
G92 E0
G1 X85.796 Y76.303 F6000.000
G1 F600.000 E1.00000
G1 X92.197 Y82.704 F1080.000 E1.18871
G1 X91.054 Y82.704 F6000.000
G1 X85.796 Y77.446 F1080.000 E1.34373
G1 X85.796 Y78.589 F6000.000
G1 X89.911 Y82.704 F1080.000 E1.46506
G1 X88.768 Y82.704 F6000.000
G1 X85.796 Y79.732 F1080.000 E1.55269
G1 X85.796 Y80.875 F6000.000
G1 X87.625 Y82.704 F1080.000 E1.60662
G1 X86.482 Y82.704 F6000.000
G1 X85.796 Y82.018 F1080.000 E1.62686
G1 F600.000 E0.62686
G92 E0
G1 X82.856 Y82.944 F6000.000
G1 F600.000 E1.00000
G1 X82.967 Y83.056 F240.000 E1.00500
G1 X81.080 Y82.944 F6000.000
G1 X81.191 Y83.056 F240.000 E1.00999
G1 X79.305 Y82.944 F6000.000
G1 X79.416 Y83.056 F240.000 E1.01499
G1 X77.641 Y83.056 F6000.000
G1 X77.530 Y82.944 F240.000 E1.01999
G1 F600.000 E0.01999
G92 E0
G1 X66.989 Y83.056 F6000.000
G1 F600.000 E1.00000
G1 X66.878 Y82.944 F240.000 E1.00509
G1 X68.653 Y82.944 E1.06265
G1 X68.764 Y83.056 E1.06774
G1 X70.428 Y82.944 E1.12182
G1 X70.540 Y83.056 E1.12691
G1 X72.204 Y82.944 E1.18099
G1 X72.315 Y83.056 E1.18608
G1 F600.000 E0.18608
G92 E0
G1 Z0.400 F6000.000
G1 X89.741 Y76.278
G1 F600.000 E1.00000
G1 X89.326 Y75.000 F5400.000 E1.02801
G1 X89.741 Y73.722 E1.05601
G1 X90.829 Y72.932 E1.08404
G1 X92.171 Y72.932 E1.11203
G1 X93.259 Y73.722 E1.14005
G1 X93.674 Y75.000 E1.16806
G1 X93.259 Y76.278 E1.19607
G1 X92.171 Y77.068 E1.22409
G1 X90.829 Y77.068 E1.25208
G1 X89.839 Y76.349 E1.27758
G1 F600.000 E0.27758
G92 E0
G1 X60.674 Y75.000 F6000.000
G1 F600.000 E1.00000
G1 X60.259 Y76.278 F5400.000 E1.02801
G1 X59.171 Y77.068 E1.05603
G1 X57.829 Y77.068 E1.08402
G1 X56.741 Y76.278 E1.11205
G1 X56.326 Y75.000 E1.14005
G1 X56.741 Y73.722 E1.16806
G1 X57.829 Y72.932 E1.19608
G1 X59.171 Y72.932 E1.22407
G1 X60.259 Y73.722 E1.25210
G1 X60.637 Y74.885 E1.27758
G1 X61.523 Y75.000 F6000.000
G1 X60.946 Y73.223 F5400.000 E1.31652
G1 X59.434 Y72.125 E1.35548
G1 X57.566 Y72.125 E1.39440
G1 X56.211 Y73.110 E1.42934
G1 X56.211 Y66.711 E1.56273
G1 X64.789 Y66.711 E1.74156
G1 X64.789 Y83.289 E2.08715
G1 X56.211 Y83.289 E2.26598
G1 X56.211 Y76.890 E2.39938
G1 X57.566 Y77.875 E2.43431
G1 X59.434 Y77.875 E2.47323
G1 X60.946 Y76.777 E2.51219
G1 X61.486 Y75.115 E2.54860
G1 F600.000 E1.54860
G92 E0
G1 X65.596 Y81.904 F6000.000
G1 F600.000 E1.00000
G1 X73.694 Y81.904 F5400.000 E1.16880
G1 X73.694 Y84.096 E1.21451
G1 X55.404 Y84.096 E1.59578
G1 X55.404 Y65.904 E1.97502
G1 X73.694 Y65.904 E2.35629
G1 X73.694 Y68.096 E2.40200
G1 X65.596 Y68.096 E2.57079
G1 X65.596 Y81.782 E2.85608
G1 F600.000 E1.85608
G92 E0
G1 X85.211 Y83.289 F6000.000
G1 F600.000 E1.00000
G1 X85.211 Y66.711 F5400.000 E1.34559
G1 X93.789 Y66.711 E1.52442
G1 X93.789 Y73.110 E1.65781
G1 X92.434 Y72.125 E1.69275
G1 X90.566 Y72.125 E1.73167
G1 X89.054 Y73.223 E1.77063
G1 X88.477 Y75.000 E1.80957
G1 X89.054 Y76.776 E1.84851
G1 X90.566 Y77.875 E1.88746
G1 X92.434 Y77.875 E1.92639
G1 X93.789 Y76.890 E1.96132
G1 X93.789 Y83.289 E2.09472
G1 X85.332 Y83.289 E2.27102
G1 X84.404 Y81.904 F6000.000
G1 X84.404 Y68.096 F5400.000 E2.55884
G1 X76.306 Y68.096 E2.72763
G1 X76.306 Y65.904 E2.77334
G1 X94.596 Y65.904 E3.15462
G1 X94.596 Y84.096 E3.53385
G1 X76.306 Y84.096 E3.91512
G1 X76.306 Y81.904 E3.96084
G1 X84.282 Y81.904 E4.12711
G1 F600.000 E3.12711
G92 E0
G1 X71.286 Y82.944 F6000.000
G1 F600.000 E1.00000
G1 X71.175 Y83.056 F1200.000 E1.00509
G1 X69.511 Y82.944 E1.05917
G1 X69.400 Y83.056 E1.06426
G1 X67.735 Y82.944 E1.11834
G1 X67.624 Y83.056 E1.12343
G1 X65.960 Y82.944 E1.17751
G1 X65.849 Y83.056 E1.18260
G1 F600.000 E0.18260
G92 E0
G1 X78.387 Y82.944 F6000.000
G1 F600.000 E1.00000
G1 X78.276 Y83.056 F1200.000 E1.00500
G1 X80.162 Y82.944 F6000.000
G1 X80.051 Y83.056 F1200.000 E1.00999
G1 X81.938 Y82.944 F6000.000
G1 X81.827 Y83.056 F1200.000 E1.01499
G1 X83.713 Y82.944 F6000.000
G1 X83.602 Y83.056 F1200.000 E1.01999
G1 F600.000 E0.01999
G92 E0
G1 X94.023 Y75.902 F6000.000
G1 F600.000 E1.00000
G1 X93.965 Y75.960 F1200.000 E1.00079
G1 F600.000 E0.00079
G92 E0
G1 X83.735 Y66.944 F6000.000
G1 F600.000 E1.00000
G1 X83.624 Y67.056 F1200.000 E1.00500
G1 X81.960 Y66.944 F6000.000
G1 X81.849 Y67.056 F1200.000 E1.00999
G1 X80.185 Y66.944 F6000.000
G1 X80.074 Y67.056 F1200.000 E1.01499
G1 X78.410 Y66.944 F6000.000
G1 X78.298 Y67.056 F1200.000 E1.01999
G1 F600.000 E0.01999
G92 E0
G1 X71.308 Y66.944 F6000.000
G1 F600.000 E1.00000
G1 X71.197 Y67.056 F1200.000 E1.00500
G1 X69.533 Y66.944 F6000.000
G1 X69.422 Y67.056 F1200.000 E1.00999
G1 X67.758 Y66.944 F6000.000
G1 X67.647 Y67.056 F1200.000 E1.01499
G1 X65.983 Y66.944 F6000.000
G1 X65.871 Y67.056 F1200.000 E1.01999
G1 F600.000 E0.01999
G92 E0
G1 X56.039 Y74.027 F6000.000
G1 F600.000 E1.00000
G1 X55.977 Y74.089 F1200.000 E1.00085
G1 F600.000 E0.00085
G92 E0
G1 Z0.600 F6000.000
G1 X89.326 Y75.000
G1 F600.000 E1.00000
G1 X89.741 Y73.722 F5400.000 E1.02801
G1 X90.829 Y72.932 E1.05603
G1 X92.171 Y72.932 E1.08402
G1 X93.259 Y73.722 E1.11205
G1 X93.674 Y75.000 E1.14005
G1 X93.259 Y76.278 E1.16806
G1 X92.171 Y77.068 E1.19608
G1 X90.829 Y77.068 E1.22408
G1 X89.741 Y76.278 E1.25210
G1 X89.363 Y75.115 E1.27758
G1 F600.000 E0.27758
G92 E0
G1 X60.674 Y75.000 F6000.000
G1 F600.000 E1.00000
G1 X60.259 Y76.278 F5400.000 E1.02801
G1 X59.171 Y77.068 E1.05603
G1 X57.829 Y77.068 E1.08402
G1 X56.741 Y76.278 E1.11205
G1 X56.326 Y75.000 E1.14005
G1 X56.741 Y73.722 E1.16806
G1 X57.829 Y72.932 E1.19608
G1 X59.171 Y72.932 E1.22407
G1 X60.259 Y73.722 E1.25210
G1 X60.637 Y74.885 E1.27758
G1 X61.523 Y75.000 F6000.000
G1 X60.946 Y73.223 F5400.000 E1.31652
G1 X59.434 Y72.125 E1.35548
G1 X57.566 Y72.125 E1.39440
G1 X56.211 Y73.110 E1.42934
G1 X56.211 Y66.711 E1.56273
G1 X64.789 Y66.711 E1.74156
G1 X64.789 Y83.289 E2.08715
G1 X56.211 Y83.289 E2.26598
G1 X56.211 Y76.890 E2.39937
G1 X57.566 Y77.875 E2.43431
G1 X59.434 Y77.875 E2.47323
G1 X60.946 Y76.777 E2.51219
G1 X61.486 Y75.115 E2.54860
G1 F600.000 E1.54860
G92 E0
G1 X65.596 Y81.904 F6000.000
G1 F600.000 E1.00000
G1 X73.759 Y81.904 F5400.000 E1.17015
G1 X73.759 Y84.096 E1.21586
G1 X55.404 Y84.096 E1.59849
G1 X55.404 Y65.904 E1.97773
G1 X73.759 Y65.904 E2.36035
G1 X73.759 Y68.096 E2.40606
G1 X65.596 Y68.096 E2.57621
G1 X65.596 Y81.782 E2.86150
G1 F600.000 E1.86150
G92 E0
G1 X85.211 Y83.289 F6000.000
G1 F600.000 E1.00000
G1 X85.211 Y66.711 F5400.000 E1.34559
G1 X93.789 Y66.711 E1.52442
G1 X93.789 Y73.110 E1.65781
G1 X92.434 Y72.125 E1.69275
G1 X90.566 Y72.125 E1.73167
G1 X89.054 Y73.223 E1.77063
G1 X88.477 Y75.000 E1.80957
G1 X89.054 Y76.777 E1.84851
G1 X90.566 Y77.875 E1.88746
G1 X92.434 Y77.875 E1.92639
G1 X93.789 Y76.890 E1.96132
G1 X93.789 Y83.289 E2.09472
G1 X85.332 Y83.289 E2.27102
G1 X84.404 Y81.904 F6000.000
G1 X84.404 Y68.096 F5400.000 E2.55884
G1 X76.241 Y68.096 E2.72899
G1 X76.241 Y65.904 E2.77470
G1 X94.596 Y65.904 E3.15732
G1 X94.596 Y84.096 E3.53656
G1 X76.241 Y84.096 E3.91919
G1 X76.241 Y81.904 E3.96490
G1 X84.282 Y81.904 E4.13253
G1 F600.000 E3.13253
G92 E0
G1 X93.204 Y82.159 F6000.000
G1 F600.000 E1.00000
G1 X92.659 Y82.704 F5400.000 E1.03218
G1 X91.516 Y82.704 E1.07990
G1 X93.204 Y81.016 E1.17956
G1 X93.204 Y79.873 E1.22728
G1 X90.373 Y82.704 E1.39444
G1 X89.230 Y82.704 E1.44215
G1 X93.204 Y78.730 E1.67679
G1 X92.332 Y78.460 E1.71493
G1 X88.087 Y82.704 E1.96553
G1 X86.944 Y82.704 E2.01325
G1 X91.189 Y78.460 E2.26385
G1 X90.185 Y78.321 E2.30616
G1 X85.801 Y82.704 E2.56497
G1 X85.796 Y81.567 E2.61245
G1 X89.523 Y77.840 E2.83251
G1 X88.861 Y77.359 E2.86667
G1 X85.796 Y80.424 E3.04765
G1 X85.796 Y79.281 E3.09537
G1 X88.405 Y76.672 E3.24944
