; generated by Slic3r 0.9.10b on 2014-02-11 at 14:33:58

; layer_height = 0.2
; perimeters = 1
; top_solid_layers = 5
; bottom_solid_layers = 5
; fill_density = 0.4
; perimeter_speed = 90
; infill_speed = 90
; travel_speed = 100
; nozzle_diameter = 0.5
; filament_diameter = 2.9
; extrusion_multiplier = 0.853
; perimeters extrusion width = 0.85mm
; infill extrusion width = 1.02mm
; solid infill extrusion width = 0.85mm
; top infill extrusion width = 0.85mm

G21 ; set units to millimeters
;G28 ; home all axes
G90 ; use absolute coordinates
G92 E0
M82 ; use absolute distances for extrusion
G1 F600.000 E-1.00000
G92 E0
G1 Z0.200 F6000.000
G1 X45.330 Y48.570
G1 F600.000 E1.00000
G1 X46.400 Y47.570 F1080.000 E1.03053
G1 X47.660 Y46.820 E1.06110
G1 X49.040 Y46.350 E1.09148
G1 X50.500 Y46.190 E1.12210
G1 X99.500 Y46.190 E2.14352
G1 X100.960 Y46.350 E2.17414
G1 X102.340 Y46.820 E2.20453
G1 X103.600 Y47.570 E2.23510
G1 X104.670 Y48.570 E2.26562
G1 X116.670 Y62.570 E2.64999
G1 X117.560 Y63.900 E2.68335
G1 X118.120 Y65.410 E2.71692
G1 X118.310 Y67.000 E2.75030
G1 X118.310 Y70.000 E2.81284
G1 X118.160 Y71.410 E2.84240
G1 X117.720 Y72.760 E2.87200
G1 X105.720 Y99.760 E3.48791
G1 X105.080 Y100.900 E3.51516
G1 X104.230 Y101.890 E3.54236
G1 X103.210 Y102.710 E3.56964
G1 X102.050 Y103.310 E3.59686
G1 X100.800 Y103.680 E3.62404
G1 X99.500 Y103.810 E3.65127
G1 X50.500 Y103.810 E4.67269
G1 X49.200 Y103.680 E4.69993
G1 X47.950 Y103.310 E4.72710
G1 X46.790 Y102.710 E4.75433
G1 X45.770 Y101.890 E4.78161
G1 X44.920 Y100.900 E4.80881
G1 X44.280 Y99.760 E4.83606
G1 X32.280 Y72.760 E5.45197
G1 X31.840 Y71.410 E5.48157
G1 X31.690 Y70.000 E5.51112
G1 X31.690 Y67.000 E5.57366
G1 X31.880 Y65.410 E5.60704
G1 X32.440 Y63.900 E5.64061
G1 X33.330 Y62.570 E5.67397
G1 X45.251 Y48.662 E6.05582
G1 F600.000 E5.05582
G92 E0
G1 X51.711 Y54.211 F6000.000
G1 F600.000 E1.00000
G1 X56.808 Y54.211 F1080.000 E1.10626
G1 X56.289 Y55.808 E1.14128
G1 X56.289 Y63.192 E1.29519
G1 X56.852 Y64.923 E1.33314
G1 X58.488 Y66.112 E1.37531
G1 X60.512 Y66.112 E1.41749
G1 X62.148 Y64.923 E1.45966
G1 X62.711 Y63.192 E1.49760
G1 X62.711 Y55.808 E1.65151
G1 X62.192 Y54.211 E1.68653
G1 X87.808 Y54.211 E2.22052
G1 X87.289 Y55.808 E2.25554
G1 X87.289 Y63.192 E2.40945
G1 X87.852 Y64.923 E2.44739
G1 X89.488 Y66.112 E2.48956
G1 X91.512 Y66.112 E2.53175
G1 X93.148 Y64.923 E2.57392
G1 X93.711 Y63.192 E2.61186
G1 X93.711 Y55.808 E2.76577
G1 X93.192 Y54.211 E2.80079
G1 X98.289 Y54.211 E2.90705
G1 X98.289 Y95.789 E3.77378
G1 X93.192 Y95.789 E3.88004
G1 X93.711 Y94.192 E3.91506
G1 X93.711 Y86.808 E4.06897
G1 X93.148 Y85.077 E4.10691
G1 X91.512 Y83.888 E4.14908
G1 X89.488 Y83.888 E4.19126
G1 X87.852 Y85.077 E4.23344
G1 X87.289 Y86.808 E4.27138
G1 X87.289 Y94.192 E4.42529
G1 X87.808 Y95.789 E4.46031
G1 X62.192 Y95.789 E4.99430
G1 X62.711 Y94.192 E5.02931
G1 X62.711 Y86.808 E5.18322
G1 X62.148 Y85.077 E5.22117
G1 X60.512 Y83.888 E5.26334
G1 X58.488 Y83.888 E5.30552
G1 X56.852 Y85.077 E5.34769
G1 X56.289 Y86.808 E5.38564
G1 X56.289 Y94.192 E5.53955
G1 X56.808 Y95.789 E5.57456
G1 X51.711 Y95.789 E5.68083
G1 X51.711 Y54.332 E6.54503
G1 X50.904 Y53.404 F6000.000
G1 X58.970 Y53.404 F1080.000 E6.71318
G1 X59.005 Y53.510 E6.71551
G1 X57.538 Y54.576 E6.75330
G1 X57.096 Y55.936 E6.78312
G1 X57.096 Y63.064 E6.93170
G1 X57.538 Y64.424 E6.96151
G1 X58.751 Y65.305 E6.99275
G1 X60.249 Y65.305 E7.02400
G1 X61.462 Y64.424 E7.05524
G1 X61.904 Y63.064 E7.08505
G1 X61.904 Y55.936 E7.23363
G1 X61.462 Y54.576 E7.26345
G1 X59.995 Y53.510 E7.30124
G1 X60.030 Y53.404 E7.30357
G1 X89.970 Y53.404 E7.92769
G1 X90.005 Y53.510 E7.93002
G1 X88.538 Y54.576 E7.96781
G1 X88.096 Y55.936 E7.99762
G1 X88.096 Y63.064 E8.14620
G1 X88.538 Y64.424 E8.17602
G1 X89.751 Y65.305 E8.20726
G1 X91.249 Y65.305 E8.23850
G1 X92.462 Y64.424 E8.26974
G1 X92.904 Y63.064 E8.29956
G1 X92.904 Y55.936 E8.44814
G1 X92.462 Y54.576 E8.47795
G1 X90.995 Y53.510 E8.51574
G1 X91.030 Y53.404 E8.51807
G1 X99.096 Y53.404 E8.68623
G1 X99.096 Y67.404 E8.97806
G1 X111.096 Y67.404 E9.22821
G1 X111.096 Y69.596 E9.27392
G1 X99.096 Y69.596 E9.52406
G1 X99.096 Y96.596 E10.08689
G1 X91.030 Y96.596 E10.25504
G1 X90.995 Y96.490 E10.25737
G1 X92.462 Y95.424 E10.29516
G1 X92.904 Y94.064 E10.32498
G1 X92.904 Y86.936 E10.47356
G1 X92.462 Y85.576 E10.50337
G1 X91.249 Y84.695 E10.53461
G1 X89.751 Y84.695 E10.56586
G1 X88.538 Y85.576 E10.59709
G1 X88.096 Y86.936 E10.62691
G1 X88.096 Y94.064 E10.77549
G1 X88.538 Y95.424 E10.80531
G1 X90.005 Y96.490 E10.84309
G1 X89.970 Y96.596 E10.84543
G1 X60.030 Y96.596 E11.46954
G1 X59.995 Y96.490 E11.47188
G1 X61.462 Y95.424 E11.50966
G1 X61.904 Y94.064 E11.53948
G1 X61.904 Y86.936 E11.68806
G1 X61.462 Y85.576 E11.71788
G1 X60.249 Y84.695 E11.74911
G1 X58.751 Y84.695 E11.78036
G1 X57.538 Y85.576 E11.81160
G1 X57.096 Y86.936 E11.84141
G1 X57.096 Y94.064 E11.98999
G1 X57.538 Y95.424 E12.01981
G1 X59.005 Y96.490 E12.05760
G1 X58.970 Y96.596 E12.05993
G1 X50.904 Y96.596 E12.22808
G1 X50.904 Y69.596 E12.79091
G1 X38.904 Y69.596 E13.04105
G1 X38.904 Y67.404 E13.08676
G1 X50.904 Y67.404 E13.33691
G1 X50.904 Y53.525 E13.62622
G1 F600.000 E12.62622
G92 E0
G1 X55.771 Y55.510 F6000.000
G1 F600.000 E1.00000
G1 X55.057 Y54.796 F1080.000 E1.02121
G1 X53.907 Y54.796 E1.04532
G1 X55.704 Y56.593 E1.09865
G1 X55.704 Y57.742 E1.12276
G1 X52.758 Y54.796 E1.21019
G1 X52.296 Y55.482 E1.22756
G1 X55.704 Y58.891 E1.32872
G1 X55.704 Y60.040 E1.35284
G1 X52.296 Y56.631 E1.45400
G1 X52.296 Y57.780 E1.47811
G1 X55.704 Y61.189 E1.57928
G1 X55.704 Y62.338 E1.60339
G1 X52.296 Y58.929 E1.70455
G1 X52.296 Y60.078 E1.72867
G1 X55.802 Y63.584 E1.83272
G1 F600.000 E0.83272
G92 E0
G1 X60.583 Y83.303 F6000.000
G1 F600.000 E1.00000
G1 X52.296 Y75.016 F1080.000 E1.24594
G1 X52.296 Y76.165 E1.27005
G1 X59.434 Y83.303 E1.48189
G1 X58.290 Y83.308 E1.50588
G1 X52.296 Y77.314 E1.68379
G1 X52.296 Y78.463 E1.70790
G1 X57.625 Y83.792 E1.86606
G1 X56.959 Y84.276 E1.88332
G1 X52.296 Y79.612 E2.02173
G1 X52.296 Y80.761 E2.04584
G1 X56.329 Y84.794 E2.16553
G1 X56.047 Y85.661 E2.18467
G1 X52.296 Y81.910 E2.29600
G1 X52.296 Y83.059 E2.32011
G1 X55.765 Y86.529 E2.42308
G1 X55.704 Y87.617 E2.44595
G1 X52.296 Y84.208 E2.54712
G1 X52.296 Y85.357 E2.57123
G1 X55.704 Y88.766 E2.67239
G1 X55.704 Y89.915 E2.69651
G1 X52.296 Y86.506 E2.79767
G1 X52.296 Y87.655 E2.82178
G1 X55.704 Y91.064 E2.92295
G1 X55.704 Y92.213 E2.94706
G1 X52.296 Y88.804 E3.04823
G1 X52.296 Y89.953 E3.07234
G1 X55.704 Y93.362 E3.17350
G1 X55.813 Y94.620 E3.20000
G1 X52.296 Y91.102 E3.30441
G1 X52.296 Y92.251 E3.32852
G1 X55.249 Y95.204 E3.41616
G1 X54.100 Y95.204 E3.44027
G1 X52.296 Y93.400 E3.49380
G1 X52.296 Y94.550 E3.51792
G1 X52.950 Y95.204 E3.53735
G1 F600.000 E2.53735
G92 E0
G1 X63.292 Y95.204 F6000.000
G1 F600.000 E1.00000
G1 X63.069 Y94.982 F1080.000 E1.00661
G1 X63.296 Y94.059 E1.02655
G1 X64.441 Y95.204 E1.06054
G1 X65.590 Y95.204 E1.08465
G1 X63.296 Y92.910 E1.15274
G1 X63.296 Y91.761 E1.17686
G1 X66.739 Y95.204 E1.27905
G1 X67.888 Y95.204 E1.30316
G1 X63.296 Y90.612 E1.43946
G1 X63.296 Y89.463 E1.46357
G1 X69.037 Y95.204 E1.63396
G1 X70.186 Y95.204 E1.65808
G1 X63.296 Y88.314 E1.86257
G1 X63.296 Y87.165 E1.88669
G1 X71.335 Y95.204 E2.12529
G1 X72.484 Y95.204 E2.14940
G1 X62.959 Y85.679 E2.43209
G1 F600.000 E1.43209
G92 E0
G1 X73.633 Y95.204 F6000.000
G1 F600.000 E1.00000
G1 X52.296 Y73.867 F1080.000 E1.63326
G1 X52.296 Y72.718 E1.65737
G1 X74.782 Y95.204 E2.32473
G1 X75.931 Y95.204 E2.34884
G1 X52.296 Y71.569 E3.05030
G1 X52.296 Y70.420 E3.07441
G1 X77.080 Y95.204 E3.80997
G1 X78.230 Y95.204 E3.83409
G1 X52.296 Y69.270 E4.60375
G1 X52.296 Y68.121 E4.62786
G1 X79.379 Y95.204 E5.43163
G1 X80.528 Y95.204 E5.45574
G1 X52.296 Y66.972 E6.29360
G1 X52.296 Y65.823 E6.31772
G1 X81.677 Y95.204 E7.18968
G1 X82.826 Y95.204 E7.21379
G1 X52.296 Y64.674 E8.11986
G1 X52.296 Y63.525 E8.14397
G1 X83.975 Y95.204 E9.08414
G1 X85.124 Y95.204 E9.10826
G1 X52.296 Y62.376 E10.08253
G1 X52.296 Y61.227 E10.10664
G1 X86.273 Y95.204 E11.11501
G1 X86.802 Y94.584 E11.13211
G1 X58.915 Y66.697 E11.95973
G1 X60.064 Y66.697 E11.98385
G1 X86.704 Y93.338 E12.77448
G1 X86.704 Y92.189 E12.79859
G1 X60.998 Y66.482 E13.56150
G1 X61.663 Y65.999 E13.57876
G1 X86.704 Y91.040 E14.32193
G1 X86.704 Y89.891 E14.34604
G1 X62.329 Y65.515 E15.06946
G1 X62.793 Y64.831 E15.08682
G1 X86.704 Y88.742 E15.79644
G1 X86.704 Y87.593 E15.82055
G1 X63.075 Y63.963 E16.52182
G1 X63.296 Y63.035 E16.54185
G1 X86.771 Y86.510 E17.23855
G1 X87.053 Y85.643 E17.25769
G1 X63.296 Y61.886 E17.96275
G1 X63.296 Y60.737 E17.98686
G1 X87.335 Y84.776 E18.70028
G1 X87.973 Y84.265 E18.71744
G1 X63.296 Y59.588 E19.44982
G1 X63.296 Y58.439 E19.47394
G1 X88.639 Y83.782 E20.22607
G1 X89.309 Y83.303 E20.24335
G1 X63.296 Y57.289 E21.01537
G1 X63.296 Y56.140 E21.03948
G1 X90.458 Y83.303 E21.84560
G1 X91.607 Y83.303 E21.86971
G1 X63.100 Y54.796 E22.71574
G1 X64.249 Y54.796 E22.73985
G1 X97.704 Y88.251 E23.73273
G1 X97.704 Y87.102 E23.75685
G1 X65.398 Y54.796 E24.71563
G1 X66.547 Y54.796 E24.73974
G1 X97.704 Y85.953 E25.66442
G1 X97.704 Y84.804 E25.68854
G1 X67.696 Y54.796 E26.57912
G1 X68.845 Y54.796 E26.60323
G1 X97.704 Y83.655 E27.45971
G1 X97.704 Y82.506 E27.48382
G1 X69.994 Y54.796 E28.30620
G1 X71.143 Y54.796 E28.33031
G1 X97.704 Y81.357 E29.11859
G1 X97.704 Y80.208 E29.14270
G1 X72.292 Y54.796 E29.89688
G1 X73.441 Y54.796 E29.92099
G1 X97.704 Y79.059 E30.64106
G1 X97.704 Y77.910 E30.66518
G1 X74.590 Y54.796 E31.35115
G1 X75.739 Y54.796 E31.37526
G1 X97.704 Y76.761 E32.02713
G1 X97.704 Y75.612 E32.05125
G1 X87.439 Y65.346 E32.35590
G1 X87.343 Y65.250 F6000.000
G1 X76.888 Y54.796 F1080.000 E32.66616
G1 X78.038 Y54.796 E32.69027
G1 X86.790 Y63.548 E32.95003
G1 X86.704 Y62.313 E32.97600
G1 X79.187 Y54.796 E33.19911
G1 X80.336 Y54.796 E33.22323
G1 X86.704 Y61.164 E33.41224
G1 X86.704 Y60.015 E33.43635
G1 X81.485 Y54.796 E33.59126
G1 X82.634 Y54.796 E33.61537
G1 X86.704 Y58.866 E33.73618
G1 X86.704 Y57.717 E33.76029
G1 X83.783 Y54.796 E33.84700
G1 X84.932 Y54.796 E33.87111
G1 X86.704 Y56.568 E33.92372
G1 X86.777 Y55.492 E33.94636
G1 X86.081 Y54.796 E33.96702
G1 F600.000 E32.96702
G92 E0
G1 X94.124 Y54.796 F6000.000
G1 F600.000 E1.00000
G1 X97.704 Y58.376 F1080.000 E1.10625
G1 X97.704 Y57.227 E1.13036
G1 X95.273 Y54.796 E1.20251
G1 X96.422 Y54.796 E1.22663
G1 X97.704 Y56.078 E1.26468
G1 X97.704 Y54.929 E1.28879
G1 X97.571 Y54.796 E1.29274
G1 F600.000 E0.29274
G92 E0
G1 X94.296 Y56.116 F6000.000
G1 F600.000 E1.00000
G1 X97.704 Y59.525 F1080.000 E1.10116
G1 X97.704 Y60.674 E1.12528
G1 X94.296 Y57.265 E1.22644
G1 X94.296 Y58.414 E1.25055
G1 X97.704 Y61.823 E1.35172
G1 X97.704 Y62.972 E1.37583
G1 X94.296 Y59.563 E1.47700
G1 X94.296 Y60.712 E1.50111
G1 X97.704 Y64.121 E1.60227
G1 X97.704 Y65.270 E1.62639
G1 X94.296 Y61.861 E1.72755
G1 X94.296 Y63.010 E1.75166
G1 X97.704 Y66.419 E1.85283
G1 X97.704 Y67.568 E1.87694
G1 X94.081 Y63.945 E1.98447
G1 X93.799 Y64.812 E2.00361
G1 X97.704 Y68.717 E2.11950
G1 X97.704 Y69.866 E2.14361
G1 X93.343 Y65.505 E2.27306
G1 X92.677 Y65.988 E2.29032
G1 X97.704 Y71.015 E2.43951
G1 X97.704 Y72.164 E2.46362
G1 X92.012 Y66.472 E2.63256
G1 X91.088 Y66.697 E2.65251
G1 X97.704 Y73.313 E2.84886
G1 X97.704 Y74.462 E2.87297
G1 X89.939 Y66.697 E3.10342
G1 F600.000 E2.10342
G92 E0
G1 X93.947 Y85.643 F6000.000
G1 F600.000 E1.00000
G1 X97.704 Y89.400 F1080.000 E1.11151
G1 X97.704 Y90.549 E1.13562
G1 X94.296 Y87.140 E1.23678
G1 X94.296 Y88.289 E1.26090
G1 X97.704 Y91.698 E1.36206
G1 X97.704 Y92.847 E1.38617
G1 X94.296 Y89.439 E1.48734
G1 X94.296 Y90.588 E1.51145
G1 X97.704 Y93.996 E1.61261
G1 X97.704 Y95.145 E1.63673
G1 X94.296 Y91.737 E1.73789
G1 X94.296 Y92.886 E1.76200
G1 X96.614 Y95.204 E1.83082
G1 X95.465 Y95.204 E1.85493
G1 X94.296 Y94.035 E1.88964
G1 X94.075 Y94.963 E1.90967
G1 X94.316 Y95.204 E1.91683
G1 F600.000 E0.91683
G92 E0
G1 X41.117 Y68.556 F6000.000
G1 F600.000 E1.00000
G1 X41.006 Y68.444 F240.000 E1.00505
G1 X42.766 Y68.444 E1.06164
G1 X42.877 Y68.556 E1.06669
G1 X44.526 Y68.444 E1.11982
G1 X44.637 Y68.556 E1.12487
G1 X46.287 Y68.444 E1.17801
G1 X46.398 Y68.556 E1.18306
G1 X48.047 Y68.444 E1.23620
G1 X48.158 Y68.556 E1.24125
G1 X49.807 Y68.444 E1.29438
G1 X49.918 Y68.556 E1.29943
G1 F600.000 E0.29943
G92 E0
G1 X100.965 Y68.556 F6000.000
G1 F600.000 E1.00000
G1 X100.854 Y68.444 F240.000 E1.00500
G1 X102.615 Y68.444 F6000.000
G1 X102.726 Y68.556 F240.000 E1.00999
G1 X104.375 Y68.444 F6000.000
G1 X104.486 Y68.556 F240.000 E1.01499
G1 X106.135 Y68.444 F6000.000
G1 X106.246 Y68.556 F240.000 E1.01999
G1 X107.895 Y68.444 F6000.000
G1 X108.006 Y68.556 F240.000 E1.02499
G1 X109.656 Y68.444 F6000.000
G1 X109.767 Y68.556 F240.000 E1.02998
G1 F600.000 E0.02998
G92 E0
G1 Z0.400 F6000.000
G1 X93.711 Y63.192
G1 F600.000 E1.00000
G1 X93.711 Y55.808 F5400.000 E1.15391
G1 X93.192 Y54.211 E1.18893
G1 X98.289 Y54.211 E1.29519
G1 X98.289 Y95.789 E2.16192
G1 X93.192 Y95.789 E2.26818
G1 X93.711 Y94.192 E2.30320
G1 X93.711 Y86.808 E2.45711
G1 X93.148 Y85.077 E2.49505
G1 X91.512 Y83.888 E2.53722
G1 X89.488 Y83.888 E2.57940
G1 X87.852 Y85.077 E2.62158
G1 X87.289 Y86.808 E2.65952
G1 X87.289 Y94.192 E2.81343
G1 X87.808 Y95.789 E2.84845
G1 X62.192 Y95.789 E3.38244
G1 X62.711 Y94.192 E3.41745
G1 X62.711 Y86.808 E3.57136
G1 X62.148 Y85.077 E3.60931
G1 X60.512 Y83.888 E3.65148
G1 X58.488 Y83.888 E3.69366
G1 X56.852 Y85.077 E3.73583
G1 X56.289 Y86.808 E3.77378
G1 X56.289 Y94.192 E3.92769
G1 X56.808 Y95.789 E3.96270
G1 X51.711 Y95.789 E4.06897
G1 X51.711 Y54.211 E4.93569
G1 X56.808 Y54.211 E5.04196
G1 X56.289 Y55.808 E5.07697
G1 X56.289 Y63.192 E5.23088
G1 X56.852 Y64.923 E5.26883
G1 X58.488 Y66.112 E5.31100
G1 X60.512 Y66.112 E5.35318
G1 X62.148 Y64.923 E5.39535
G1 X62.711 Y63.192 E5.43330
G1 X62.711 Y55.808 E5.58721
G1 X62.192 Y54.211 E5.62222
G1 X87.808 Y54.211 E6.15621
G1 X87.289 Y55.808 E6.19123
G1 X87.289 Y63.192 E6.34514
G1 X87.852 Y64.923 E6.38308
G1 X89.488 Y66.112 E6.42526
G1 X91.512 Y66.112 E6.46744
G1 X93.148 Y64.923 E6.50961
G1 X93.673 Y63.307 E6.54503
G1 X92.904 Y63.064 F6000.000
G1 X92.904 Y55.936 F5400.000 E6.69361
G1 X92.462 Y54.576 E6.72343
G1 X90.995 Y53.510 E6.76122
G1 X91.030 Y53.404 E6.76355
G1 X99.096 Y53.404 E6.93170
G1 X99.096 Y67.404 E7.22353
G1 X111.096 Y67.404 E7.47368
G1 X111.096 Y69.596 E7.51939
G1 X99.096 Y69.596 E7.76954
G1 X99.096 Y96.596 E8.33236
G1 X91.030 Y96.596 E8.50051
G1 X90.995 Y96.490 E8.50285
G1 X92.462 Y95.424 E8.54063
G1 X92.904 Y94.064 E8.57045
G1 X92.904 Y86.936 E8.71903
G1 X92.462 Y85.576 E8.74885
G1 X91.249 Y84.695 E8.78008
G1 X89.751 Y84.695 E8.81133
G1 X88.538 Y85.576 E8.84257
G1 X88.096 Y86.936 E8.87238
G1 X88.096 Y94.064 E9.02096
G1 X88.538 Y95.424 E9.05078
G1 X90.005 Y96.490 E9.08857
G1 X89.970 Y96.596 E9.09090
G1 X60.030 Y96.596 E9.71502
G1 X59.995 Y96.490 E9.71735
G1 X61.462 Y95.424 E9.75514
G1 X61.904 Y94.064 E9.78495
G1 X61.904 Y86.936 E9.93354
G1 X61.462 Y85.576 E9.96335
G1 X60.249 Y84.695 E9.99459
G1 X58.751 Y84.695 E10.02583
G1 X57.538 Y85.576 E10.05707
G1 X57.096 Y86.936 E10.08689
G1 X57.096 Y94.064 E10.23547
G1 X57.538 Y95.424 E10.26528
G1 X59.005 Y96.490 E10.30307
G1 X58.970 Y96.596 E10.30541
G1 X50.904 Y96.596 E10.47356
G1 X50.904 Y69.596 E11.03638
G1 X38.904 Y69.596 E11.28653
G1 X38.904 Y67.404 E11.33224
G1 X50.904 Y67.404 E11.58238
G1 X50.904 Y53.404 E11.87422
G1 X58.970 Y53.404 E12.04237
G1 X59.005 Y53.510 E12.04470
G1 X57.538 Y54.576 E12.08249
G1 X57.096 Y55.936 E12.11231
G1 X57.096 Y63.064 E12.26089
G1 X57.538 Y64.424 E12.29070
G1 X58.751 Y65.305 E12.32194
G1 X60.249 Y65.305 E12.35319
G1 X61.462 Y64.424 E12.38442
G1 X61.904 Y63.064 E12.41424
G1 X61.904 Y55.936 E12.56282
G1 X61.462 Y54.576 E12.59264
G1 X59.995 Y53.510 E12.63043
G1 X60.030 Y53.404 E12.63276
G1 X89.970 Y53.404 E13.25687
G1 X90.005 Y53.510 E13.25921
G1 X88.538 Y54.576 E13.29700
G1 X88.096 Y55.936 E13.32681
G1 X88.096 Y63.064 E13.47539
G1 X88.538 Y64.424 E13.50521
G1 X89.751 Y65.305 E13.53645
G1 X91.249 Y65.305 E13.56769
G1 X92.462 Y64.424 E13.59893
G1 X92.866 Y63.179 E13.62622
G1 F600.000 E12.62622
G92 E0
G1 X49.459 Y68.444 F6000.000
G1 F600.000 E1.00000
