; generated by Slic3r 0.9.10b on 2013-11-25 at 23:09:02

; layer_height = 0.2
; perimeters = 1
; top_solid_layers = 5
; bottom_solid_layers = 5
; fill_density = 0.4
; perimeter_speed = 90
; infill_speed = 90
; travel_speed = 100
; nozzle_diameter = 0.5
; filament_diameter = 2.9
; extrusion_multiplier = 0.853
; perimeters extrusion width = 0.85mm
; infill extrusion width = 1.02mm
; solid infill extrusion width = 0.85mm
; top infill extrusion width = 0.85mm

G21 ; set units to millimeters
;G28 ; home all axes
G90 ; use absolute coordinates
G92 E0
M82 ; use absolute distances for extrusion
G1 F600.000 E-1.00000
G92 E0
G1 Z0.200 F6000.000
G1 X38.637 Y38.537
G1 F600.000 E1.00000
G1 X39.657 Y37.737 F1080.000 E1.02702
G1 X40.797 Y37.147 E1.05378
G1 X42.037 Y36.787 E1.08070
G1 X43.327 Y36.657 E1.10772
G1 X108.327 Y36.657 E2.46267
G1 X109.657 Y36.787 E2.49053
G1 X110.927 Y37.177 E2.51822
G1 X112.107 Y37.807 E2.54610
G1 X113.137 Y38.657 E2.57394
G1 X113.987 Y39.687 E2.60178
G1 X114.617 Y40.867 E2.62966
G1 X115.007 Y42.137 E2.65736
G1 X115.137 Y43.467 E2.68521
G1 X115.127 Y46.807 E2.75484
G1 X113.467 Y79.867 E3.44485
G1 X113.377 Y80.677 E3.46184
G1 X113.197 Y81.457 E3.47853
G1 X105.197 Y108.457 E4.06554
G1 X104.637 Y109.797 E4.09581
G1 X103.807 Y110.997 E4.12623
G1 X102.737 Y111.977 E4.15647
G1 X101.487 Y112.717 E4.18676
G1 X100.107 Y113.177 E4.21708
G1 X98.667 Y113.337 E4.24728
G1 X49.667 Y113.337 E5.26870
G1 X48.227 Y113.177 E5.29890
G1 X46.847 Y112.717 E5.32923
G1 X45.597 Y111.977 E5.35951
G1 X44.527 Y110.997 E5.38975
G1 X43.697 Y109.797 E5.42017
G1 X43.137 Y108.457 E5.45044
G1 X35.137 Y81.457 E6.03745
G1 X34.927 Y80.507 E6.05773
G1 X34.857 Y79.527 E6.07822
G1 X34.867 Y76.187 E6.14784
G1 X36.527 Y43.127 E6.83786
G1 X36.717 Y41.847 E6.86483
G1 X37.137 Y40.627 E6.89173
G1 X37.787 Y39.507 E6.91872
G1 X38.557 Y38.628 E6.94308
G1 F600.000 E5.94308
G92 E0
G1 X50.877 Y77.744 F6000.000
G1 F600.000 E1.00000
G1 X97.456 Y77.744 F1080.000 E1.97095
G1 X97.456 Y105.323 E2.54584
G1 X92.165 Y105.323 E2.65614
G1 X92.684 Y103.725 E2.69116
G1 X92.684 Y96.342 E2.84507
G1 X92.121 Y94.610 E2.88303
G1 X90.484 Y93.421 E2.92521
G1 X88.462 Y93.421 E2.96735
G1 X86.825 Y94.610 E3.00953
G1 X86.263 Y96.342 E3.04749
G1 X86.263 Y103.725 E3.20140
G1 X86.782 Y105.323 E3.23642
G1 X63.166 Y105.323 E3.72869
G1 X63.686 Y103.725 E3.76370
G1 X63.686 Y96.342 E3.91762
G1 X63.123 Y94.610 E3.95557
G1 X61.486 Y93.421 E3.99775
G1 X59.464 Y93.421 E4.03989
G1 X57.827 Y94.610 E4.08207
G1 X57.264 Y96.342 E4.12003
G1 X57.264 Y103.725 E4.27394
G1 X57.784 Y105.323 E4.30896
G1 X50.877 Y105.323 E4.45293
G1 X50.877 Y77.865 E5.02529
G1 X50.070 Y79.130 F6000.000
G1 X42.070 Y79.130 F1080.000 E5.19206
G1 X42.070 Y76.937 E5.23777
G1 X106.263 Y76.937 E6.57589
G1 X106.263 Y79.130 E6.62161
G1 X98.263 Y79.130 E6.78837
G1 X98.263 Y106.130 E7.35119
G1 X90.003 Y106.130 E7.52338
G1 X89.968 Y106.023 E7.52572
G1 X91.435 Y104.958 E7.56350
G1 X91.877 Y103.597 E7.59332
G1 X91.877 Y96.469 E7.74190
G1 X91.435 Y95.109 E7.77173
G1 X90.222 Y94.228 E7.80298
G1 X88.725 Y94.228 E7.83418
G1 X87.512 Y95.109 E7.86543
G1 X87.070 Y96.469 E7.89526
G1 X87.070 Y103.597 E8.04384
G1 X87.512 Y104.958 E8.07366
G1 X88.978 Y106.023 E8.11145
G1 X88.944 Y106.130 E8.11378
G1 X61.005 Y106.130 E8.69617
G1 X60.970 Y106.023 E8.69851
G1 X62.436 Y104.958 E8.73629
G1 X62.879 Y103.597 E8.76611
G1 X62.879 Y96.469 E8.91470
G1 X62.436 Y95.109 E8.94452
G1 X61.224 Y94.228 E8.97577
G1 X59.727 Y94.228 E9.00698
G1 X58.514 Y95.109 E9.03823
G1 X58.072 Y96.469 E9.06805
G1 X58.072 Y103.597 E9.21663
G1 X58.514 Y104.958 E9.24646
G1 X59.980 Y106.023 E9.28424
G1 X59.945 Y106.130 E9.28657
G1 X50.070 Y106.130 E9.49243
G1 X50.070 Y79.251 E10.05273
G1 F600.000 E9.05273
G92 E0
G1 X61.474 Y92.835 F6000.000
G1 F600.000 E1.00000
G1 X51.462 Y82.824 F1080.000 E1.29694
G1 X51.462 Y83.972 E1.32102
G1 X60.326 Y92.835 E1.58390
G1 X59.218 Y92.876 E1.60714
G1 X51.462 Y85.120 E1.83717
G1 X51.462 Y86.268 E1.86125
G1 X58.553 Y93.359 E2.07155
G1 X57.888 Y93.843 E2.08879
G1 X51.462 Y87.417 E2.27937
G1 X51.462 Y88.565 E2.30345
G1 X57.285 Y94.387 E2.47613
G1 X57.003 Y95.254 E2.49524
G1 X51.462 Y89.713 E2.65957
G1 X51.462 Y90.862 E2.68365
G1 X56.721 Y96.121 E2.83962
G1 X56.679 Y97.227 E2.86284
G1 X51.462 Y92.010 E3.01757
G1 X51.462 Y93.158 E3.04165
G1 X56.679 Y98.375 E3.19639
G1 X56.679 Y99.524 E3.22047
G1 X51.462 Y94.307 E3.37520
G1 X51.462 Y95.455 E3.39928
G1 X56.679 Y100.672 E3.55402
G1 X56.679 Y101.820 E3.57810
G1 X51.462 Y96.603 E3.73283
G1 X51.462 Y97.751 E3.75691
G1 X56.679 Y102.969 E3.91164
G1 X56.823 Y104.261 E3.93891
G1 X51.462 Y98.900 E4.09792
G1 X51.462 Y100.048 E4.12200
G1 X56.152 Y104.738 E4.26109
G1 X55.004 Y104.738 E4.28517
G1 X51.462 Y101.196 E4.39020
G1 X51.462 Y102.345 E4.41428
G1 X53.855 Y104.738 E4.48526
G1 X52.707 Y104.738 E4.50934
G1 X51.462 Y103.493 E4.54626
G1 X51.462 Y104.641 E4.57034
G1 X51.559 Y104.738 E4.57320
G1 F600.000 E3.57320
G92 E0
G1 X64.190 Y104.738 F6000.000
G1 F600.000 E1.00000
G1 X64.025 Y104.573 F1080.000 E1.00489
G1 X64.271 Y103.670 E1.02451
G1 X65.338 Y104.738 E1.05617
G1 X66.487 Y104.738 E1.08025
G1 X64.271 Y102.522 E1.14597
G1 X64.271 Y101.374 E1.17005
G1 X67.635 Y104.738 E1.26983
G1 X68.783 Y104.738 E1.29391
G1 X64.271 Y100.225 E1.42774
G1 X64.271 Y99.077 E1.45182
G1 X69.932 Y104.738 E1.61971
G1 X71.080 Y104.738 E1.64379
G1 X64.271 Y97.929 E1.84574
G1 X64.271 Y96.780 E1.86982
G1 X72.228 Y104.738 E2.10582
G1 X73.376 Y104.738 E2.12990
G1 X63.974 Y95.335 E2.40877
G1 F600.000 E1.40877
G92 E0
G1 X74.525 Y104.738 F6000.000
G1 F600.000 E1.00000
G1 X51.462 Y81.675 F1080.000 E1.68399
G1 X51.462 Y80.527 E1.70807
G1 X75.673 Y104.738 E2.42612
G1 X76.821 Y104.738 E2.45020
G1 X51.462 Y79.379 E3.20231
G1 X51.561 Y78.329 E3.22442
G1 X77.970 Y104.738 E4.00766
G1 X79.118 Y104.738 E4.03174
G1 X52.709 Y78.329 E4.81498
G1 X53.857 Y78.329 E4.83906
G1 X80.266 Y104.738 E5.62230
G1 X81.414 Y104.738 E5.64638
G1 X55.006 Y78.329 E6.42962
G1 X56.154 Y78.329 E6.45370
G1 X82.563 Y104.738 E7.23694
G1 X83.711 Y104.738 E7.26102
G1 X57.302 Y78.329 E8.04425
G1 X58.451 Y78.329 E8.06834
G1 X84.859 Y104.738 E8.85157
G1 X85.962 Y104.692 E8.87471
G1 X59.599 Y78.329 E9.65658
G1 X60.747 Y78.329 E9.68067
G1 X85.678 Y103.259 E10.42006
G1 X85.678 Y102.111 E10.44414
G1 X61.895 Y78.329 E11.14948
G1 X63.044 Y78.329 E11.17356
G1 X85.678 Y100.963 E11.84484
G1 X85.678 Y99.814 E11.86892
G1 X64.192 Y78.329 E12.50615
G1 X65.340 Y78.329 E12.53023
G1 X85.678 Y98.666 E13.13340
G1 X85.678 Y97.518 E13.15748
G1 X66.489 Y78.329 E13.72659
G1 X67.637 Y78.329 E13.75067
G1 X85.678 Y96.370 E14.28572
G1 X85.930 Y95.473 E14.30525
G1 X68.785 Y78.329 E14.81372
G1 X69.934 Y78.329 E14.83780
G1 X86.211 Y94.607 E15.32058
G1 X86.718 Y93.965 E15.33772
G1 X71.082 Y78.329 E15.80146
G1 X72.230 Y78.329 E15.82554
G1 X87.383 Y93.482 E16.27495
G1 X88.048 Y92.999 E16.29219
G1 X73.378 Y78.329 E16.72726
G1 X74.527 Y78.329 E16.75134
G1 X89.033 Y92.835 E17.18158
G1 X90.182 Y92.835 E17.20566
G1 X75.675 Y78.329 E17.63590
G1 X76.823 Y78.329 E17.65998
G1 X96.871 Y98.377 E18.25456
G1 X96.871 Y97.228 E18.27865
G1 X77.972 Y78.329 E18.83917
G1 X79.120 Y78.329 E18.86325
G1 X96.871 Y96.080 E19.38972
G1 X96.871 Y94.932 E19.41380
G1 X80.268 Y78.329 E19.90622
G1 X81.416 Y78.329 E19.93030
G1 X96.871 Y93.784 E20.38865
G1 X96.871 Y92.635 E20.41273
G1 X82.565 Y78.329 E20.83703
G1 X83.713 Y78.329 E20.86112
G1 X96.871 Y91.487 E21.25136
G1 X96.871 Y90.339 E21.27544
G1 X84.861 Y78.329 E21.63163
G1 X86.010 Y78.329 E21.65571
G1 X96.871 Y89.190 E21.97784
G1 X96.871 Y88.042 E22.00192
G1 X87.158 Y78.329 E22.28999
G1 X88.306 Y78.329 E22.31408
G1 X96.871 Y86.894 E22.56809
G1 X96.871 Y85.745 E22.59218
G1 X89.455 Y78.329 E22.81214
G1 X90.603 Y78.329 E22.83622
G1 X96.871 Y84.597 E23.02212
G1 X96.871 Y83.449 E23.04620
G1 X91.751 Y78.329 E23.19805
G1 X92.899 Y78.329 E23.22213
G1 X96.871 Y82.301 E23.33993
G1 X96.871 Y81.152 E23.36401
G1 X94.048 Y78.329 E23.44774
G1 X95.196 Y78.329 E23.47182
G1 X96.871 Y80.004 E23.52150
G1 X96.871 Y78.856 E23.54558
G1 X96.344 Y78.329 E23.56121
G1 F600.000 E22.56121
G92 E0
G1 X93.112 Y95.766 F6000.000
G1 F600.000 E1.00000
G1 X96.871 Y99.525 F1080.000 E1.11149
G1 X96.871 Y100.673 E1.13557
G1 X93.269 Y97.071 E1.24241
G1 X93.269 Y98.219 E1.26649
G1 X96.871 Y101.822 E1.37332
G1 X96.871 Y102.970 E1.39740
G1 X93.269 Y99.368 E1.50424
G1 X93.269 Y100.516 E1.52832
G1 X96.871 Y104.118 E1.63516
G1 X96.342 Y104.738 E1.65224
G1 X93.269 Y101.664 E1.74339
G1 X93.269 Y102.813 E1.76747
G1 X95.194 Y104.738 E1.82457
G1 X94.046 Y104.738 E1.84865
G1 X93.234 Y103.926 E1.87273
G1 F600.000 E0.87273
G92 E0
G1 X44.416 Y78.089 F6000.000
G1 F600.000 E1.00000
G1 X44.305 Y77.978 F240.000 E1.00500
G1 X46.050 Y77.978 E1.06060
G1 X46.161 Y78.089 E1.06561
G1 X47.795 Y77.978 E1.11779
G1 X47.906 Y78.089 E1.12279
G1 X49.539 Y77.978 E1.17498
G1 X49.650 Y78.089 E1.17998
G1 F600.000 E0.17998
G92 E0
G1 X98.505 Y78.089 F6000.000
G1 F600.000 E1.00000
G1 X98.497 Y78.081 F240.000 E1.00037
G1 X100.139 Y77.978 F6000.000
G1 X100.250 Y78.089 F240.000 E1.00536
G1 X101.884 Y77.978 F6000.000
G1 X101.995 Y78.089 F240.000 E1.01036
G1 X103.629 Y77.978 F6000.000
G1 X103.740 Y78.089 F240.000 E1.01536
G1 F600.000 E0.01536
G92 E0
G1 X99.123 Y72.256 F6000.000
G1 F600.000 E1.00000
G1 X93.831 Y72.256 F1080.000 E1.11030
G1 X94.351 Y70.658 E1.14532
G1 X94.351 Y63.275 E1.29923
G1 X93.788 Y61.543 E1.33719
G1 X92.151 Y60.354 E1.37937
G1 X90.129 Y60.354 E1.42151
G1 X88.492 Y61.543 E1.46369
G1 X87.929 Y63.275 E1.50165
G1 X87.929 Y70.658 E1.65556
G1 X88.448 Y72.256 E1.69058
G1 X64.833 Y72.256 E2.18285
G1 X65.352 Y70.658 E2.21786
G1 X65.352 Y63.275 E2.37178
G1 X64.790 Y61.543 E2.40973
G1 X63.153 Y60.354 E2.45191
G1 X61.131 Y60.354 E2.49405
G1 X59.494 Y61.543 E2.53623
G1 X58.931 Y63.275 E2.57419
G1 X58.931 Y70.658 E2.72810
G1 X59.450 Y72.256 E2.76312
G1 X52.544 Y72.256 E2.90709
G1 X52.544 Y44.677 E3.48198
G1 X99.123 Y44.677 E4.45293
G1 X99.123 Y72.135 E5.02529
G1 X99.930 Y73.063 F6000.000
G1 X91.670 Y73.063 F1080.000 E5.19748
G1 X91.635 Y72.957 E5.19982
G1 X93.101 Y71.891 E5.23760
G1 X93.543 Y70.531 E5.26742
G1 X93.543 Y63.403 E5.41600
G1 X93.101 Y62.042 E5.44583
G1 X91.888 Y61.161 E5.47708
G1 X90.391 Y61.161 E5.50828
G1 X89.179 Y62.042 E5.53953
G1 X88.736 Y63.403 E5.56936
G1 X88.736 Y70.531 E5.71794
G1 X89.179 Y71.891 E5.74776
G1 X90.645 Y72.957 E5.78555
G1 X90.610 Y73.063 E5.78788
G1 X62.671 Y73.063 E6.37027
G1 X62.637 Y72.957 E6.37261
G1 X64.103 Y71.891 E6.41039
G1 X64.545 Y70.531 E6.44021
G1 X64.545 Y63.403 E6.58880
G1 X64.103 Y62.042 E6.61862
G1 X62.890 Y61.161 E6.64987
G1 X61.393 Y61.161 E6.68108
G1 X60.180 Y62.042 E6.71233
G1 X59.738 Y63.403 E6.74215
G1 X59.738 Y70.531 E6.89073
G1 X60.180 Y71.891 E6.92056
G1 X61.647 Y72.957 E6.95834
G1 X61.612 Y73.063 E6.96067
G1 X51.737 Y73.063 E7.16653
G1 X51.737 Y46.063 E7.72935
G1 X43.737 Y46.063 E7.89611
G1 X43.737 Y43.870 E7.94183
G1 X107.930 Y43.870 E9.27995
G1 X107.930 Y46.063 E9.32566
G1 X99.930 Y46.063 E9.49243
G1 X99.930 Y72.942 E10.05273
G1 F600.000 E9.05273
G92 E0
G1 X94.900 Y70.859 F6000.000
G1 F600.000 E1.00000
G1 X95.712 Y71.671 F1080.000 E1.02408
G1 X96.861 Y71.671 E1.04816
G1 X94.936 Y69.746 E1.10526
G1 X94.936 Y68.598 E1.12934
G1 X98.009 Y71.671 E1.22049
G1 X98.538 Y71.052 E1.23757
G1 X94.936 Y67.449 E1.34441
G1 X94.936 Y66.301 E1.36849
G1 X98.538 Y69.903 E1.47532
G1 X98.538 Y68.755 E1.49941
G1 X94.936 Y65.153 E1.60624
G1 X94.936 Y64.004 E1.63032
G1 X98.538 Y67.607 E1.73716
G1 X98.538 Y66.458 E1.76124
G1 X94.779 Y62.699 E1.87273
G1 F600.000 E0.87273
G92 E0
G1 X98.011 Y45.262 F6000.000
G1 F600.000 E1.00000
G1 X98.538 Y45.789 F1080.000 E1.01562
G1 X98.538 Y46.937 E1.03970
G1 X96.863 Y45.262 E1.08938
G1 X95.714 Y45.262 E1.11346
G1 X98.538 Y48.086 E1.19720
G1 X98.538 Y49.234 E1.22128
G1 X94.566 Y45.262 E1.33907
G1 X93.418 Y45.262 E1.36315
G1 X98.538 Y50.382 E1.51500
G1 X98.538 Y51.531 E1.53908
G1 X92.269 Y45.262 E1.72499
G1 X91.121 Y45.262 E1.74907
G1 X98.538 Y52.679 E1.96903
G1 X98.538 Y53.827 E1.99311
G1 X89.973 Y45.262 E2.24713
G1 X88.825 Y45.262 E2.27121
G1 X98.538 Y54.975 E2.55929
G1 X98.538 Y56.124 E2.58337
G1 X87.676 Y45.262 E2.90550
G1 X86.528 Y45.262 E2.92958
G1 X98.538 Y57.272 E3.28577
G1 X98.538 Y58.420 E3.30985
G1 X85.380 Y45.262 E3.70009
G1 X84.231 Y45.262 E3.72417
G1 X98.538 Y59.569 E4.14847
G1 X98.538 Y60.717 E4.17255
G1 X83.083 Y45.262 E4.63091
G1 X81.935 Y45.262 E4.65499
G1 X98.538 Y61.865 E5.14740
G1 X98.538 Y63.013 E5.17148
G1 X80.787 Y45.262 E5.69795
G1 X79.638 Y45.262 E5.72204
G1 X98.538 Y64.162 E6.28256
G1 X98.538 Y65.310 E6.30664
G1 X78.490 Y45.262 E6.90122
G1 X77.342 Y45.262 E6.92531
G1 X91.848 Y59.769 E7.35554
G1 X90.700 Y59.769 E7.37963
G1 X76.193 Y45.262 E7.80987
G1 X75.045 Y45.262 E7.83395
G1 X89.715 Y59.932 E8.26902
G1 X89.050 Y60.415 E8.28626
G1 X73.897 Y45.262 E8.73567
G1 X72.748 Y45.262 E8.75975
G1 X88.384 Y60.898 E9.22348
G1 X87.878 Y61.540 E9.24063
G1 X71.600 Y45.262 E9.72340
G1 X70.452 Y45.262 E9.74748
G1 X87.596 Y62.407 E10.25596
G1 X87.344 Y63.303 E10.27548
G1 X69.304 Y45.262 E10.81054
G1 X68.155 Y45.262 E10.83462
G1 X87.344 Y64.451 E11.40373
G1 X87.344 Y65.600 E11.42781
G1 X67.007 Y45.262 E12.03098
G1 X65.859 Y45.262 E12.05506
G1 X87.344 Y66.748 E12.69228
G1 X87.344 Y67.896 E12.71637
G1 X64.710 Y45.262 E13.38765
G1 X63.562 Y45.262 E13.41173
G1 X87.344 Y69.044 E14.11707
G1 X87.344 Y70.193 E14.14115
G1 X62.414 Y45.262 E14.88054
G1 X61.266 Y45.262 E14.90462
G1 X87.628 Y71.625 E15.68650
G1 X86.526 Y71.671 E15.70963
G1 X60.117 Y45.262 E16.49287
G1 X58.969 Y45.262 E16.51695
G1 X85.378 Y71.671 E17.30019
G1 X84.229 Y71.671 E17.32427
G1 X57.821 Y45.262 E18.10751
G1 X56.672 Y45.262 E18.13159
G1 X83.081 Y71.671 E18.91483
G1 X81.933 Y71.671 E18.93891
G1 X55.524 Y45.262 E19.72215
G1 X54.376 Y45.262 E19.74623
G1 X80.785 Y71.671 E20.52947
G1 X79.636 Y71.671 E20.55355
G1 X53.227 Y45.262 E21.33679
G1 X53.129 Y46.312 E21.35890
G1 X78.488 Y71.671 E22.11100
G1 X77.340 Y71.671 E22.13509
G1 X53.129 Y47.460 E22.85313
G1 X53.129 Y48.609 E22.87722
G1 X76.191 Y71.671 E23.56121
G1 F600.000 E22.56121
G92 E0
G1 X65.857 Y71.671 F6000.000
G1 F600.000 E1.00000
G1 X65.692 Y71.506 F1080.000 E1.00489
G1 X65.937 Y70.603 E1.02451
G1 X67.005 Y71.671 E1.05617
G1 X68.153 Y71.671 E1.08025
G1 X65.937 Y69.455 E1.14597
G1 X65.937 Y68.307 E1.17005
G1 X69.302 Y71.671 E1.26983
G1 X70.450 Y71.671 E1.29391
G1 X65.937 Y67.159 E1.42774
G1 X65.937 Y66.010 E1.45182
G1 X71.598 Y71.671 E1.61971
G1 X72.746 Y71.671 E1.64379
G1 X65.937 Y64.862 E1.84574
G1 X65.937 Y63.714 E1.86982
G1 X73.895 Y71.671 E2.10582
G1 X75.043 Y71.671 E2.12990
G1 X65.640 Y62.268 E2.40877
G1 F600.000 E1.40877
G92 E0
G1 X63.141 Y59.769 F6000.000
G1 F600.000 E1.00000
G1 X53.129 Y49.757 F1080.000 E1.29694
G1 X53.129 Y50.905 E1.32102
G1 X61.993 Y59.769 E1.58390
G1 X60.885 Y59.809 E1.60714
G1 X53.129 Y52.054 E1.83717
G1 X53.129 Y53.202 E1.86125
G1 X60.220 Y60.293 E2.07155
G1 X59.555 Y60.776 E2.08879
G1 X53.129 Y54.350 E2.27937
G1 X53.129 Y55.498 E2.30345
G1 X58.951 Y61.321 E2.47613
G1 X58.670 Y62.187 E2.49524
G1 X53.129 Y56.647 E2.65957
G1 X53.129 Y57.795 E2.68365
G1 X58.388 Y63.054 E2.83962
G1 X58.346 Y64.160 E2.86284
G1 X53.129 Y58.943 E3.01757
G1 X53.129 Y60.092 E3.04165
G1 X58.346 Y65.309 E3.19639
G1 X58.346 Y66.457 E3.22047
G1 X53.129 Y61.240 E3.37520
G1 X53.129 Y62.388 E3.39928
G1 X58.346 Y67.605 E3.55402
G1 X58.346 Y68.754 E3.57810
G1 X53.129 Y63.536 E3.73283
G1 X53.129 Y64.685 E3.75691
G1 X58.346 Y69.902 E3.91164
G1 X58.490 Y71.194 E3.93891
G1 X53.129 Y65.833 E4.09792
G1 X53.129 Y66.981 E4.12200
G1 X57.819 Y71.671 E4.26109
G1 X56.670 Y71.671 E4.28517
G1 X53.129 Y68.130 E4.39020
G1 X53.129 Y69.278 E4.41428
G1 X55.522 Y71.671 E4.48526
G1 X54.374 Y71.671 E4.50934
G1 X53.129 Y70.426 E4.54626
G1 X53.129 Y71.575 E4.57034
G1 X53.225 Y71.671 E4.57320
G1 F600.000 E3.57320
G92 E0
G1 X46.083 Y45.022 F6000.000
G1 F600.000 E1.00000
G1 X45.972 Y44.911 F240.000 E1.00500
G1 X47.716 Y44.911 E1.06060
G1 X47.828 Y45.022 E1.06561
G1 X49.461 Y44.911 E1.11779
G1 X49.572 Y45.022 E1.12279
G1 X51.206 Y44.911 E1.17498
G1 X51.317 Y45.022 E1.17998
G1 F600.000 E0.17998
