; generated by Slic3r 0.9.10b on 2014-02-11 at 16:14:18

; layer_height = 0.2
; perimeters = 1
; top_solid_layers = 5
; bottom_solid_layers = 5
; fill_density = 0.4
; perimeter_speed = 90
; infill_speed = 90
; travel_speed = 100
; nozzle_diameter = 0.5
; filament_diameter = 2.9
; extrusion_multiplier = 0.853
; perimeters extrusion width = 0.85mm
; infill extrusion width = 1.02mm
; solid infill extrusion width = 0.85mm
; top infill extrusion width = 0.85mm
; support material extrusion width = 0.85mm

G21 ; set units to millimeters
;G28 ; home all axes
G90 ; use absolute coordinates
G92 E0
M82 ; use absolute distances for extrusion
G1 F600.000 E-1.00000
G92 E0
G1 Z0.200 F6000.000
G1 X38.220 Y58.840
G1 F600.000 E1.00000
G1 X39.400 Y58.210 F1080.000 E1.02788
G1 X40.670 Y57.820 E1.05558
G1 X42.000 Y57.690 E1.08343
G1 X108.000 Y57.690 E2.45923
G1 X109.330 Y57.820 E2.48708
G1 X110.600 Y58.210 E2.51478
G1 X111.780 Y58.840 E2.54266
G1 X112.810 Y59.690 E2.57050
G1 X113.660 Y60.720 E2.59834
G1 X114.290 Y61.900 E2.62622
G1 X114.680 Y63.170 E2.65392
G1 X114.810 Y64.500 E2.68177
G1 X114.810 Y68.500 E2.76515
G1 X114.740 Y69.470 E2.78543
G1 X114.530 Y70.420 E2.80571
G1 X109.530 Y87.420 E3.17509
G1 X108.970 Y88.760 E3.20536
G1 X108.140 Y89.960 E3.23578
G1 X107.080 Y90.950 E3.26601
G1 X105.830 Y91.690 E3.29629
G1 X104.450 Y92.150 E3.32661
G1 X103.000 Y92.310 E3.35702
G1 X47.000 Y92.310 E4.52436
G1 X45.550 Y92.150 E4.55477
G1 X44.170 Y91.690 E4.58510
G1 X42.920 Y90.950 E4.61538
G1 X41.860 Y89.960 E4.64561
G1 X41.030 Y88.760 E4.67603
G1 X40.470 Y87.420 E4.70630
G1 X35.470 Y70.420 E5.07568
G1 X35.260 Y69.470 E5.09596
G1 X35.190 Y68.500 E5.11623
G1 X35.190 Y64.500 E5.19962
G1 X35.320 Y63.170 E5.22747
G1 X35.710 Y61.900 E5.25517
G1 X36.340 Y60.720 E5.28305
G1 X37.190 Y59.690 E5.31089
G1 X38.127 Y58.917 E5.33620
G1 F600.000 E4.33620
G92 E0
G1 X42.069 Y64.096 F6000.000
G1 F600.000 E1.00000
G1 X71.931 Y64.096 F1080.000 E1.62247
G1 X72.404 Y64.569 E1.63641
G1 X72.404 Y68.431 E1.71691
G1 X71.931 Y68.904 E1.73084
G1 X67.404 Y68.904 E1.82522
G1 X67.404 Y85.431 E2.16973
G1 X66.931 Y85.904 E2.18367
G1 X47.069 Y85.904 E2.59769
G1 X46.596 Y85.431 E2.61163
G1 X46.596 Y68.904 E2.95614
G1 X42.069 Y68.904 E3.05051
G1 X41.596 Y68.431 E3.06445
G1 X41.596 Y64.569 E3.14495
G1 X41.984 Y64.182 E3.15636
G1 F600.000 E2.15636
G92 E0
G1 X77.596 Y64.569 F6000.000
G1 F600.000 E1.00000
G1 X78.069 Y64.096 F1080.000 E1.01394
G1 X107.931 Y64.096 E1.63641
G1 X108.404 Y64.569 E1.65035
G1 X108.404 Y68.431 E1.73084
G1 X107.931 Y68.904 E1.74478
G1 X103.404 Y68.904 E1.83915
G1 X103.404 Y85.431 E2.18367
G1 X102.931 Y85.904 E2.19761
G1 X83.069 Y85.904 E2.61163
G1 X82.596 Y85.431 E2.62556
G1 X82.596 Y68.904 E2.97008
G1 X78.069 Y68.904 E3.06445
G1 X77.596 Y68.431 E3.07839
G1 X77.596 Y64.690 E3.15636
G1 F600.000 E2.15636
G92 E0
G1 X89.656 Y69.986 F6000.000
G1 F600.000 E1.00000
G1 X96.344 Y69.986 F720.000 E1.13943
G1 F600.000 E0.13943
G92 E0
G1 X98.052 Y78.057 F6000.000
G1 F600.000 E1.00000
G1 X95.686 Y78.057 F720.000 E1.04931
G1 X96.585 Y76.443 E1.08783
G1 X98.984 Y76.443 E1.13782
G1 X99.140 Y74.829 E1.17163
G1 X96.658 Y74.829 E1.22337
G1 X95.957 Y73.214 E1.26005
G1 X98.208 Y73.214 E1.30697
G1 X97.276 Y71.600 E1.34582
G1 X88.724 Y71.600 E1.52411
G1 X87.792 Y73.214 E1.56296
G1 X90.043 Y73.214 E1.60988
G1 X89.342 Y74.829 E1.64656
G1 X86.860 Y74.829 E1.69830
G1 X87.016 Y76.443 E1.73211
G1 X89.415 Y76.443 E1.78210
G1 X90.314 Y78.057 E1.82062
G1 X87.948 Y78.057 E1.86993
G1 X88.880 Y79.671 E1.90878
G1 X97.120 Y79.671 E2.08053
G1 F600.000 E1.08053
G92 E0
G1 X102.596 Y85.096 F6000.000
G1 F600.000 E1.00000
G1 X83.404 Y85.096 F1080.000 E1.40008
G1 X83.404 Y68.096 E1.75445
G1 X78.404 Y68.096 E1.85868
G1 X78.404 Y64.904 E1.92524
G1 X107.596 Y64.904 E2.53378
G1 X107.596 Y68.096 E2.60033
G1 X102.596 Y68.096 E2.70456
G1 X102.596 Y84.975 E3.05641
G1 F600.000 E2.05641
G92 E0
G1 X101.501 Y73.946 F6000.000
G1 F600.000 E1.00000
G1 X97.699 Y67.361 F1080.000 E1.15850
G1 X88.301 Y67.361 E1.35441
G1 X84.499 Y73.946 E1.51291
G1 X84.211 Y73.869 E1.51914
G1 X84.211 Y67.289 E1.65629
G1 X79.211 Y67.289 E1.76052
G1 X79.211 Y65.711 E1.79343
G1 X106.789 Y65.711 E2.36832
G1 X106.789 Y67.289 E2.40123
G1 X101.789 Y67.289 E2.50545
G1 X101.789 Y73.869 E2.64261
G1 X101.618 Y73.915 E2.64631
G1 F600.000 E1.64631
G92 E0
G1 X101.501 Y77.054 F6000.000
G1 F600.000 E1.00000
G1 X101.789 Y77.131 F1080.000 E1.00623
G1 X101.789 Y84.289 E1.15544
G1 X97.323 Y84.289 E1.24854
G1 X101.440 Y77.159 E1.42018
G1 F600.000 E0.42018
G92 E0
G1 X88.677 Y84.289 F6000.000
G1 F600.000 E1.00000
G1 X84.211 Y84.289 F1080.000 E1.09310
G1 X84.211 Y77.131 E1.24231
G1 X84.499 Y77.054 E1.24854
G1 X88.616 Y84.185 E1.42018
G1 X88.767 Y82.832 F6000.000
G1 X84.534 Y75.500 F1080.000 E1.59666
G1 X88.767 Y68.168 E1.77313
G1 X97.233 Y68.168 E1.94961
G1 X101.466 Y75.500 E2.12608
G1 X97.233 Y82.832 E2.30256
G1 X88.888 Y82.832 E2.47651
G1 F600.000 E1.47651
G92 E0
G1 X98.417 Y83.704 F6000.000
G1 F600.000 E1.00000
G1 X98.366 Y83.654 F1080.000 E1.00150
G1 X98.785 Y82.928 E1.01902
G1 X99.561 Y83.704 E1.04198
G1 X100.706 Y83.704 E1.06592
G1 X99.204 Y82.202 E1.11034
G1 X99.623 Y81.476 E1.12786
G1 X101.204 Y83.058 E1.17462
G1 X101.204 Y81.913 E1.19856
G1 X100.042 Y80.750 E1.23293
G1 X100.461 Y80.025 E1.25045
G1 X101.204 Y80.768 E1.27243
G1 X101.204 Y79.623 E1.29637
G1 X100.880 Y79.299 E1.30595
G1 X101.013 Y79.558 F6000.000
G1 X100.825 Y79.370 F240.000 E1.30851
G1 X101.020 Y79.034 E1.31227
G1 X101.216 Y79.231 E1.31495
G1 X101.214 Y78.698 E1.32010
G1 F600.000 E0.32010
G92 E0
G1 X101.674 Y76.506 F6000.000
G1 F600.000 E1.00000
G1 X101.593 Y76.426 F240.000 E1.00110
G1 X101.788 Y76.090 E1.00485
G1 X102.023 Y76.325 E1.00807
G1 X102.023 Y75.795 E1.01320
G1 X101.982 Y75.754 E1.01376
G1 X102.023 Y75.265 F6000.000
G1 X101.950 Y75.192 F240.000 E1.01476
G1 X102.023 Y74.734 E1.01924
G1 X101.759 Y74.471 E1.02285
G1 F600.000 E0.02285
G92 E0
G1 X101.216 Y71.806 F6000.000
G1 F600.000 E1.00000
G1 X100.886 Y71.476 F240.000 E1.00451
G1 X101.204 Y71.609 F6000.000
G1 X100.312 Y70.717 F1080.000 E1.03082
G1 X101.204 Y70.464 F6000.000
G1 X98.748 Y68.008 F1080.000 E1.10324
G1 X98.180 Y66.296 F6000.000
G1 X101.204 Y69.320 F1080.000 E1.19239
G1 X101.204 Y68.175 F6000.000
G1 X99.325 Y66.296 F1080.000 E1.24778
G1 X100.470 Y66.296 F6000.000
G1 X101.204 Y67.030 F1080.000 E1.26943
G1 X101.960 Y66.716 F6000.000
G1 X101.556 Y66.312 F240.000 E1.27495
G1 X102.058 Y66.284 E1.27981
G1 X102.490 Y66.716 E1.28572
G1 X102.588 Y66.284 E1.29000
G1 X103.020 Y66.716 E1.29591
G1 X103.119 Y66.284 E1.30019
G1 X103.551 Y66.716 E1.30609
G1 X103.649 Y66.284 E1.31038
G1 X104.081 Y66.716 E1.31628
G1 X104.179 Y66.284 E1.32056
G1 X104.611 Y66.716 E1.32647
G1 X104.710 Y66.284 E1.33075
G1 X105.141 Y66.716 E1.33666
G1 X105.240 Y66.284 E1.34094
G1 X105.672 Y66.716 E1.34685
G1 X105.770 Y66.284 E1.35113
G1 X106.202 Y66.716 E1.35703
G1 F600.000 E0.35703
G92 E0
G1 X88.773 Y66.788 F6000.000
G1 F600.000 E1.00000
G1 X88.513 Y66.527 F240.000 E1.00356
G1 X88.800 Y66.284 E1.00720
G1 X89.303 Y66.788 E1.01409
G1 X89.330 Y66.284 E1.01896
G1 X89.834 Y66.788 E1.02585
G1 X89.860 Y66.284 E1.03073
G1 X90.364 Y66.788 E1.03761
G1 X90.391 Y66.284 E1.04249
G1 X90.894 Y66.788 E1.04938
G1 X90.921 Y66.284 E1.05425
G1 X91.425 Y66.788 E1.06114
G1 X91.451 Y66.284 E1.06602
G1 X91.955 Y66.788 E1.07290
G1 X91.982 Y66.284 E1.07778
G1 X92.485 Y66.788 E1.08467
G1 X92.512 Y66.284 E1.08954
G1 X93.016 Y66.788 E1.09643
G1 X93.042 Y66.284 E1.10131
G1 X93.546 Y66.788 E1.10819
G1 X93.573 Y66.284 E1.11307
G1 X94.076 Y66.788 E1.11996
G1 X94.103 Y66.284 E1.12483
G1 X94.607 Y66.788 E1.13172
G1 X94.633 Y66.284 E1.13660
G1 X95.137 Y66.788 E1.14348
G1 X95.164 Y66.284 E1.14836
G1 X95.667 Y66.788 E1.15525
G1 X95.694 Y66.284 E1.16012
G1 X96.198 Y66.788 E1.16701
G1 X96.224 Y66.284 E1.17189
G1 X96.728 Y66.788 E1.17878
G1 X96.755 Y66.284 E1.18365
G1 X97.258 Y66.788 E1.19054
G1 X97.431 Y66.430 E1.19438
G1 X97.285 Y66.284 E1.19638
G1 F600.000 E0.19638
G92 E0
G1 X88.108 Y66.526 F6000.000
G1 F600.000 E1.00000
G1 X87.877 Y66.296 F1080.000 E1.00680
G1 X87.688 Y67.252 F6000.000
G1 X86.732 Y66.296 F1080.000 E1.03499
G1 X85.587 Y66.296 F6000.000
G1 X87.269 Y67.978 F1080.000 E1.08459
G1 X86.850 Y68.704 F6000.000
G1 X84.796 Y66.649 F1080.000 E1.14516
G1 X84.796 Y67.794 F6000.000
G1 X86.431 Y69.429 F1080.000 E1.19338
G1 X86.012 Y70.155 F6000.000
G1 X84.796 Y68.939 F1080.000 E1.22925
G1 X84.796 Y70.083 F6000.000
G1 X85.593 Y70.881 F1080.000 E1.25277
G1 X85.174 Y71.607 F6000.000
G1 X84.796 Y71.228 F1080.000 E1.26393
G1 X84.964 Y71.994 F6000.000
G1 X84.784 Y71.814 F240.000 E1.26639
G1 X85.158 Y71.658 E1.27031
G1 X84.926 Y71.426 E1.27348
G1 F600.000 E0.27348
G92 E0
G1 X84.002 Y75.275 F6000.000
G1 F600.000 E1.00000
G1 X83.977 Y75.250 F240.000 E1.00034
G1 X84.196 Y74.939 E1.00402
G1 X83.977 Y74.720 E1.00702
G1 X84.265 Y74.477 E1.01065
G1 X84.390 Y74.602 E1.01237
G1 X84.205 Y76.539 F6000.000
G1 X83.977 Y76.311 F240.000 E1.01549
G1 X84.111 Y75.914 E1.01953
G1 X83.977 Y75.780 E1.02137
G1 F600.000 E0.02137
G92 E0
G1 X85.078 Y79.533 F6000.000
G1 F600.000 E1.00000
G1 X84.784 Y79.239 F240.000 E1.00403
G1 X84.804 Y78.729 E1.00898
G1 X84.784 Y78.709 E1.00925
G1 X84.883 Y79.330 F6000.000
G1 X85.485 Y79.932 F1080.000 E1.02699
G1 X84.796 Y80.387 F6000.000
G1 X87.049 Y82.641 F1080.000 E1.09343
G1 X86.968 Y83.704 F6000.000
G1 X84.796 Y81.532 F1080.000 E1.15747
G1 X84.796 Y82.677 F6000.000
G1 X85.823 Y83.704 F1080.000 E1.18777
G1 F600.000 E0.18777
G92 E0
G1 X90.726 Y84.056 F6000.000
G1 F600.000 E1.00000
G1 X90.543 Y83.873 F240.000 E1.00831
G1 X92.302 Y83.873 E1.06482
G1 X92.485 Y84.056 E1.07313
G1 X94.061 Y83.873 E1.12411
G1 X94.244 Y84.056 E1.13242
G1 X95.821 Y83.873 E1.18340
G1 X96.003 Y84.056 E1.19171
G1 F600.000 E0.19171
G92 E0
G1 X80.216 Y66.716 F6000.000
G1 F600.000 E1.00000
G1 X79.784 Y66.284 F240.000 E1.00591
G1 X80.314 Y66.284 E1.01103
G1 X80.746 Y66.716 E1.01694
G1 X80.845 Y66.284 E1.02122
G1 X81.277 Y66.716 E1.02713
G1 X81.375 Y66.284 E1.03141
G1 X81.807 Y66.716 E1.03731
G1 X81.905 Y66.284 E1.04160
G1 X82.337 Y66.716 E1.04750
G1 X82.436 Y66.284 E1.05178
G1 X82.868 Y66.716 E1.05769
G1 X82.966 Y66.284 E1.06197
G1 X83.398 Y66.716 E1.06788
G1 X83.496 Y66.284 E1.07216
G1 X83.928 Y66.716 E1.07807
G1 X84.027 Y66.284 E1.08235
G1 X84.444 Y66.702 E1.08806
G1 F600.000 E0.08806
G92 E0
G1 X60.344 Y69.986 F6000.000
G1 F600.000 E1.00000
G1 X53.656 Y69.986 F720.000 E1.13943
G1 F600.000 E0.13943
G92 E0
G1 X62.052 Y78.057 F6000.000
G1 F600.000 E1.00000
G1 X59.686 Y78.057 F720.000 E1.04931
G1 X60.585 Y76.443 E1.08783
G1 X62.984 Y76.443 E1.13782
G1 X63.140 Y74.829 E1.17163
G1 X60.658 Y74.829 E1.22337
G1 X59.957 Y73.214 E1.26005
G1 X62.208 Y73.214 E1.30697
G1 X61.276 Y71.600 E1.34582
G1 X52.724 Y71.600 E1.52411
G1 X51.792 Y73.214 E1.56296
G1 X54.043 Y73.214 E1.60988
G1 X53.342 Y74.829 E1.64656
G1 X50.860 Y74.829 E1.69830
G1 X51.016 Y76.443 E1.73211
G1 X53.415 Y76.443 E1.78210
G1 X54.314 Y78.057 E1.82062
G1 X51.948 Y78.057 E1.86993
G1 X52.880 Y79.671 E1.90878
G1 X61.120 Y79.671 E2.08053
G1 F600.000 E1.08053
G92 E0
G1 X66.596 Y85.096 F6000.000
G1 F600.000 E1.00000
G1 X47.404 Y85.096 F1080.000 E1.40008
G1 X47.404 Y68.096 E1.75445
G1 X42.404 Y68.096 E1.85868
G1 X42.404 Y64.904 E1.92524
G1 X71.596 Y64.904 E2.53378
G1 X71.596 Y68.096 E2.60033
G1 X66.596 Y68.096 E2.70456
G1 X66.596 Y84.975 E3.05641
G1 F600.000 E2.05641
G92 E0
G1 X65.501 Y73.946 F6000.000
G1 F600.000 E1.00000
G1 X61.699 Y67.361 F1080.000 E1.15850
G1 X52.301 Y67.361 E1.35441
G1 X48.499 Y73.946 E1.51291
G1 X48.211 Y73.869 E1.51914
G1 X48.211 Y67.289 E1.65629
G1 X43.211 Y67.289 E1.76052
G1 X43.211 Y65.711 E1.79343
G1 X70.789 Y65.711 E2.36832
G1 X70.789 Y67.289 E2.40123
G1 X65.789 Y67.289 E2.50545
G1 X65.789 Y73.869 E2.64261
G1 X65.618 Y73.915 E2.64631
G1 F600.000 E1.64631
G92 E0
G1 X65.501 Y77.054 F6000.000
G1 F600.000 E1.00000
G1 X65.789 Y77.131 F1080.000 E1.00623
G1 X65.789 Y84.289 E1.15544
G1 X61.323 Y84.289 E1.24854
G1 X65.440 Y77.159 E1.42018
G1 F600.000 E0.42018
G92 E0
G1 X52.677 Y84.289 F6000.000
G1 F600.000 E1.00000
G1 X48.211 Y84.289 F1080.000 E1.09310
G1 X48.211 Y77.131 E1.24231
G1 X48.499 Y77.054 E1.24854
G1 X52.616 Y84.185 E1.42018
G1 X52.767 Y82.832 F6000.000
G1 X48.534 Y75.500 F1080.000 E1.59666
G1 X52.767 Y68.168 E1.77313
G1 X61.233 Y68.168 E1.94961
G1 X65.466 Y75.500 E2.12608
G1 X61.233 Y82.832 E2.30256
G1 X52.888 Y82.832 E2.47651
G1 F600.000 E1.47651
G92 E0
G1 X62.417 Y83.704 F6000.000
G1 F600.000 E1.00000
G1 X62.366 Y83.654 F1080.000 E1.00150
G1 X62.785 Y82.928 E1.01902
G1 X63.561 Y83.704 E1.04198
G1 X64.706 Y83.704 E1.06592
G1 X63.204 Y82.202 E1.11034
G1 X63.623 Y81.476 E1.12786
G1 X65.204 Y83.058 E1.17462
G1 X65.204 Y81.913 E1.19856
G1 X64.042 Y80.750 E1.23293
G1 X64.461 Y80.025 E1.25045
G1 X65.204 Y80.768 E1.27243
G1 X65.204 Y79.623 E1.29637
G1 X64.880 Y79.299 E1.30595
G1 X65.013 Y79.558 F6000.000
G1 X64.825 Y79.370 F240.000 E1.30851
G1 X65.020 Y79.034 E1.31227
G1 X65.216 Y79.231 E1.31495
G1 X65.214 Y78.698 E1.32010
G1 F600.000 E0.32010
G92 E0
G1 X65.674 Y76.506 F6000.000
G1 F600.000 E1.00000
G1 X65.593 Y76.426 F240.000 E1.00110
G1 X65.788 Y76.090 E1.00485
G1 X66.023 Y76.325 E1.00807
G1 X66.023 Y75.795 E1.01320
G1 X65.982 Y75.754 E1.01376
G1 X66.023 Y75.265 F6000.000
G1 X65.950 Y75.192 F240.000 E1.01476
G1 X66.023 Y74.734 E1.01924
G1 X65.759 Y74.471 E1.02285
G1 F600.000 E0.02285
G92 E0
G1 X65.216 Y71.806 F6000.000
G1 F600.000 E1.00000
G1 X64.886 Y71.476 F240.000 E1.00451
G1 X65.204 Y71.609 F6000.000
G1 X64.312 Y70.717 F1080.000 E1.03082
G1 X65.204 Y70.464 F6000.000
G1 X62.748 Y68.008 F1080.000 E1.10324
G1 X62.180 Y66.296 F6000.000
G1 X65.204 Y69.320 F1080.000 E1.19239
G1 X65.204 Y68.175 F6000.000
G1 X63.325 Y66.296 F1080.000 E1.24778
G1 X64.470 Y66.296 F6000.000
G1 X65.204 Y67.030 F1080.000 E1.26943
G1 X65.960 Y66.716 F6000.000
G1 X65.556 Y66.312 F240.000 E1.27495
G1 X66.058 Y66.284 E1.27981
G1 X66.490 Y66.716 E1.28572
G1 X66.588 Y66.284 E1.29000
G1 X67.020 Y66.716 E1.29591
G1 X67.119 Y66.284 E1.30019
G1 X67.551 Y66.716 E1.30609
G1 X67.649 Y66.284 E1.31038
G1 X68.081 Y66.716 E1.31628
G1 X68.179 Y66.284 E1.32056
G1 X68.611 Y66.716 E1.32647
G1 X68.710 Y66.284 E1.33075
G1 X69.141 Y66.716 E1.33666
G1 X69.240 Y66.284 E1.34094
G1 X69.672 Y66.716 E1.34685
G1 X69.770 Y66.284 E1.35113
G1 X70.202 Y66.716 E1.35703
G1 F600.000 E0.35703
G92 E0
G1 X52.773 Y66.788 F6000.000
G1 F600.000 E1.00000
G1 X52.513 Y66.527 F240.000 E1.00356
G1 X52.800 Y66.284 E1.00720
G1 X53.303 Y66.788 E1.01409
G1 X53.330 Y66.284 E1.01896
G1 X53.834 Y66.788 E1.02585
G1 X53.860 Y66.284 E1.03073
G1 X54.364 Y66.788 E1.03761
G1 X54.391 Y66.284 E1.04249
G1 X54.894 Y66.788 E1.04938
G1 X54.921 Y66.284 E1.05425
G1 X55.425 Y66.788 E1.06114
G1 X55.451 Y66.284 E1.06602
G1 X55.955 Y66.788 E1.07290
G1 X55.982 Y66.284 E1.07778
G1 X56.485 Y66.788 E1.08467
G1 X56.512 Y66.284 E1.08954
G1 X57.016 Y66.788 E1.09643
G1 X57.042 Y66.284 E1.10131
G1 X57.546 Y66.788 E1.10819
G1 X57.573 Y66.284 E1.11307
G1 X58.076 Y66.788 E1.11996
G1 X58.103 Y66.284 E1.12483
G1 X58.607 Y66.788 E1.13172
G1 X58.633 Y66.284 E1.13660
G1 X59.137 Y66.788 E1.14348
G1 X59.164 Y66.284 E1.14836
G1 X59.667 Y66.788 E1.15525
G1 X59.694 Y66.284 E1.16012
G1 X60.198 Y66.788 E1.16701
G1 X60.224 Y66.284 E1.17189
G1 X60.728 Y66.788 E1.17878
G1 X60.755 Y66.284 E1.18365
G1 X61.258 Y66.788 E1.19054
G1 X61.431 Y66.430 E1.19438
G1 X61.285 Y66.284 E1.19638
G1 F600.000 E0.19638
G92 E0
G1 X52.108 Y66.526 F6000.000
G1 F600.000 E1.00000
G1 X51.877 Y66.296 F1080.000 E1.00680
G1 X51.688 Y67.252 F6000.000
G1 X50.732 Y66.296 F1080.000 E1.03499
G1 X49.587 Y66.296 F6000.000
G1 X51.269 Y67.978 F1080.000 E1.08459
G1 X50.850 Y68.704 F6000.000
G1 X48.796 Y66.649 F1080.000 E1.14516
G1 X48.796 Y67.794 F6000.000
G1 X50.431 Y69.429 F1080.000 E1.19338
G1 X50.012 Y70.155 F6000.000
G1 X48.796 Y68.939 F1080.000 E1.22925
G1 X48.796 Y70.083 F6000.000
G1 X49.593 Y70.881 F1080.000 E1.25277
G1 X49.174 Y71.607 F6000.000
G1 X48.796 Y71.228 F1080.000 E1.26393
G1 X48.964 Y71.994 F6000.000
G1 X48.784 Y71.814 F240.000 E1.26639
G1 X49.158 Y71.658 E1.27031
