; generated by Slic3r 0.9.10b on 2013-11-12 at 14:06:26

; layer_height = 0.2
; perimeters = 1
; top_solid_layers = 5
; bottom_solid_layers = 5
; fill_density = 0.4
; perimeter_speed = 90
; infill_speed = 90
; travel_speed = 100
; nozzle_diameter = 0.5
; filament_diameter = 2.9
; extrusion_multiplier = 0.853
; perimeters extrusion width = 0.85mm
; infill extrusion width = 1.02mm
; solid infill extrusion width = 0.85mm
; top infill extrusion width = 0.85mm

G21 ; set units to millimeters
;G28 ; home all axes
G90 ; use absolute coordinates
G92 E0
M82 ; use absolute distances for extrusion
G1 F600.000 E-1.00000
G92 E0
G1 Z0.200 F6000.000
G1 X49.190 Y59.190
G1 F600.000 E1.00000
G1 X50.220 Y58.340 F1080.000 E1.02784
G1 X51.400 Y57.710 E1.05572
G1 X52.670 Y57.320 E1.08342
G1 X54.000 Y57.190 E1.11127
G1 X96.000 Y57.190 E1.98678
G1 X97.330 Y57.320 E2.01463
G1 X98.600 Y57.710 E2.04233
G1 X99.780 Y58.340 E2.07021
G1 X100.810 Y59.190 E2.09805
G1 X101.660 Y60.220 E2.12589
G1 X102.290 Y61.400 E2.15377
G1 X102.680 Y62.670 E2.18146
G1 X102.810 Y64.000 E2.20932
G1 X102.810 Y86.000 E2.66792
G1 X102.680 Y87.330 E2.69577
G1 X102.290 Y88.600 E2.72347
G1 X101.660 Y89.780 E2.75135
G1 X100.810 Y90.810 E2.77919
G1 X99.780 Y91.660 E2.80703
G1 X98.600 Y92.290 E2.83491
G1 X97.330 Y92.680 E2.86261
G1 X96.000 Y92.810 E2.89046
G1 X54.000 Y92.810 E3.76597
G1 X52.670 Y92.680 E3.79382
G1 X51.400 Y92.290 E3.82152
G1 X50.220 Y91.660 E3.84940
G1 X49.190 Y90.810 E3.87724
G1 X48.340 Y89.780 E3.90508
G1 X47.710 Y88.600 E3.93296
G1 X47.320 Y87.330 E3.96065
G1 X47.190 Y86.000 E3.98851
G1 X47.190 Y64.000 E4.44711
G1 X47.320 Y62.670 E4.47497
G1 X47.710 Y61.400 E4.50266
G1 X48.340 Y60.220 E4.53054
G1 X49.113 Y59.283 E4.55586
G1 F600.000 E3.55586
G92 E0
G1 X67.584 Y80.052 F6000.000
G1 F600.000 E1.00000
G1 X68.256 Y79.709 F1080.000 E1.01572
G1 X69.000 Y79.591 E1.03142
G1 X69.744 Y79.709 E1.04713
G1 X69.812 Y79.744 E1.04872
G1 X70.416 Y80.052 E1.06285
G1 X70.948 Y80.584 E1.07854
G1 X71.291 Y81.256 E1.09426
G1 X71.409 Y82.000 E1.10996
G1 X71.291 Y82.744 E1.12567
G1 X70.948 Y83.416 E1.14139
G1 X70.416 Y83.948 E1.15708
G1 X69.744 Y84.291 E1.17280
G1 X69.000 Y84.409 E1.18850
G1 X68.256 Y84.291 E1.20421
G1 X68.188 Y84.256 E1.20580
G1 X67.584 Y83.948 E1.21993
G1 X67.052 Y83.416 E1.23562
G1 X66.709 Y82.744 E1.25134
G1 X66.591 Y82.000 E1.26704
G1 X66.709 Y81.256 E1.28275
G1 X67.052 Y80.584 E1.29847
G1 X67.498 Y80.137 E1.31164
G1 F600.000 E0.31164
G92 E0
G1 X78.603 Y81.924 F6000.000
G1 F600.000 E1.00000
G1 X78.709 Y81.256 F1080.000 E1.01411
G1 X79.052 Y80.584 E1.02983
G1 X79.584 Y80.052 E1.04552
G1 X80.256 Y79.709 E1.06124
G1 X81.000 Y79.591 E1.07695
G1 X81.744 Y79.709 E1.09265
G1 X82.416 Y80.052 E1.10837
G1 X82.948 Y80.584 E1.12406
G1 X82.983 Y80.652 E1.12566
G1 X83.291 Y81.256 E1.13978
G1 X83.409 Y82.000 E1.15549
G1 X83.291 Y82.744 E1.17119
G1 X82.948 Y83.416 E1.18691
G1 X82.416 Y83.948 E1.20260
G1 X81.744 Y84.291 E1.21832
G1 X81.000 Y84.409 E1.23403
G1 X80.256 Y84.291 E1.24973
G1 X79.584 Y83.948 E1.26545
G1 X79.052 Y83.416 E1.28114
G1 X78.709 Y82.744 E1.29686
G1 X78.598 Y82.044 E1.31164
G1 F600.000 E0.31164
G92 E0
G1 X67.284 Y84.789 F6000.000
G1 F600.000 E1.00000
G1 X55.211 Y84.789 F1080.000 E1.25167
G1 X55.211 Y79.211 E1.36796
G1 X67.284 Y79.211 E1.61963
G1 X66.391 Y80.104 E1.64596
G1 X65.932 Y81.004 E1.66700
G1 X65.774 Y82.000 E1.68804
G1 X65.932 Y82.997 E1.70907
G1 X66.391 Y83.896 E1.73012
G1 X67.198 Y84.704 E1.75392
G1 F600.000 E0.75392
G92 E0
G1 X70.716 Y84.789 F6000.000
G1 F600.000 E1.00000
G1 X71.609 Y83.896 F1080.000 E1.02633
G1 X72.068 Y82.997 E1.04737
G1 X72.226 Y82.000 E1.06841
G1 X72.068 Y81.003 E1.08944
G1 X71.610 Y80.104 E1.11049
G1 X70.716 Y79.211 E1.13682
G1 X79.284 Y79.211 E1.31541
G1 X78.391 Y80.104 E1.34174
G1 X77.932 Y81.003 E1.36278
G1 X77.774 Y82.000 E1.38382
G1 X77.932 Y82.997 E1.40485
G1 X78.391 Y83.896 E1.42590
G1 X79.284 Y84.789 E1.45223
G1 X70.837 Y84.789 E1.62830
G1 F600.000 E0.62830
G92 E0
G1 X82.716 Y84.789 F6000.000
G1 F600.000 E1.00000
G1 X83.609 Y83.896 F1080.000 E1.02633
G1 X84.068 Y82.997 E1.04737
G1 X84.226 Y82.000 E1.06841
G1 X84.068 Y81.003 E1.08944
G1 X83.609 Y80.104 E1.11049
G1 X82.716 Y79.211 E1.13682
G1 X94.789 Y79.211 E1.38849
G1 X94.789 Y84.789 E1.50478
G1 X82.837 Y84.789 E1.75392
G1 F600.000 E0.75392
G92 E0
G1 X95.596 Y85.596 F6000.000
G1 F600.000 E1.00000
G1 X54.404 Y85.596 F1080.000 E1.85868
G1 X54.404 Y78.404 E2.00862
G1 X95.596 Y78.404 E2.86730
G1 X95.596 Y85.475 E3.01472
G1 F600.000 E2.01472
G92 E0
G1 X94.204 Y80.832 F6000.000
G1 F600.000 E1.00000
G1 X93.168 Y79.796 F1080.000 E1.03103
G1 X92.009 Y79.796 E1.05557
G1 X94.204 Y81.991 E1.12130
G1 X94.204 Y83.150 E1.14584
G1 X90.850 Y79.796 E1.24629
G1 X89.690 Y79.796 E1.27083
G1 X94.099 Y84.204 E1.40282
G1 X92.940 Y84.204 E1.42736
G1 X88.531 Y79.796 E1.55936
G1 X87.372 Y79.796 E1.58390
G1 X91.781 Y84.204 E1.71590
G1 X90.622 Y84.204 E1.74044
G1 X86.213 Y79.796 E1.87244
G1 X85.054 Y79.796 E1.89698
G1 X89.462 Y84.204 E2.02897
G1 X88.303 Y84.204 E2.05351
G1 X84.332 Y80.233 E2.17242
G1 X84.795 Y81.856 E2.20814
G1 X87.144 Y84.204 E2.27846
G1 X85.985 Y84.204 E2.30300
G1 X84.676 Y82.896 E2.34219
G1 X84.351 Y83.730 E2.36114
G1 X84.826 Y84.204 E2.37535
G1 F600.000 E1.37535
G92 E0
G1 X80.546 Y85.023 F6000.000
G1 F600.000 E1.00000
G1 X80.420 Y84.897 F240.000 E1.00173
G1 X81.037 Y84.983 E1.00778
G1 X81.077 Y85.023 E1.00833
G1 X81.496 Y84.910 E1.01254
G1 X81.609 Y85.023 E1.01409
G1 F600.000 E0.01409
G92 E0
G1 X80.466 Y79.095 F6000.000
G1 F600.000 E1.00000
G1 X80.348 Y78.977 F240.000 E1.00162
G1 X80.879 Y78.977 F6000.000
G1 X80.925 Y79.023 F240.000 E1.00224
G1 X81.411 Y78.977 F6000.000
G1 X81.529 Y79.095 F240.000 E1.00385
G1 F600.000 E0.00385
G92 E0
G1 X77.570 Y80.426 F6000.000
G1 F600.000 E1.00000
G1 X76.939 Y79.796 F1080.000 E1.01859
G1 X75.780 Y79.796 F6000.000
G1 X77.292 Y81.307 F1080.000 E1.06315
G1 X77.249 Y82.424 F6000.000
G1 X74.621 Y79.796 F1080.000 E1.14063
G1 X73.462 Y79.796 F6000.000
G1 X77.870 Y84.204 F1080.000 E1.27060
G1 X76.711 Y84.204 F6000.000
G1 X72.303 Y79.796 F1080.000 E1.40057
G1 X72.718 Y81.371 F6000.000
G1 X75.552 Y84.204 F1080.000 E1.48411
G1 X74.393 Y84.204 F6000.000
G1 X72.732 Y82.543 F1080.000 E1.53307
G1 X72.489 Y83.459 F6000.000
G1 X73.234 Y84.204 F1080.000 E1.55504
G1 F600.000 E0.55504
G92 E0
G1 X69.758 Y84.869 F6000.000
G1 F600.000 E1.00000
G1 X69.792 Y84.903 F240.000 E1.00046
G1 X69.299 Y84.942 F6000.000
G1 X69.381 Y85.023 F240.000 E1.00157
G1 X68.849 Y85.023 F6000.000
G1 X68.780 Y84.954 F240.000 E1.00251
G1 F600.000 E0.00251
G92 E0
G1 X68.269 Y79.127 F6000.000
G1 F600.000 E1.00000
G1 X68.224 Y79.081 F240.000 E1.00062
G1 X68.651 Y78.977 F6000.000
G1 X68.728 Y79.054 F240.000 E1.00167
G1 X69.183 Y78.977 F6000.000
G1 X69.258 Y79.052 F240.000 E1.00269
G1 F600.000 E0.00269
G92 E0
G1 X65.707 Y80.156 F6000.000
G1 F600.000 E1.00000
G1 X65.347 Y79.796 F1080.000 E1.01061
G1 X64.188 Y79.796 F6000.000
G1 X65.348 Y80.955 F1080.000 E1.04479
G1 X65.189 Y81.956 F6000.000
G1 X63.029 Y79.796 F1080.000 E1.10847
G1 X61.870 Y79.796 F6000.000
G1 X65.488 Y83.414 F1080.000 E1.21515
G1 X65.119 Y84.204 F6000.000
G1 X60.711 Y79.796 F1080.000 E1.34512
G1 X59.551 Y79.796 F6000.000
G1 X63.960 Y84.204 F1080.000 E1.47508
G1 X62.801 Y84.204 F6000.000
G1 X58.392 Y79.796 F1080.000 E1.60505
G1 X57.233 Y79.796 F6000.000
G1 X61.642 Y84.204 F1080.000 E1.73502
G1 X60.483 Y84.204 F6000.000
G1 X56.074 Y79.796 F1080.000 E1.86499
G1 X55.796 Y80.677 F6000.000
G1 X59.323 Y84.204 F1080.000 E1.96899
G1 X58.164 Y84.204 F6000.000
G1 X55.796 Y81.836 F1080.000 E2.03881
G1 X55.796 Y82.995 F6000.000
G1 X57.005 Y84.204 F1080.000 E2.07447
G1 X55.846 Y84.204 F6000.000
G1 X55.796 Y84.154 F1080.000 E2.07594
G1 F600.000 E1.07594
G92 E0
G1 X67.584 Y69.948 F6000.000
G1 F600.000 E1.00000
G1 X67.052 Y69.416 F1080.000 E1.01569
G1 X67.017 Y69.348 E1.01729
G1 X66.709 Y68.744 E1.03141
G1 X66.591 Y68.000 E1.04712
G1 X66.709 Y67.256 E1.06282
G1 X67.052 Y66.584 E1.07854
G1 X67.584 Y66.052 E1.09423
G1 X67.652 Y66.017 E1.09583
G1 X68.256 Y65.709 E1.10995
G1 X69.000 Y65.591 E1.12566
G1 X69.744 Y65.709 E1.14136
G1 X70.416 Y66.052 E1.15708
G1 X70.948 Y66.584 E1.17277
G1 X71.291 Y67.256 E1.18849
G1 X71.409 Y68.000 E1.20420
G1 X71.291 Y68.744 E1.21990
G1 X70.948 Y69.416 E1.23562
G1 X70.416 Y69.948 E1.25131
G1 X69.744 Y70.291 E1.26703
G1 X69.000 Y70.409 E1.28274
G1 X68.256 Y70.291 E1.29844
G1 X67.692 Y70.003 E1.31164
G1 F600.000 E0.31164
G92 E0
G1 X78.591 Y68.000 F6000.000
G1 F600.000 E1.00000
G1 X78.709 Y67.256 F1080.000 E1.01571
G1 X79.052 Y66.584 E1.03142
G1 X79.584 Y66.052 E1.04712
G1 X80.256 Y65.709 E1.06284
G1 X81.000 Y65.591 E1.07854
G1 X81.744 Y65.709 E1.09425
G1 X82.416 Y66.052 E1.10996
G1 X82.948 Y66.584 E1.12566
G1 X82.983 Y66.652 E1.12725
G1 X83.291 Y67.256 E1.14138
G1 X83.409 Y68.000 E1.15708
G1 X83.291 Y68.744 E1.17279
G1 X82.948 Y69.416 E1.18850
G1 X82.416 Y69.948 E1.20420
G1 X81.744 Y70.291 E1.21992
G1 X81.000 Y70.409 E1.23562
G1 X80.256 Y70.291 E1.25133
G1 X79.584 Y69.948 E1.26704
G1 X79.052 Y69.416 E1.28274
G1 X78.709 Y68.744 E1.29846
G1 X78.610 Y68.120 E1.31164
G1 F600.000 E0.31164
G92 E0
G1 X67.284 Y70.789 F6000.000
G1 F600.000 E1.00000
G1 X55.211 Y70.789 F1080.000 E1.25167
G1 X55.211 Y65.211 E1.36796
G1 X67.284 Y65.211 E1.61963
G1 X66.391 Y66.104 E1.64596
G1 X65.932 Y67.004 E1.66700
G1 X65.774 Y68.000 E1.68804
G1 X65.932 Y68.997 E1.70907
G1 X66.391 Y69.896 E1.73012
G1 X67.198 Y70.704 E1.75392
G1 F600.000 E0.75392
G92 E0
G1 X70.716 Y70.789 F6000.000
G1 F600.000 E1.00000
G1 X71.609 Y69.896 F1080.000 E1.02633
G1 X72.068 Y68.997 E1.04737
G1 X72.226 Y68.000 E1.06841
G1 X72.068 Y67.003 E1.08944
G1 X71.610 Y66.104 E1.11049
G1 X70.716 Y65.211 E1.13682
G1 X79.284 Y65.211 E1.31541
G1 X78.391 Y66.104 E1.34174
G1 X77.932 Y67.003 E1.36278
G1 X77.774 Y68.000 E1.38382
G1 X77.932 Y68.997 E1.40485
G1 X78.391 Y69.896 E1.42590
G1 X79.284 Y70.789 E1.45223
G1 X70.837 Y70.789 E1.62830
G1 F600.000 E0.62830
G92 E0
G1 X82.716 Y70.789 F6000.000
G1 F600.000 E1.00000
G1 X83.609 Y69.896 F1080.000 E1.02633
G1 X84.068 Y68.997 E1.04737
G1 X84.226 Y68.000 E1.06841
G1 X84.068 Y67.003 E1.08944
G1 X83.609 Y66.104 E1.11049
G1 X82.716 Y65.211 E1.13682
G1 X94.789 Y65.211 E1.38849
G1 X94.789 Y70.789 E1.50478
G1 X82.837 Y70.789 E1.75392
G1 F600.000 E0.75392
G92 E0
G1 X95.596 Y71.596 F6000.000
G1 F600.000 E1.00000
G1 X54.404 Y71.596 F1080.000 E1.85868
G1 X54.404 Y64.404 E2.00862
G1 X95.596 Y64.404 E2.86730
G1 X95.596 Y71.475 E3.01472
G1 F600.000 E2.01472
G92 E0
G1 X94.204 Y66.832 F6000.000
G1 F600.000 E1.00000
G1 X93.168 Y65.796 F1080.000 E1.03103
G1 X92.009 Y65.796 E1.05557
G1 X94.204 Y67.991 E1.12130
G1 X94.204 Y69.150 E1.14584
G1 X90.850 Y65.796 E1.24629
G1 X89.690 Y65.796 E1.27083
G1 X94.099 Y70.204 E1.40282
G1 X92.940 Y70.204 E1.42736
G1 X88.531 Y65.796 E1.55936
G1 X87.372 Y65.796 E1.58390
G1 X91.781 Y70.204 E1.71590
G1 X90.622 Y70.204 E1.74044
G1 X86.213 Y65.796 E1.87244
G1 X85.054 Y65.796 E1.89698
G1 X89.462 Y70.204 E2.02897
G1 X88.303 Y70.204 E2.05351
G1 X84.332 Y66.233 E2.17242
G1 X84.795 Y67.856 E2.20814
G1 X87.144 Y70.204 E2.27846
G1 X85.985 Y70.204 E2.30300
G1 X84.676 Y68.896 E2.34219
G1 X84.351 Y69.730 E2.36114
G1 X84.826 Y70.204 E2.37535
G1 F600.000 E1.37535
G92 E0
G1 X80.546 Y71.023 F6000.000
G1 F600.000 E1.00000
G1 X80.420 Y70.897 F240.000 E1.00173
G1 X81.037 Y70.983 E1.00778
G1 X81.077 Y71.023 E1.00833
G1 X81.496 Y70.910 E1.01254
G1 X81.609 Y71.023 E1.01409
G1 F600.000 E0.01409
G92 E0
G1 X80.466 Y65.095 F6000.000
G1 F600.000 E1.00000
G1 X80.348 Y64.977 F240.000 E1.00162
G1 X80.879 Y64.977 F6000.000
G1 X80.925 Y65.023 F240.000 E1.00224
G1 X81.411 Y64.977 F6000.000
G1 X81.529 Y65.095 F240.000 E1.00385
G1 F600.000 E0.00385
G92 E0
G1 X77.570 Y66.426 F6000.000
G1 F600.000 E1.00000
G1 X76.939 Y65.796 F1080.000 E1.01859
G1 X75.780 Y65.796 F6000.000
G1 X77.292 Y67.307 F1080.000 E1.06315
G1 X77.249 Y68.424 F6000.000
G1 X74.621 Y65.796 F1080.000 E1.14063
G1 X73.462 Y65.796 F6000.000
G1 X77.870 Y70.204 F1080.000 E1.27060
G1 X76.711 Y70.204 F6000.000
G1 X72.303 Y65.796 F1080.000 E1.40057
G1 X72.718 Y67.371 F6000.000
G1 X75.552 Y70.204 F1080.000 E1.48411
G1 X74.393 Y70.204 F6000.000
G1 X72.732 Y68.543 F1080.000 E1.53307
G1 X72.489 Y69.459 F6000.000
G1 X73.234 Y70.204 F1080.000 E1.55504
G1 F600.000 E0.55504
G92 E0
G1 X69.758 Y70.869 F6000.000
G1 F600.000 E1.00000
G1 X69.792 Y70.903 F240.000 E1.00046
G1 X69.299 Y70.942 F6000.000
G1 X69.381 Y71.023 F240.000 E1.00157
G1 X68.849 Y71.023 F6000.000
G1 X68.780 Y70.954 F240.000 E1.00251
G1 F600.000 E0.00251
G92 E0
G1 X68.269 Y65.127 F6000.000
G1 F600.000 E1.00000
G1 X68.224 Y65.081 F240.000 E1.00062
G1 X68.651 Y64.977 F6000.000
G1 X68.728 Y65.054 F240.000 E1.00167
G1 X69.183 Y64.977 F6000.000
G1 X69.258 Y65.052 F240.000 E1.00269
G1 F600.000 E0.00269
G92 E0
G1 X65.707 Y66.156 F6000.000
G1 F600.000 E1.00000
G1 X65.347 Y65.796 F1080.000 E1.01061
G1 X64.188 Y65.796 F6000.000
G1 X65.348 Y66.955 F1080.000 E1.04479
G1 X65.189 Y67.956 F6000.000
G1 X63.029 Y65.796 F1080.000 E1.10847
G1 X61.870 Y65.796 F6000.000
G1 X65.488 Y69.414 F1080.000 E1.21515
G1 X65.119 Y70.204 F6000.000
G1 X60.711 Y65.796 F1080.000 E1.34512
G1 X59.551 Y65.796 F6000.000
G1 X63.960 Y70.204 F1080.000 E1.47508
G1 X62.801 Y70.204 F6000.000
G1 X58.392 Y65.796 F1080.000 E1.60505
G1 X57.233 Y65.796 F6000.000
G1 X61.642 Y70.204 F1080.000 E1.73502
G1 X60.483 Y70.204 F6000.000
G1 X56.074 Y65.796 F1080.000 E1.86499
G1 X55.796 Y66.677 F6000.000
G1 X59.323 Y70.204 F1080.000 E1.96899
G1 X58.164 Y70.204 F6000.000
G1 X55.796 Y67.836 F1080.000 E2.03881
G1 X55.796 Y68.995 F6000.000
G1 X57.005 Y70.204 F1080.000 E2.07447
G1 X55.846 Y70.204 F6000.000
G1 X55.796 Y70.154 F1080.000 E2.07594
G1 F600.000 E1.07594
G92 E0
G1 Z0.400 F6000.000
G1 X78.709 Y81.256
G1 F600.000 E1.00000
G1 X79.052 Y80.584 F5400.000 E1.01572
G1 X79.584 Y80.052 E1.03141
G1 X80.256 Y79.709 E1.04713
G1 X81.000 Y79.591 E1.06283
G1 X81.744 Y79.709 E1.07854
G1 X82.416 Y80.052 E1.09426
G1 X82.948 Y80.584 E1.10995
G1 X83.291 Y81.256 E1.12567
G1 X83.409 Y82.000 E1.14137
G1 X83.291 Y82.744 E1.15708
G1 X82.948 Y83.416 E1.17280
G1 X82.416 Y83.948 E1.18849
G1 X81.744 Y84.291 E1.20421
G1 X81.000 Y84.409 E1.21991
G1 X80.256 Y84.291 E1.23562
G1 X79.584 Y83.948 E1.25134
G1 X79.052 Y83.416 E1.26703
G1 X78.709 Y82.744 E1.28275
G1 X78.591 Y82.000 E1.29845
G1 X78.690 Y81.375 E1.31164
G1 F600.000 E0.31164
G92 E0
G1 X71.409 Y82.000 F6000.000
G1 F600.000 E1.00000
G1 X71.291 Y82.744 F5400.000 E1.01570
G1 X70.948 Y83.416 E1.03142
G1 X70.877 Y83.488 E1.03354
G1 X70.416 Y83.948 E1.04712
G1 X69.744 Y84.291 E1.06284
G1 X69.000 Y84.409 E1.07854
G1 X68.256 Y84.291 E1.09424
G1 X67.584 Y83.948 E1.10996
G1 X67.052 Y83.416 E1.12566
G1 X67.006 Y83.326 E1.12777
G1 X66.709 Y82.744 E1.14137
G1 X66.591 Y82.000 E1.15708
G1 X66.709 Y81.256 E1.17278
G1 X67.052 Y80.584 E1.18850
G1 X67.584 Y80.052 E1.20420
G1 X68.256 Y79.709 E1.21991
G1 X69.000 Y79.591 E1.23562
G1 X69.744 Y79.709 E1.25132
G1 X70.416 Y80.052 E1.26704
G1 X70.948 Y80.584 E1.28274
G1 X71.291 Y81.256 E1.29845
G1 X71.390 Y81.880 E1.31164
G1 F600.000 E0.31164
G92 E0
G1 X67.284 Y79.211 F6000.000
G1 F600.000 E1.00000
G1 X66.391 Y80.104 F5400.000 E1.02633
G1 X65.932 Y81.003 E1.04738
G1 X65.774 Y82.000 E1.06841
G1 X65.932 Y82.997 E1.08944
G1 X66.391 Y83.896 E1.11049
G1 X67.284 Y84.789 E1.13682
G1 X55.211 Y84.789 E1.38849
G1 X55.211 Y79.211 E1.50478
G1 X67.163 Y79.211 E1.75392
G1 F600.000 E0.75392
G92 E0
G1 X70.716 Y79.211 F6000.000
G1 F600.000 E1.00000
G1 X79.284 Y79.211 F5400.000 E1.17859
G1 X78.391 Y80.104 E1.20492
G1 X77.932 Y81.003 E1.22596
G1 X77.774 Y82.000 E1.24700
G1 X77.932 Y82.997 E1.26803
G1 X78.391 Y83.896 E1.28908
G1 X79.284 Y84.789 E1.31541
G1 X70.716 Y84.789 E1.49400
G1 X71.609 Y83.896 E1.52033
G1 X72.068 Y82.997 E1.54138
G1 X72.226 Y82.000 E1.56241
G1 X72.068 Y81.003 E1.58345
G1 X71.609 Y80.104 E1.60449
G1 X70.802 Y79.296 E1.62830
G1 F600.000 E0.62830
G92 E0
G1 X82.716 Y79.211 F6000.000
G1 F600.000 E1.00000
G1 X94.789 Y79.211 F5400.000 E1.25167
G1 X94.789 Y84.789 E1.36796
G1 X82.716 Y84.789 E1.61963
G1 X83.609 Y83.896 E1.64596
